<?xml version="1.0" encoding="UTF-8"?>
<map version="1.10" tiledversion="1.10.2" orientation="orthogonal" renderorder="right-down" width="16" height="24" tilewidth="16" tileheight="16" infinite="1" nextlayerid="8" nextobjectid="1">
 <tileset firstgid="1" name="Interior_walls" tilewidth="16" tileheight="16" tilecount="375" columns="15">
  <image source="Interior_walls.png" width="240" height="400"/>
 </tileset>
 <tileset firstgid="376" name="Interior_objects" tilewidth="16" tileheight="16" tilecount="306" columns="18">
  <image source="Interior_objects.png" width="288" height="272"/>
 </tileset>
 <tileset firstgid="682" name="Reader1" tilewidth="16" tileheight="16" tilecount="108" columns="36">
  <image source="Reader1_fit2.png" width="576" height="48"/>
  <tile id="0">
   <animation>
    <frame tileid="0" duration="150"/>
    <frame tileid="2" duration="150"/>
    <frame tileid="4" duration="150"/>
    <frame tileid="6" duration="150"/>
    <frame tileid="8" duration="150"/>
    <frame tileid="10" duration="150"/>
    <frame tileid="12" duration="150"/>
    <frame tileid="14" duration="150"/>
    <frame tileid="16" duration="150"/>
    <frame tileid="18" duration="150"/>
    <frame tileid="20" duration="150"/>
    <frame tileid="22" duration="150"/>
    <frame tileid="24" duration="150"/>
    <frame tileid="26" duration="150"/>
    <frame tileid="28" duration="150"/>
    <frame tileid="30" duration="150"/>
    <frame tileid="32" duration="150"/>
    <frame tileid="34" duration="150"/>
   </animation>
  </tile>
  <tile id="1">
   <animation>
    <frame tileid="1" duration="150"/>
    <frame tileid="3" duration="150"/>
    <frame tileid="5" duration="150"/>
    <frame tileid="7" duration="150"/>
    <frame tileid="9" duration="150"/>
    <frame tileid="11" duration="150"/>
    <frame tileid="13" duration="150"/>
    <frame tileid="15" duration="150"/>
    <frame tileid="17" duration="150"/>
    <frame tileid="19" duration="150"/>
    <frame tileid="21" duration="150"/>
    <frame tileid="23" duration="150"/>
    <frame tileid="25" duration="150"/>
    <frame tileid="27" duration="150"/>
    <frame tileid="29" duration="150"/>
    <frame tileid="31" duration="150"/>
    <frame tileid="33" duration="150"/>
    <frame tileid="35" duration="150"/>
   </animation>
  </tile>
  <tile id="36">
   <animation>
    <frame tileid="36" duration="150"/>
    <frame tileid="38" duration="150"/>
    <frame tileid="40" duration="150"/>
    <frame tileid="42" duration="150"/>
    <frame tileid="44" duration="150"/>
    <frame tileid="46" duration="150"/>
    <frame tileid="48" duration="150"/>
    <frame tileid="50" duration="150"/>
    <frame tileid="52" duration="150"/>
    <frame tileid="54" duration="150"/>
    <frame tileid="56" duration="150"/>
    <frame tileid="58" duration="150"/>
    <frame tileid="60" duration="150"/>
    <frame tileid="62" duration="150"/>
    <frame tileid="64" duration="150"/>
    <frame tileid="66" duration="150"/>
    <frame tileid="68" duration="150"/>
    <frame tileid="70" duration="150"/>
   </animation>
  </tile>
  <tile id="37">
   <animation>
    <frame tileid="37" duration="150"/>
    <frame tileid="39" duration="150"/>
    <frame tileid="41" duration="150"/>
    <frame tileid="43" duration="150"/>
    <frame tileid="45" duration="150"/>
    <frame tileid="47" duration="150"/>
    <frame tileid="49" duration="150"/>
    <frame tileid="51" duration="150"/>
    <frame tileid="53" duration="150"/>
    <frame tileid="55" duration="150"/>
    <frame tileid="57" duration="150"/>
    <frame tileid="59" duration="150"/>
    <frame tileid="61" duration="150"/>
    <frame tileid="63" duration="150"/>
    <frame tileid="65" duration="150"/>
    <frame tileid="67" duration="150"/>
    <frame tileid="69" duration="150"/>
    <frame tileid="71" duration="150"/>
   </animation>
  </tile>
  <tile id="72">
   <animation>
    <frame tileid="72" duration="150"/>
    <frame tileid="74" duration="150"/>
    <frame tileid="76" duration="150"/>
    <frame tileid="78" duration="150"/>
    <frame tileid="80" duration="150"/>
    <frame tileid="82" duration="150"/>
    <frame tileid="84" duration="150"/>
    <frame tileid="86" duration="150"/>
    <frame tileid="88" duration="150"/>
    <frame tileid="90" duration="150"/>
    <frame tileid="92" duration="150"/>
    <frame tileid="94" duration="150"/>
    <frame tileid="96" duration="150"/>
    <frame tileid="98" duration="150"/>
    <frame tileid="100" duration="150"/>
    <frame tileid="102" duration="150"/>
    <frame tileid="104" duration="150"/>
    <frame tileid="106" duration="150"/>
   </animation>
  </tile>
  <tile id="73">
   <animation>
    <frame tileid="73" duration="150"/>
    <frame tileid="75" duration="150"/>
    <frame tileid="77" duration="150"/>
    <frame tileid="79" duration="150"/>
    <frame tileid="81" duration="150"/>
    <frame tileid="83" duration="150"/>
    <frame tileid="85" duration="150"/>
    <frame tileid="87" duration="150"/>
    <frame tileid="89" duration="150"/>
    <frame tileid="91" duration="150"/>
    <frame tileid="93" duration="150"/>
    <frame tileid="95" duration="150"/>
    <frame tileid="97" duration="150"/>
    <frame tileid="99" duration="150"/>
    <frame tileid="101" duration="150"/>
    <frame tileid="103" duration="150"/>
    <frame tileid="105" duration="150"/>
    <frame tileid="107" duration="150"/>
   </animation>
  </tile>
 </tileset>
 <tileset firstgid="790" name="Dragon_child" tilewidth="16" tileheight="16" tilecount="144" columns="48">
  <image source="Dragon_child.png" width="768" height="48"/>
  <tile id="0">
   <animation>
    <frame tileid="0" duration="150"/>
    <frame tileid="4" duration="150"/>
    <frame tileid="8" duration="150"/>
    <frame tileid="12" duration="150"/>
    <frame tileid="16" duration="150"/>
    <frame tileid="20" duration="150"/>
    <frame tileid="24" duration="150"/>
    <frame tileid="28" duration="150"/>
    <frame tileid="32" duration="150"/>
    <frame tileid="36" duration="150"/>
    <frame tileid="40" duration="150"/>
    <frame tileid="44" duration="150"/>
   </animation>
  </tile>
  <tile id="1">
   <animation>
    <frame tileid="1" duration="150"/>
    <frame tileid="5" duration="150"/>
    <frame tileid="9" duration="150"/>
    <frame tileid="13" duration="150"/>
    <frame tileid="17" duration="150"/>
    <frame tileid="21" duration="150"/>
    <frame tileid="25" duration="150"/>
    <frame tileid="29" duration="150"/>
    <frame tileid="33" duration="150"/>
    <frame tileid="37" duration="150"/>
    <frame tileid="41" duration="150"/>
    <frame tileid="45" duration="150"/>
   </animation>
  </tile>
  <tile id="2">
   <animation>
    <frame tileid="2" duration="150"/>
    <frame tileid="6" duration="150"/>
    <frame tileid="10" duration="150"/>
    <frame tileid="14" duration="150"/>
    <frame tileid="18" duration="150"/>
    <frame tileid="22" duration="150"/>
    <frame tileid="26" duration="150"/>
    <frame tileid="30" duration="150"/>
    <frame tileid="34" duration="150"/>
    <frame tileid="38" duration="150"/>
    <frame tileid="42" duration="150"/>
    <frame tileid="46" duration="150"/>
   </animation>
  </tile>
  <tile id="3">
   <animation>
    <frame tileid="3" duration="150"/>
    <frame tileid="7" duration="150"/>
    <frame tileid="11" duration="150"/>
    <frame tileid="15" duration="150"/>
    <frame tileid="19" duration="150"/>
    <frame tileid="23" duration="150"/>
    <frame tileid="27" duration="150"/>
    <frame tileid="31" duration="150"/>
    <frame tileid="35" duration="150"/>
    <frame tileid="39" duration="150"/>
    <frame tileid="43" duration="150"/>
    <frame tileid="47" duration="150"/>
   </animation>
  </tile>
  <tile id="48">
   <animation>
    <frame tileid="48" duration="150"/>
    <frame tileid="52" duration="150"/>
    <frame tileid="56" duration="150"/>
    <frame tileid="60" duration="150"/>
    <frame tileid="64" duration="150"/>
    <frame tileid="68" duration="150"/>
    <frame tileid="72" duration="150"/>
    <frame tileid="76" duration="150"/>
    <frame tileid="80" duration="150"/>
    <frame tileid="84" duration="150"/>
    <frame tileid="88" duration="150"/>
    <frame tileid="92" duration="150"/>
   </animation>
  </tile>
  <tile id="49">
   <animation>
    <frame tileid="49" duration="150"/>
    <frame tileid="53" duration="150"/>
    <frame tileid="57" duration="150"/>
    <frame tileid="61" duration="150"/>
    <frame tileid="65" duration="150"/>
    <frame tileid="69" duration="150"/>
    <frame tileid="73" duration="150"/>
    <frame tileid="77" duration="150"/>
    <frame tileid="81" duration="150"/>
    <frame tileid="85" duration="150"/>
    <frame tileid="89" duration="150"/>
    <frame tileid="93" duration="150"/>
   </animation>
  </tile>
  <tile id="50">
   <animation>
    <frame tileid="50" duration="150"/>
    <frame tileid="54" duration="150"/>
    <frame tileid="58" duration="150"/>
    <frame tileid="62" duration="150"/>
    <frame tileid="66" duration="150"/>
    <frame tileid="70" duration="150"/>
    <frame tileid="74" duration="150"/>
    <frame tileid="78" duration="150"/>
    <frame tileid="82" duration="150"/>
    <frame tileid="86" duration="150"/>
    <frame tileid="90" duration="150"/>
    <frame tileid="94" duration="150"/>
   </animation>
  </tile>
  <tile id="51">
   <animation>
    <frame tileid="51" duration="150"/>
    <frame tileid="55" duration="150"/>
    <frame tileid="59" duration="150"/>
    <frame tileid="63" duration="150"/>
    <frame tileid="67" duration="150"/>
    <frame tileid="71" duration="150"/>
    <frame tileid="75" duration="150"/>
    <frame tileid="79" duration="150"/>
    <frame tileid="83" duration="150"/>
    <frame tileid="87" duration="150"/>
    <frame tileid="91" duration="150"/>
    <frame tileid="95" duration="150"/>
   </animation>
  </tile>
  <tile id="96">
   <animation>
    <frame tileid="96" duration="150"/>
    <frame tileid="100" duration="150"/>
    <frame tileid="104" duration="150"/>
    <frame tileid="108" duration="150"/>
    <frame tileid="112" duration="150"/>
    <frame tileid="116" duration="150"/>
    <frame tileid="120" duration="150"/>
    <frame tileid="124" duration="150"/>
    <frame tileid="128" duration="150"/>
    <frame tileid="132" duration="150"/>
    <frame tileid="136" duration="150"/>
    <frame tileid="140" duration="150"/>
   </animation>
  </tile>
  <tile id="97">
   <animation>
    <frame tileid="97" duration="150"/>
    <frame tileid="101" duration="150"/>
    <frame tileid="105" duration="150"/>
    <frame tileid="109" duration="150"/>
    <frame tileid="113" duration="150"/>
    <frame tileid="117" duration="150"/>
    <frame tileid="121" duration="150"/>
    <frame tileid="125" duration="150"/>
    <frame tileid="129" duration="150"/>
    <frame tileid="133" duration="150"/>
    <frame tileid="137" duration="150"/>
    <frame tileid="141" duration="150"/>
   </animation>
  </tile>
  <tile id="98">
   <animation>
    <frame tileid="98" duration="150"/>
    <frame tileid="102" duration="150"/>
    <frame tileid="106" duration="150"/>
    <frame tileid="110" duration="150"/>
    <frame tileid="114" duration="150"/>
    <frame tileid="118" duration="150"/>
    <frame tileid="122" duration="150"/>
    <frame tileid="126" duration="150"/>
    <frame tileid="130" duration="150"/>
    <frame tileid="134" duration="150"/>
    <frame tileid="138" duration="150"/>
    <frame tileid="142" duration="150"/>
   </animation>
  </tile>
  <tile id="99">
   <animation>
    <frame tileid="99" duration="150"/>
    <frame tileid="103" duration="150"/>
    <frame tileid="107" duration="150"/>
    <frame tileid="111" duration="150"/>
    <frame tileid="115" duration="150"/>
    <frame tileid="119" duration="150"/>
    <frame tileid="123" duration="150"/>
    <frame tileid="127" duration="150"/>
    <frame tileid="131" duration="150"/>
    <frame tileid="135" duration="150"/>
    <frame tileid="139" duration="150"/>
    <frame tileid="143" duration="150"/>
   </animation>
  </tile>
 </tileset>
 <tileset firstgid="934" name="Reader3" tilewidth="16" tileheight="16" tilecount="12" columns="4">
  <image source="Reader3_fit4.png" width="64" height="48"/>
  <tile id="0">
   <animation>
    <frame tileid="0" duration="150"/>
    <frame tileid="0" duration="150"/>
    <frame tileid="0" duration="150"/>
    <frame tileid="0" duration="150"/>
    <frame tileid="0" duration="150"/>
    <frame tileid="0" duration="150"/>
    <frame tileid="2" duration="150"/>
    <frame tileid="2" duration="150"/>
    <frame tileid="2" duration="150"/>
    <frame tileid="2" duration="150"/>
    <frame tileid="2" duration="150"/>
    <frame tileid="2" duration="150"/>
   </animation>
  </tile>
  <tile id="1">
   <animation>
    <frame tileid="1" duration="150"/>
    <frame tileid="1" duration="150"/>
    <frame tileid="1" duration="150"/>
    <frame tileid="1" duration="150"/>
    <frame tileid="1" duration="150"/>
    <frame tileid="1" duration="150"/>
    <frame tileid="3" duration="150"/>
    <frame tileid="3" duration="150"/>
    <frame tileid="3" duration="150"/>
    <frame tileid="3" duration="150"/>
    <frame tileid="3" duration="150"/>
    <frame tileid="3" duration="150"/>
   </animation>
  </tile>
  <tile id="4">
   <animation>
    <frame tileid="4" duration="150"/>
    <frame tileid="4" duration="150"/>
    <frame tileid="4" duration="150"/>
    <frame tileid="4" duration="150"/>
    <frame tileid="4" duration="150"/>
    <frame tileid="4" duration="150"/>
    <frame tileid="6" duration="150"/>
    <frame tileid="6" duration="150"/>
    <frame tileid="6" duration="150"/>
    <frame tileid="6" duration="150"/>
    <frame tileid="6" duration="150"/>
    <frame tileid="6" duration="150"/>
   </animation>
  </tile>
  <tile id="5">
   <animation>
    <frame tileid="5" duration="150"/>
    <frame tileid="5" duration="150"/>
    <frame tileid="5" duration="150"/>
    <frame tileid="5" duration="150"/>
    <frame tileid="5" duration="150"/>
    <frame tileid="5" duration="150"/>
    <frame tileid="7" duration="150"/>
    <frame tileid="7" duration="150"/>
    <frame tileid="7" duration="150"/>
    <frame tileid="7" duration="150"/>
    <frame tileid="7" duration="150"/>
    <frame tileid="7" duration="150"/>
   </animation>
  </tile>
  <tile id="8">
   <animation>
    <frame tileid="8" duration="150"/>
    <frame tileid="8" duration="150"/>
    <frame tileid="8" duration="150"/>
    <frame tileid="8" duration="150"/>
    <frame tileid="8" duration="150"/>
    <frame tileid="8" duration="150"/>
    <frame tileid="10" duration="150"/>
    <frame tileid="10" duration="150"/>
    <frame tileid="10" duration="150"/>
    <frame tileid="10" duration="150"/>
    <frame tileid="10" duration="150"/>
    <frame tileid="10" duration="150"/>
   </animation>
  </tile>
  <tile id="9">
   <animation>
    <frame tileid="9" duration="150"/>
    <frame tileid="9" duration="150"/>
    <frame tileid="9" duration="150"/>
    <frame tileid="9" duration="150"/>
    <frame tileid="9" duration="150"/>
    <frame tileid="9" duration="150"/>
    <frame tileid="11" duration="150"/>
    <frame tileid="11" duration="150"/>
    <frame tileid="11" duration="150"/>
    <frame tileid="11" duration="150"/>
    <frame tileid="11" duration="150"/>
    <frame tileid="11" duration="150"/>
   </animation>
  </tile>
 </tileset>
 <tileset firstgid="946" name="Reader3" tilewidth="16" tileheight="16" tilecount="12" columns="4">
  <image source="Reader3_fit2.png" width="64" height="48"/>
  <tile id="0">
   <animation>
    <frame tileid="0" duration="150"/>
    <frame tileid="0" duration="150"/>
    <frame tileid="0" duration="150"/>
    <frame tileid="0" duration="150"/>
    <frame tileid="0" duration="150"/>
    <frame tileid="0" duration="150"/>
    <frame tileid="2" duration="150"/>
    <frame tileid="2" duration="150"/>
    <frame tileid="2" duration="150"/>
    <frame tileid="2" duration="150"/>
    <frame tileid="2" duration="150"/>
    <frame tileid="2" duration="150"/>
   </animation>
  </tile>
  <tile id="1">
   <animation>
    <frame tileid="1" duration="150"/>
    <frame tileid="1" duration="150"/>
    <frame tileid="1" duration="150"/>
    <frame tileid="1" duration="150"/>
    <frame tileid="1" duration="150"/>
    <frame tileid="1" duration="150"/>
    <frame tileid="3" duration="150"/>
    <frame tileid="3" duration="150"/>
    <frame tileid="3" duration="150"/>
    <frame tileid="3" duration="150"/>
    <frame tileid="3" duration="150"/>
    <frame tileid="3" duration="150"/>
   </animation>
  </tile>
  <tile id="4">
   <animation>
    <frame tileid="4" duration="150"/>
    <frame tileid="4" duration="150"/>
    <frame tileid="4" duration="150"/>
    <frame tileid="4" duration="150"/>
    <frame tileid="4" duration="150"/>
    <frame tileid="4" duration="150"/>
    <frame tileid="6" duration="150"/>
    <frame tileid="6" duration="150"/>
    <frame tileid="6" duration="150"/>
    <frame tileid="6" duration="150"/>
    <frame tileid="6" duration="150"/>
    <frame tileid="6" duration="150"/>
   </animation>
  </tile>
  <tile id="5">
   <animation>
    <frame tileid="5" duration="150"/>
    <frame tileid="5" duration="150"/>
    <frame tileid="5" duration="150"/>
    <frame tileid="5" duration="150"/>
    <frame tileid="5" duration="150"/>
    <frame tileid="5" duration="150"/>
    <frame tileid="7" duration="150"/>
    <frame tileid="7" duration="150"/>
    <frame tileid="7" duration="150"/>
    <frame tileid="7" duration="150"/>
    <frame tileid="7" duration="150"/>
    <frame tileid="7" duration="150"/>
   </animation>
  </tile>
  <tile id="8">
   <animation>
    <frame tileid="8" duration="150"/>
    <frame tileid="8" duration="150"/>
    <frame tileid="8" duration="150"/>
    <frame tileid="8" duration="150"/>
    <frame tileid="8" duration="150"/>
    <frame tileid="8" duration="150"/>
    <frame tileid="10" duration="150"/>
    <frame tileid="10" duration="150"/>
    <frame tileid="10" duration="150"/>
    <frame tileid="10" duration="150"/>
    <frame tileid="10" duration="150"/>
    <frame tileid="10" duration="150"/>
   </animation>
  </tile>
  <tile id="9">
   <animation>
    <frame tileid="9" duration="150"/>
    <frame tileid="9" duration="150"/>
    <frame tileid="9" duration="150"/>
    <frame tileid="9" duration="150"/>
    <frame tileid="9" duration="150"/>
    <frame tileid="9" duration="150"/>
    <frame tileid="11" duration="150"/>
    <frame tileid="11" duration="150"/>
    <frame tileid="11" duration="150"/>
    <frame tileid="11" duration="150"/>
    <frame tileid="11" duration="150"/>
    <frame tileid="11" duration="150"/>
   </animation>
  </tile>
 </tileset>
 <tileset firstgid="958" name="Reader3" tilewidth="16" tileheight="16" tilecount="12" columns="4">
  <image source="Reader2_fit2.png" width="64" height="48"/>
  <tile id="0">
   <animation>
    <frame tileid="0" duration="150"/>
    <frame tileid="0" duration="150"/>
    <frame tileid="0" duration="150"/>
    <frame tileid="0" duration="150"/>
    <frame tileid="0" duration="150"/>
    <frame tileid="0" duration="150"/>
    <frame tileid="2" duration="150"/>
    <frame tileid="2" duration="150"/>
    <frame tileid="2" duration="150"/>
    <frame tileid="2" duration="150"/>
    <frame tileid="2" duration="150"/>
    <frame tileid="2" duration="150"/>
   </animation>
  </tile>
  <tile id="1">
   <animation>
    <frame tileid="1" duration="150"/>
    <frame tileid="1" duration="150"/>
    <frame tileid="1" duration="150"/>
    <frame tileid="1" duration="150"/>
    <frame tileid="1" duration="150"/>
    <frame tileid="1" duration="150"/>
    <frame tileid="3" duration="150"/>
    <frame tileid="3" duration="150"/>
    <frame tileid="3" duration="150"/>
    <frame tileid="3" duration="150"/>
    <frame tileid="3" duration="150"/>
    <frame tileid="3" duration="150"/>
   </animation>
  </tile>
  <tile id="4">
   <animation>
    <frame tileid="4" duration="150"/>
    <frame tileid="4" duration="150"/>
    <frame tileid="4" duration="150"/>
    <frame tileid="4" duration="150"/>
    <frame tileid="4" duration="150"/>
    <frame tileid="4" duration="150"/>
    <frame tileid="6" duration="150"/>
    <frame tileid="6" duration="150"/>
    <frame tileid="6" duration="150"/>
    <frame tileid="6" duration="150"/>
    <frame tileid="6" duration="150"/>
    <frame tileid="6" duration="150"/>
   </animation>
  </tile>
  <tile id="5">
   <animation>
    <frame tileid="5" duration="150"/>
    <frame tileid="5" duration="150"/>
    <frame tileid="5" duration="150"/>
    <frame tileid="5" duration="150"/>
    <frame tileid="5" duration="150"/>
    <frame tileid="5" duration="150"/>
    <frame tileid="7" duration="150"/>
    <frame tileid="7" duration="150"/>
    <frame tileid="7" duration="150"/>
    <frame tileid="7" duration="150"/>
    <frame tileid="7" duration="150"/>
    <frame tileid="7" duration="150"/>
   </animation>
  </tile>
  <tile id="8">
   <animation>
    <frame tileid="8" duration="150"/>
    <frame tileid="8" duration="150"/>
    <frame tileid="8" duration="150"/>
    <frame tileid="8" duration="150"/>
    <frame tileid="8" duration="150"/>
    <frame tileid="8" duration="150"/>
    <frame tileid="10" duration="150"/>
    <frame tileid="10" duration="150"/>
    <frame tileid="10" duration="150"/>
    <frame tileid="10" duration="150"/>
    <frame tileid="10" duration="150"/>
    <frame tileid="10" duration="150"/>
   </animation>
  </tile>
  <tile id="9">
   <animation>
    <frame tileid="9" duration="150"/>
    <frame tileid="9" duration="150"/>
    <frame tileid="9" duration="150"/>
    <frame tileid="9" duration="150"/>
    <frame tileid="9" duration="150"/>
    <frame tileid="9" duration="150"/>
    <frame tileid="11" duration="150"/>
    <frame tileid="11" duration="150"/>
    <frame tileid="11" duration="150"/>
    <frame tileid="11" duration="150"/>
    <frame tileid="11" duration="150"/>
    <frame tileid="11" duration="150"/>
   </animation>
  </tile>
 </tileset>
 <layer id="2" name="Floor" width="16" height="24">
  <data encoding="csv">
   <chunk x="-16" y="-16" width="16" height="16">
0,0,0,0,0,0,0,0,0,0,0,0,0,0,0,0,
0,0,0,0,0,0,0,0,0,0,0,0,0,0,0,0,
0,0,0,0,0,0,0,0,0,0,0,0,0,0,0,0,
0,0,0,0,0,0,0,0,0,0,0,0,0,0,0,0,
0,0,0,0,0,0,0,0,0,0,0,0,0,0,0,0,
0,0,0,0,0,0,0,0,0,0,0,0,0,0,0,0,
0,0,0,0,0,0,0,0,0,0,0,0,0,0,0,0,
0,0,0,0,0,0,0,0,0,0,0,0,0,0,0,0,
0,0,0,0,0,0,0,0,0,0,0,0,0,0,0,0,
0,0,0,0,0,0,0,0,0,0,0,0,0,0,0,0,
0,0,0,0,0,0,0,0,0,0,0,0,0,0,0,0,
0,0,0,0,0,0,0,0,0,0,0,0,0,0,0,0,
0,0,0,0,0,0,0,0,0,0,0,0,0,0,0,0,
0,0,0,0,0,0,0,0,0,0,0,0,0,0,0,0,
0,0,346,347,355,356,352,353,355,356,346,347,355,356,352,353,
0,0,361,362,370,371,367,368,370,371,361,362,370,371,367,368
</chunk>
   <chunk x="-16" y="0" width="16" height="16">
0,0,352,353,346,347,349,350,346,347,352,353,346,347,349,350,
0,0,367,368,361,362,364,365,361,362,367,368,361,362,364,365,
0,0,355,356,352,353,355,356,352,353,355,356,352,353,355,356,
0,0,370,371,367,368,370,371,367,368,370,371,367,368,370,371,
0,0,352,353,346,347,346,347,346,347,352,353,346,347,346,347,
0,0,367,368,361,362,361,362,361,362,367,368,361,362,361,362,
0,0,355,356,346,347,355,356,352,353,355,356,352,353,346,347,
0,0,0,0,0,0,0,0,0,0,0,0,0,0,0,0,
0,0,0,0,0,0,0,0,0,0,0,0,0,0,0,0,
0,0,0,0,0,0,0,0,0,0,0,0,0,0,0,0,
0,0,0,0,0,0,0,0,0,0,0,0,0,0,0,0,
0,0,0,0,0,0,0,0,0,0,0,0,0,0,0,0,
0,0,0,0,0,0,0,0,0,0,0,0,0,0,0,0,
0,0,0,0,0,0,0,0,0,0,0,0,0,0,0,0,
0,0,0,0,0,0,0,0,0,0,0,0,0,0,0,0,
0,0,0,0,0,0,0,0,0,0,0,0,0,0,0,0
</chunk>
  </data>
 </layer>
 <layer id="1" name="Walls" width="16" height="24">
  <data encoding="csv">
   <chunk x="-16" y="-16" width="16" height="16">
0,0,0,0,0,0,0,0,0,0,0,0,0,0,0,0,
0,0,0,0,0,0,0,0,0,0,0,0,0,0,0,0,
0,0,0,0,0,0,0,0,0,0,0,0,0,0,0,0,
0,0,0,0,0,0,0,0,0,0,0,0,0,0,0,0,
0,0,0,0,0,0,0,0,0,0,0,0,0,0,0,0,
0,0,0,0,0,0,0,0,0,0,0,0,0,0,0,0,
0,0,0,0,0,0,0,0,0,0,0,0,0,0,0,0,
0,0,0,0,0,0,0,0,0,0,0,0,0,0,0,0,
0,0,0,0,0,0,0,0,0,0,0,0,0,0,0,0,
0,0,0,0,0,0,0,0,0,0,0,0,0,0,0,0,
0,0,0,0,0,0,0,0,0,0,0,0,0,0,0,0,
212,212,212,212,167,167,167,167,167,167,167,212,212,212,212,212,
212,212,212,268,269,269,269,269,269,269,269,269,270,167,167,212,
212,268,269,210,217,286,290,289,290,288,227,218,209,269,270,212,
212,283,214,227,232,301,305,304,305,303,242,233,177,178,285,212,
212,283,229,242,247,316,320,319,320,318,257,248,192,193,285,212
</chunk>
   <chunk x="-16" y="0" width="16" height="16">
212,283,244,257,262,0,0,0,0,0,0,263,207,208,285,212,
212,283,213,0,0,0,0,0,0,0,0,0,334,211,285,212,
212,283,213,0,0,0,0,0,0,0,0,0,0,211,285,212,
212,283,213,0,0,0,0,0,0,0,0,0,0,211,285,212,
212,283,213,0,0,0,0,0,0,0,0,0,0,211,285,212,
212,283,259,197,198,0,0,0,0,0,0,196,197,260,285,212,
167,298,299,195,259,197,197,197,197,197,197,260,194,299,300,212,
167,212,167,298,299,299,299,299,299,299,299,299,300,212,212,212,
212,212,212,212,212,212,212,212,212,212,212,212,212,212,212,212,
0,0,0,0,0,0,0,0,0,0,0,0,0,0,0,0,
0,0,0,0,0,0,0,0,0,0,0,0,0,0,0,0,
0,0,0,0,0,0,0,0,0,0,0,0,0,0,0,0,
0,0,0,0,0,0,0,0,0,0,0,0,0,0,0,0,
0,0,0,0,0,0,0,0,0,0,0,0,0,0,0,0,
0,0,0,0,0,0,0,0,0,0,0,0,0,0,0,0,
0,0,0,0,0,0,0,0,0,0,0,0,0,0,0,0
</chunk>
  </data>
 </layer>
 <layer id="3" name="Objects1" width="16" height="24">
  <data encoding="csv">
   <chunk x="-16" y="-16" width="16" height="16">
0,0,0,0,0,0,0,0,0,0,0,0,0,0,0,0,
0,0,0,0,0,0,0,0,0,0,0,0,0,0,0,0,
0,0,0,0,0,0,0,0,0,0,0,0,0,0,0,0,
0,0,0,0,0,0,0,0,0,0,0,0,0,0,0,0,
0,0,0,0,0,0,0,0,0,0,0,0,0,0,0,0,
0,0,0,0,0,0,0,0,0,0,0,0,0,0,0,0,
0,0,0,0,0,0,0,0,0,0,0,0,0,0,0,0,
0,0,0,0,0,0,0,0,0,0,0,0,0,0,0,0,
0,0,0,0,0,0,0,0,0,0,0,0,0,0,0,0,
0,0,0,0,0,0,0,0,0,0,0,0,0,0,0,0,
0,0,0,0,0,0,0,0,0,0,0,0,0,0,0,0,
0,0,0,0,0,0,0,0,0,0,0,0,0,0,0,0,
0,0,0,0,0,0,0,0,0,0,0,0,0,0,0,0,
0,0,0,0,376,377,378,379,380,381,382,383,0,0,0,0,
0,0,0,0,394,395,396,397,398,399,400,401,0,0,0,0,
0,0,0,0,412,413,414,415,416,417,418,419,0,0,0,0
</chunk>
   <chunk x="-16" y="0" width="16" height="16">
0,0,0,0,430,431,432,433,434,435,436,437,0,0,0,0,
0,0,448,449,450,0,0,582,583,0,0,451,452,453,0,0,
0,0,466,467,468,0,0,600,601,0,0,469,470,471,0,0,
0,0,484,485,486,0,0,618,619,0,0,487,488,489,0,0,
0,0,502,503,504,0,628,629,630,631,0,505,506,507,0,0,
0,0,520,521,522,0,646,647,648,649,0,523,524,525,0,0,
0,0,0,0,0,0,664,665,666,667,0,0,0,0,0,0,
0,0,0,0,0,0,0,0,0,0,0,0,0,0,0,0,
0,0,0,0,0,0,0,0,0,0,0,0,0,0,0,0,
0,0,0,0,0,0,0,0,0,0,0,0,0,0,0,0,
0,0,0,0,0,0,0,0,0,0,0,0,0,0,0,0,
0,0,0,0,0,0,0,0,0,0,0,0,0,0,0,0,
0,0,0,0,0,0,0,0,0,0,0,0,0,0,0,0,
0,0,0,0,0,0,0,0,0,0,0,0,0,0,0,0,
0,0,0,0,0,0,0,0,0,0,0,0,0,0,0,0,
0,0,0,0,0,0,0,0,0,0,0,0,0,0,0,0
</chunk>
  </data>
 </layer>
 <layer id="4" name="Objects2" width="16" height="24">
  <data encoding="csv">
   <chunk x="-16" y="0" width="16" height="16">
0,0,0,0,0,574,575,0,0,576,577,0,0,0,0,0,
0,0,0,0,0,592,593,0,0,594,595,0,0,0,0,0,
0,0,0,0,0,610,611,0,0,612,613,0,0,0,0,0,
0,0,0,0,0,0,0,0,0,0,0,0,0,0,0,0,
0,0,0,0,0,0,0,0,0,0,0,0,0,0,0,0,
0,0,0,0,0,0,0,0,0,0,0,0,0,0,0,0,
0,0,0,0,0,0,0,0,0,0,0,0,0,0,0,0,
0,0,0,0,0,0,0,0,0,0,0,0,0,0,0,0,
0,0,0,0,0,0,0,0,0,0,0,0,0,0,0,0,
0,0,0,0,0,0,0,0,0,0,0,0,0,0,0,0,
0,0,0,0,0,0,0,0,0,0,0,0,0,0,0,0,
0,0,0,0,0,0,0,0,0,0,0,0,0,0,0,0,
0,0,0,0,0,0,0,0,0,0,0,0,0,0,0,0,
0,0,0,0,0,0,0,0,0,0,0,0,0,0,0,0,
0,0,0,0,0,0,0,0,0,0,0,0,0,0,0,0,
0,0,0,0,0,0,0,0,0,0,0,0,0,0,0,0
</chunk>
  </data>
 </layer>
 <layer id="5" name="Objects3" width="16" height="24">
  <data encoding="csv">
   <chunk x="-16" y="0" width="16" height="16">
0,0,0,0,0,0,0,0,0,0,0,0,0,0,0,0,
0,0,0,0,0,0,0,0,0,0,0,0,0,0,0,0,
0,0,0,0,0,578,579,0,0,580,581,0,0,0,0,0,
0,0,0,0,0,596,597,0,0,598,599,0,0,0,0,0,
0,0,0,0,0,614,615,0,0,616,617,0,0,0,0,0,
0,0,0,0,0,0,0,0,0,0,0,0,0,0,0,0,
0,0,0,0,0,0,0,0,0,0,0,0,0,0,0,0,
0,0,0,0,0,0,0,0,0,0,0,0,0,0,0,0,
0,0,0,0,0,0,0,0,0,0,0,0,0,0,0,0,
0,0,0,0,0,0,0,0,0,0,0,0,0,0,0,0,
0,0,0,0,0,0,0,0,0,0,0,0,0,0,0,0,
0,0,0,0,0,0,0,0,0,0,0,0,0,0,0,0,
0,0,0,0,0,0,0,0,0,0,0,0,0,0,0,0,
0,0,0,0,0,0,0,0,0,0,0,0,0,0,0,0,
0,0,0,0,0,0,0,0,0,0,0,0,0,0,0,0,
0,0,0,0,0,0,0,0,0,0,0,0,0,0,0,0
</chunk>
  </data>
 </layer>
 <layer id="6" name="Characters" width="16" height="24">
  <data encoding="csv">
   <chunk x="-16" y="0" width="16" height="16">
0,0,0,0,0,0,0,0,0,0,0,682,683,0,0,0,
0,0,0,0,0,0,0,0,0,0,0,718,719,0,0,0,
0,0,0,0,0,0,0,0,0,0,0,754,755,0,0,0,
0,0,0,0,0,0,0,0,0,0,0,0,0,0,0,0,
0,0,0,0,0,0,0,0,0,0,0,0,0,0,0,0,
0,0,0,0,0,0,0,0,0,0,0,0,0,0,0,0,
0,0,0,0,0,0,0,0,0,0,0,0,0,0,0,0,
0,0,0,0,0,0,0,0,0,0,0,0,0,0,0,0,
0,0,0,0,0,0,0,0,0,0,0,0,0,0,0,0,
0,0,0,0,0,0,0,0,0,0,0,0,0,0,0,0,
0,0,0,0,0,0,0,0,0,0,0,0,0,0,0,0,
0,0,0,0,0,0,0,0,0,0,0,0,0,0,0,0,
0,0,0,0,0,0,0,0,0,0,0,0,0,0,0,0,
0,0,0,0,0,0,0,0,0,0,0,0,0,0,0,0,
0,0,0,0,0,0,0,0,0,0,0,0,0,0,0,0,
0,0,0,0,0,0,0,0,0,0,0,0,0,0,0,0
</chunk>
  </data>
 </layer>
 <layer id="7" name="Dragon_child" width="16" height="24">
  <data encoding="csv">
   <chunk x="-16" y="0" width="16" height="16">
0,0,0,954,955,0,0,0,0,0,0,0,0,0,0,0,
0,0,0,958,959,0,0,0,0,0,0,0,0,0,0,0,
0,0,0,962,963,0,0,0,0,0,0,0,0,0,0,0,
0,0,0,966,967,0,0,0,0,0,0,0,934,935,0,0,
0,0,0,0,0,0,790,791,792,793,0,0,938,939,0,0,
0,0,0,0,0,0,838,839,840,841,0,0,942,943,0,0,
0,0,0,0,0,0,886,887,888,889,0,0,0,0,0,0,
0,0,0,0,0,0,0,0,0,0,0,0,0,0,0,0,
0,0,0,0,0,0,0,0,0,0,0,0,0,0,0,0,
0,0,0,0,0,0,0,0,0,0,0,0,0,0,0,0,
0,0,0,0,0,0,0,0,0,0,0,0,0,0,0,0,
0,0,0,0,0,0,0,0,0,0,0,0,0,0,0,0,
0,0,0,0,0,0,0,0,0,0,0,0,0,0,0,0,
0,0,0,0,0,0,0,0,0,0,0,0,0,0,0,0,
0,0,0,0,0,0,0,0,0,0,0,0,0,0,0,0,
0,0,0,0,0,0,0,0,0,0,0,0,0,0,0,0
</chunk>
  </data>
 </layer>
</map>
