<?xml version="1.0" encoding="UTF-8"?>
<map version="1.10" tiledversion="1.10.2" orientation="orthogonal" renderorder="right-down" width="16" height="24" tilewidth="16" tileheight="16" infinite="1" nextlayerid="5" nextobjectid="1">
 <tileset firstgid="1" name="Pupil1" tilewidth="16" tileheight="16" tilecount="96" columns="12">
  <image source="Pupil1.png" width="192" height="128"/>
  <tile id="0">
   <animation>
    <frame tileid="0" duration="150"/>
    <frame tileid="2" duration="150"/>
    <frame tileid="4" duration="150"/>
    <frame tileid="6" duration="150"/>
    <frame tileid="8" duration="150"/>
    <frame tileid="10" duration="150"/>
    <frame tileid="24" duration="150"/>
    <frame tileid="26" duration="150"/>
    <frame tileid="28" duration="150"/>
    <frame tileid="30" duration="150"/>
    <frame tileid="32" duration="150"/>
    <frame tileid="34" duration="150"/>
    <frame tileid="48" duration="150"/>
    <frame tileid="50" duration="150"/>
    <frame tileid="52" duration="150"/>
    <frame tileid="54" duration="150"/>
    <frame tileid="56" duration="150"/>
    <frame tileid="58" duration="150"/>
    <frame tileid="72" duration="150"/>
    <frame tileid="74" duration="150"/>
    <frame tileid="76" duration="150"/>
    <frame tileid="78" duration="150"/>
    <frame tileid="80" duration="150"/>
    <frame tileid="82" duration="150"/>
   </animation>
  </tile>
  <tile id="1">
   <animation>
    <frame tileid="1" duration="150"/>
    <frame tileid="3" duration="150"/>
    <frame tileid="5" duration="150"/>
    <frame tileid="7" duration="150"/>
    <frame tileid="9" duration="150"/>
    <frame tileid="11" duration="150"/>
    <frame tileid="25" duration="150"/>
    <frame tileid="27" duration="150"/>
    <frame tileid="29" duration="150"/>
    <frame tileid="31" duration="150"/>
    <frame tileid="33" duration="150"/>
    <frame tileid="35" duration="150"/>
    <frame tileid="49" duration="150"/>
    <frame tileid="51" duration="150"/>
    <frame tileid="53" duration="150"/>
    <frame tileid="55" duration="150"/>
    <frame tileid="57" duration="150"/>
    <frame tileid="59" duration="150"/>
    <frame tileid="73" duration="150"/>
    <frame tileid="75" duration="150"/>
    <frame tileid="77" duration="150"/>
    <frame tileid="79" duration="150"/>
    <frame tileid="81" duration="150"/>
    <frame tileid="83" duration="150"/>
   </animation>
  </tile>
  <tile id="12">
   <animation>
    <frame tileid="12" duration="150"/>
    <frame tileid="14" duration="150"/>
    <frame tileid="16" duration="150"/>
    <frame tileid="18" duration="150"/>
    <frame tileid="20" duration="150"/>
    <frame tileid="22" duration="150"/>
    <frame tileid="36" duration="150"/>
    <frame tileid="38" duration="150"/>
    <frame tileid="40" duration="150"/>
    <frame tileid="42" duration="150"/>
    <frame tileid="44" duration="150"/>
    <frame tileid="46" duration="150"/>
    <frame tileid="60" duration="150"/>
    <frame tileid="62" duration="150"/>
    <frame tileid="64" duration="150"/>
    <frame tileid="66" duration="150"/>
    <frame tileid="68" duration="150"/>
    <frame tileid="70" duration="150"/>
    <frame tileid="84" duration="150"/>
    <frame tileid="86" duration="150"/>
    <frame tileid="88" duration="150"/>
    <frame tileid="90" duration="150"/>
    <frame tileid="92" duration="150"/>
    <frame tileid="94" duration="150"/>
   </animation>
  </tile>
  <tile id="13">
   <animation>
    <frame tileid="13" duration="150"/>
    <frame tileid="15" duration="150"/>
    <frame tileid="17" duration="150"/>
    <frame tileid="19" duration="150"/>
    <frame tileid="21" duration="150"/>
    <frame tileid="23" duration="150"/>
    <frame tileid="37" duration="150"/>
    <frame tileid="39" duration="150"/>
    <frame tileid="41" duration="150"/>
    <frame tileid="43" duration="150"/>
    <frame tileid="45" duration="150"/>
    <frame tileid="47" duration="150"/>
    <frame tileid="61" duration="150"/>
    <frame tileid="63" duration="150"/>
    <frame tileid="65" duration="150"/>
    <frame tileid="67" duration="150"/>
    <frame tileid="69" duration="150"/>
    <frame tileid="71" duration="150"/>
    <frame tileid="85" duration="150"/>
    <frame tileid="87" duration="150"/>
    <frame tileid="89" duration="150"/>
    <frame tileid="91" duration="150"/>
    <frame tileid="93" duration="150"/>
    <frame tileid="95" duration="150"/>
   </animation>
  </tile>
 </tileset>
 <tileset firstgid="97" name="Pupil1" tilewidth="16" tileheight="16" tilecount="96" columns="12">
  <image source="Pupil2.png" width="192" height="128"/>
  <tile id="0">
   <animation>
    <frame tileid="0" duration="150"/>
    <frame tileid="2" duration="150"/>
    <frame tileid="4" duration="150"/>
    <frame tileid="6" duration="150"/>
    <frame tileid="8" duration="150"/>
    <frame tileid="10" duration="150"/>
    <frame tileid="24" duration="150"/>
    <frame tileid="26" duration="150"/>
    <frame tileid="28" duration="150"/>
    <frame tileid="30" duration="150"/>
    <frame tileid="32" duration="150"/>
    <frame tileid="34" duration="150"/>
    <frame tileid="48" duration="150"/>
    <frame tileid="50" duration="150"/>
    <frame tileid="52" duration="150"/>
    <frame tileid="54" duration="150"/>
    <frame tileid="56" duration="150"/>
    <frame tileid="58" duration="150"/>
    <frame tileid="72" duration="150"/>
    <frame tileid="74" duration="150"/>
    <frame tileid="76" duration="150"/>
    <frame tileid="78" duration="150"/>
    <frame tileid="80" duration="150"/>
    <frame tileid="82" duration="150"/>
   </animation>
  </tile>
  <tile id="1">
   <animation>
    <frame tileid="1" duration="150"/>
    <frame tileid="3" duration="150"/>
    <frame tileid="5" duration="150"/>
    <frame tileid="7" duration="150"/>
    <frame tileid="9" duration="150"/>
    <frame tileid="11" duration="150"/>
    <frame tileid="25" duration="150"/>
    <frame tileid="27" duration="150"/>
    <frame tileid="29" duration="150"/>
    <frame tileid="31" duration="150"/>
    <frame tileid="33" duration="150"/>
    <frame tileid="35" duration="150"/>
    <frame tileid="49" duration="150"/>
    <frame tileid="51" duration="150"/>
    <frame tileid="53" duration="150"/>
    <frame tileid="55" duration="150"/>
    <frame tileid="57" duration="150"/>
    <frame tileid="59" duration="150"/>
    <frame tileid="73" duration="150"/>
    <frame tileid="75" duration="150"/>
    <frame tileid="77" duration="150"/>
    <frame tileid="79" duration="150"/>
    <frame tileid="81" duration="150"/>
    <frame tileid="83" duration="150"/>
   </animation>
  </tile>
  <tile id="12">
   <animation>
    <frame tileid="12" duration="150"/>
    <frame tileid="14" duration="150"/>
    <frame tileid="16" duration="150"/>
    <frame tileid="18" duration="150"/>
    <frame tileid="20" duration="150"/>
    <frame tileid="22" duration="150"/>
    <frame tileid="36" duration="150"/>
    <frame tileid="38" duration="150"/>
    <frame tileid="40" duration="150"/>
    <frame tileid="42" duration="150"/>
    <frame tileid="44" duration="150"/>
    <frame tileid="46" duration="150"/>
    <frame tileid="60" duration="150"/>
    <frame tileid="62" duration="150"/>
    <frame tileid="64" duration="150"/>
    <frame tileid="66" duration="150"/>
    <frame tileid="68" duration="150"/>
    <frame tileid="70" duration="150"/>
    <frame tileid="84" duration="150"/>
    <frame tileid="86" duration="150"/>
    <frame tileid="88" duration="150"/>
    <frame tileid="90" duration="150"/>
    <frame tileid="92" duration="150"/>
    <frame tileid="94" duration="150"/>
   </animation>
  </tile>
  <tile id="13">
   <animation>
    <frame tileid="13" duration="150"/>
    <frame tileid="15" duration="150"/>
    <frame tileid="17" duration="150"/>
    <frame tileid="19" duration="150"/>
    <frame tileid="21" duration="150"/>
    <frame tileid="23" duration="150"/>
    <frame tileid="37" duration="150"/>
    <frame tileid="39" duration="150"/>
    <frame tileid="41" duration="150"/>
    <frame tileid="43" duration="150"/>
    <frame tileid="45" duration="150"/>
    <frame tileid="47" duration="150"/>
    <frame tileid="61" duration="150"/>
    <frame tileid="63" duration="150"/>
    <frame tileid="65" duration="150"/>
    <frame tileid="67" duration="150"/>
    <frame tileid="69" duration="150"/>
    <frame tileid="71" duration="150"/>
    <frame tileid="85" duration="150"/>
    <frame tileid="87" duration="150"/>
    <frame tileid="89" duration="150"/>
    <frame tileid="91" duration="150"/>
    <frame tileid="93" duration="150"/>
    <frame tileid="95" duration="150"/>
   </animation>
  </tile>
 </tileset>
 <tileset firstgid="193" name="Pupil1" tilewidth="16" tileheight="16" tilecount="96" columns="12">
  <image source="Pupil3.png" width="192" height="128"/>
  <tile id="0">
   <animation>
    <frame tileid="0" duration="150"/>
    <frame tileid="2" duration="150"/>
    <frame tileid="4" duration="150"/>
    <frame tileid="6" duration="150"/>
    <frame tileid="8" duration="150"/>
    <frame tileid="10" duration="150"/>
    <frame tileid="24" duration="150"/>
    <frame tileid="26" duration="150"/>
    <frame tileid="28" duration="150"/>
    <frame tileid="30" duration="150"/>
    <frame tileid="32" duration="150"/>
    <frame tileid="34" duration="150"/>
    <frame tileid="48" duration="150"/>
    <frame tileid="50" duration="150"/>
    <frame tileid="52" duration="150"/>
    <frame tileid="54" duration="150"/>
    <frame tileid="56" duration="150"/>
    <frame tileid="58" duration="150"/>
    <frame tileid="72" duration="150"/>
    <frame tileid="74" duration="150"/>
    <frame tileid="76" duration="150"/>
    <frame tileid="78" duration="150"/>
    <frame tileid="80" duration="150"/>
    <frame tileid="82" duration="150"/>
   </animation>
  </tile>
  <tile id="1">
   <animation>
    <frame tileid="1" duration="150"/>
    <frame tileid="3" duration="150"/>
    <frame tileid="5" duration="150"/>
    <frame tileid="7" duration="150"/>
    <frame tileid="9" duration="150"/>
    <frame tileid="11" duration="150"/>
    <frame tileid="25" duration="150"/>
    <frame tileid="27" duration="150"/>
    <frame tileid="29" duration="150"/>
    <frame tileid="31" duration="150"/>
    <frame tileid="33" duration="150"/>
    <frame tileid="35" duration="150"/>
    <frame tileid="49" duration="150"/>
    <frame tileid="51" duration="150"/>
    <frame tileid="53" duration="150"/>
    <frame tileid="55" duration="150"/>
    <frame tileid="57" duration="150"/>
    <frame tileid="59" duration="150"/>
    <frame tileid="73" duration="150"/>
    <frame tileid="75" duration="150"/>
    <frame tileid="77" duration="150"/>
    <frame tileid="79" duration="150"/>
    <frame tileid="81" duration="150"/>
    <frame tileid="83" duration="150"/>
   </animation>
  </tile>
  <tile id="12">
   <animation>
    <frame tileid="12" duration="150"/>
    <frame tileid="14" duration="150"/>
    <frame tileid="16" duration="150"/>
    <frame tileid="18" duration="150"/>
    <frame tileid="20" duration="150"/>
    <frame tileid="22" duration="150"/>
    <frame tileid="36" duration="150"/>
    <frame tileid="38" duration="150"/>
    <frame tileid="40" duration="150"/>
    <frame tileid="42" duration="150"/>
    <frame tileid="44" duration="150"/>
    <frame tileid="46" duration="150"/>
    <frame tileid="60" duration="150"/>
    <frame tileid="62" duration="150"/>
    <frame tileid="64" duration="150"/>
    <frame tileid="66" duration="150"/>
    <frame tileid="68" duration="150"/>
    <frame tileid="70" duration="150"/>
    <frame tileid="84" duration="150"/>
    <frame tileid="86" duration="150"/>
    <frame tileid="88" duration="150"/>
    <frame tileid="90" duration="150"/>
    <frame tileid="92" duration="150"/>
    <frame tileid="94" duration="150"/>
   </animation>
  </tile>
  <tile id="13">
   <animation>
    <frame tileid="13" duration="150"/>
    <frame tileid="15" duration="150"/>
    <frame tileid="17" duration="150"/>
    <frame tileid="19" duration="150"/>
    <frame tileid="21" duration="150"/>
    <frame tileid="23" duration="150"/>
    <frame tileid="37" duration="150"/>
    <frame tileid="39" duration="150"/>
    <frame tileid="41" duration="150"/>
    <frame tileid="43" duration="150"/>
    <frame tileid="45" duration="150"/>
    <frame tileid="47" duration="150"/>
    <frame tileid="61" duration="150"/>
    <frame tileid="63" duration="150"/>
    <frame tileid="65" duration="150"/>
    <frame tileid="67" duration="150"/>
    <frame tileid="69" duration="150"/>
    <frame tileid="71" duration="150"/>
    <frame tileid="85" duration="150"/>
    <frame tileid="87" duration="150"/>
    <frame tileid="89" duration="150"/>
    <frame tileid="91" duration="150"/>
    <frame tileid="93" duration="150"/>
    <frame tileid="95" duration="150"/>
   </animation>
  </tile>
 </tileset>
 <tileset firstgid="289" name="Pupil1" tilewidth="16" tileheight="16" tilecount="96" columns="12">
  <image source="Pupil4.png" width="192" height="128"/>
  <tile id="0">
   <animation>
    <frame tileid="0" duration="150"/>
    <frame tileid="2" duration="150"/>
    <frame tileid="4" duration="150"/>
    <frame tileid="6" duration="150"/>
    <frame tileid="8" duration="150"/>
    <frame tileid="10" duration="150"/>
    <frame tileid="24" duration="150"/>
    <frame tileid="26" duration="150"/>
    <frame tileid="28" duration="150"/>
    <frame tileid="30" duration="150"/>
    <frame tileid="32" duration="150"/>
    <frame tileid="34" duration="150"/>
    <frame tileid="48" duration="150"/>
    <frame tileid="50" duration="150"/>
    <frame tileid="52" duration="150"/>
    <frame tileid="54" duration="150"/>
    <frame tileid="56" duration="150"/>
    <frame tileid="58" duration="150"/>
    <frame tileid="72" duration="150"/>
    <frame tileid="74" duration="150"/>
    <frame tileid="76" duration="150"/>
    <frame tileid="78" duration="150"/>
    <frame tileid="80" duration="150"/>
    <frame tileid="82" duration="150"/>
   </animation>
  </tile>
  <tile id="1">
   <animation>
    <frame tileid="1" duration="150"/>
    <frame tileid="3" duration="150"/>
    <frame tileid="5" duration="150"/>
    <frame tileid="7" duration="150"/>
    <frame tileid="9" duration="150"/>
    <frame tileid="11" duration="150"/>
    <frame tileid="25" duration="150"/>
    <frame tileid="27" duration="150"/>
    <frame tileid="29" duration="150"/>
    <frame tileid="31" duration="150"/>
    <frame tileid="33" duration="150"/>
    <frame tileid="35" duration="150"/>
    <frame tileid="49" duration="150"/>
    <frame tileid="51" duration="150"/>
    <frame tileid="53" duration="150"/>
    <frame tileid="55" duration="150"/>
    <frame tileid="57" duration="150"/>
    <frame tileid="59" duration="150"/>
    <frame tileid="73" duration="150"/>
    <frame tileid="75" duration="150"/>
    <frame tileid="77" duration="150"/>
    <frame tileid="79" duration="150"/>
    <frame tileid="81" duration="150"/>
    <frame tileid="83" duration="150"/>
   </animation>
  </tile>
  <tile id="12">
   <animation>
    <frame tileid="12" duration="150"/>
    <frame tileid="14" duration="150"/>
    <frame tileid="16" duration="150"/>
    <frame tileid="18" duration="150"/>
    <frame tileid="20" duration="150"/>
    <frame tileid="22" duration="150"/>
    <frame tileid="36" duration="150"/>
    <frame tileid="38" duration="150"/>
    <frame tileid="40" duration="150"/>
    <frame tileid="42" duration="150"/>
    <frame tileid="44" duration="150"/>
    <frame tileid="46" duration="150"/>
    <frame tileid="60" duration="150"/>
    <frame tileid="62" duration="150"/>
    <frame tileid="64" duration="150"/>
    <frame tileid="66" duration="150"/>
    <frame tileid="68" duration="150"/>
    <frame tileid="70" duration="150"/>
    <frame tileid="84" duration="150"/>
    <frame tileid="86" duration="150"/>
    <frame tileid="88" duration="150"/>
    <frame tileid="90" duration="150"/>
    <frame tileid="92" duration="150"/>
    <frame tileid="94" duration="150"/>
   </animation>
  </tile>
  <tile id="13">
   <animation>
    <frame tileid="13" duration="150"/>
    <frame tileid="15" duration="150"/>
    <frame tileid="17" duration="150"/>
    <frame tileid="19" duration="150"/>
    <frame tileid="21" duration="150"/>
    <frame tileid="23" duration="150"/>
    <frame tileid="37" duration="150"/>
    <frame tileid="39" duration="150"/>
    <frame tileid="41" duration="150"/>
    <frame tileid="43" duration="150"/>
    <frame tileid="45" duration="150"/>
    <frame tileid="47" duration="150"/>
    <frame tileid="61" duration="150"/>
    <frame tileid="63" duration="150"/>
    <frame tileid="65" duration="150"/>
    <frame tileid="67" duration="150"/>
    <frame tileid="69" duration="150"/>
    <frame tileid="71" duration="150"/>
    <frame tileid="85" duration="150"/>
    <frame tileid="87" duration="150"/>
    <frame tileid="89" duration="150"/>
    <frame tileid="91" duration="150"/>
    <frame tileid="93" duration="150"/>
    <frame tileid="95" duration="150"/>
   </animation>
  </tile>
 </tileset>
 <tileset firstgid="385" name="Pupil1" tilewidth="16" tileheight="16" tilecount="96" columns="12">
  <image source="Pupil5.png" width="192" height="128"/>
  <tile id="0">
   <animation>
    <frame tileid="0" duration="150"/>
    <frame tileid="2" duration="150"/>
    <frame tileid="4" duration="150"/>
    <frame tileid="6" duration="150"/>
    <frame tileid="8" duration="150"/>
    <frame tileid="10" duration="150"/>
    <frame tileid="24" duration="150"/>
    <frame tileid="26" duration="150"/>
    <frame tileid="28" duration="150"/>
    <frame tileid="30" duration="150"/>
    <frame tileid="32" duration="150"/>
    <frame tileid="34" duration="150"/>
    <frame tileid="48" duration="150"/>
    <frame tileid="50" duration="150"/>
    <frame tileid="52" duration="150"/>
    <frame tileid="54" duration="150"/>
    <frame tileid="56" duration="150"/>
    <frame tileid="58" duration="150"/>
    <frame tileid="72" duration="150"/>
    <frame tileid="74" duration="150"/>
    <frame tileid="76" duration="150"/>
    <frame tileid="78" duration="150"/>
    <frame tileid="80" duration="150"/>
    <frame tileid="82" duration="150"/>
   </animation>
  </tile>
  <tile id="1">
   <animation>
    <frame tileid="1" duration="150"/>
    <frame tileid="3" duration="150"/>
    <frame tileid="5" duration="150"/>
    <frame tileid="7" duration="150"/>
    <frame tileid="9" duration="150"/>
    <frame tileid="11" duration="150"/>
    <frame tileid="25" duration="150"/>
    <frame tileid="27" duration="150"/>
    <frame tileid="29" duration="150"/>
    <frame tileid="31" duration="150"/>
    <frame tileid="33" duration="150"/>
    <frame tileid="35" duration="150"/>
    <frame tileid="49" duration="150"/>
    <frame tileid="51" duration="150"/>
    <frame tileid="53" duration="150"/>
    <frame tileid="55" duration="150"/>
    <frame tileid="57" duration="150"/>
    <frame tileid="59" duration="150"/>
    <frame tileid="73" duration="150"/>
    <frame tileid="75" duration="150"/>
    <frame tileid="77" duration="150"/>
    <frame tileid="79" duration="150"/>
    <frame tileid="81" duration="150"/>
    <frame tileid="83" duration="150"/>
   </animation>
  </tile>
  <tile id="12">
   <animation>
    <frame tileid="12" duration="150"/>
    <frame tileid="14" duration="150"/>
    <frame tileid="16" duration="150"/>
    <frame tileid="18" duration="150"/>
    <frame tileid="20" duration="150"/>
    <frame tileid="22" duration="150"/>
    <frame tileid="36" duration="150"/>
    <frame tileid="38" duration="150"/>
    <frame tileid="40" duration="150"/>
    <frame tileid="42" duration="150"/>
    <frame tileid="44" duration="150"/>
    <frame tileid="46" duration="150"/>
    <frame tileid="60" duration="150"/>
    <frame tileid="62" duration="150"/>
    <frame tileid="64" duration="150"/>
    <frame tileid="66" duration="150"/>
    <frame tileid="68" duration="150"/>
    <frame tileid="70" duration="150"/>
    <frame tileid="84" duration="150"/>
    <frame tileid="86" duration="150"/>
    <frame tileid="88" duration="150"/>
    <frame tileid="90" duration="150"/>
    <frame tileid="92" duration="150"/>
    <frame tileid="94" duration="150"/>
   </animation>
  </tile>
  <tile id="13">
   <animation>
    <frame tileid="13" duration="150"/>
    <frame tileid="15" duration="150"/>
    <frame tileid="17" duration="150"/>
    <frame tileid="19" duration="150"/>
    <frame tileid="21" duration="150"/>
    <frame tileid="23" duration="150"/>
    <frame tileid="37" duration="150"/>
    <frame tileid="39" duration="150"/>
    <frame tileid="41" duration="150"/>
    <frame tileid="43" duration="150"/>
    <frame tileid="45" duration="150"/>
    <frame tileid="47" duration="150"/>
    <frame tileid="61" duration="150"/>
    <frame tileid="63" duration="150"/>
    <frame tileid="65" duration="150"/>
    <frame tileid="67" duration="150"/>
    <frame tileid="69" duration="150"/>
    <frame tileid="71" duration="150"/>
    <frame tileid="85" duration="150"/>
    <frame tileid="87" duration="150"/>
    <frame tileid="89" duration="150"/>
    <frame tileid="91" duration="150"/>
    <frame tileid="93" duration="150"/>
    <frame tileid="95" duration="150"/>
   </animation>
  </tile>
 </tileset>
 <tileset firstgid="481" name="Pupil1" tilewidth="16" tileheight="16" tilecount="96" columns="12">
  <image source="Pupil6.png" width="192" height="128"/>
  <tile id="0">
   <animation>
    <frame tileid="0" duration="150"/>
    <frame tileid="2" duration="150"/>
    <frame tileid="4" duration="150"/>
    <frame tileid="6" duration="150"/>
    <frame tileid="8" duration="150"/>
    <frame tileid="10" duration="150"/>
    <frame tileid="24" duration="150"/>
    <frame tileid="26" duration="150"/>
    <frame tileid="28" duration="150"/>
    <frame tileid="30" duration="150"/>
    <frame tileid="32" duration="150"/>
    <frame tileid="34" duration="150"/>
    <frame tileid="48" duration="150"/>
    <frame tileid="50" duration="150"/>
    <frame tileid="52" duration="150"/>
    <frame tileid="54" duration="150"/>
    <frame tileid="56" duration="150"/>
    <frame tileid="58" duration="150"/>
    <frame tileid="72" duration="150"/>
    <frame tileid="74" duration="150"/>
    <frame tileid="76" duration="150"/>
    <frame tileid="78" duration="150"/>
    <frame tileid="80" duration="150"/>
    <frame tileid="82" duration="150"/>
   </animation>
  </tile>
  <tile id="1">
   <animation>
    <frame tileid="1" duration="150"/>
    <frame tileid="3" duration="150"/>
    <frame tileid="5" duration="150"/>
    <frame tileid="7" duration="150"/>
    <frame tileid="9" duration="150"/>
    <frame tileid="11" duration="150"/>
    <frame tileid="25" duration="150"/>
    <frame tileid="27" duration="150"/>
    <frame tileid="29" duration="150"/>
    <frame tileid="31" duration="150"/>
    <frame tileid="33" duration="150"/>
    <frame tileid="35" duration="150"/>
    <frame tileid="49" duration="150"/>
    <frame tileid="51" duration="150"/>
    <frame tileid="53" duration="150"/>
    <frame tileid="55" duration="150"/>
    <frame tileid="57" duration="150"/>
    <frame tileid="59" duration="150"/>
    <frame tileid="73" duration="150"/>
    <frame tileid="75" duration="150"/>
    <frame tileid="77" duration="150"/>
    <frame tileid="79" duration="150"/>
    <frame tileid="81" duration="150"/>
    <frame tileid="83" duration="150"/>
   </animation>
  </tile>
  <tile id="12">
   <animation>
    <frame tileid="12" duration="150"/>
    <frame tileid="14" duration="150"/>
    <frame tileid="16" duration="150"/>
    <frame tileid="18" duration="150"/>
    <frame tileid="20" duration="150"/>
    <frame tileid="22" duration="150"/>
    <frame tileid="36" duration="150"/>
    <frame tileid="38" duration="150"/>
    <frame tileid="40" duration="150"/>
    <frame tileid="42" duration="150"/>
    <frame tileid="44" duration="150"/>
    <frame tileid="46" duration="150"/>
    <frame tileid="60" duration="150"/>
    <frame tileid="62" duration="150"/>
    <frame tileid="64" duration="150"/>
    <frame tileid="66" duration="150"/>
    <frame tileid="68" duration="150"/>
    <frame tileid="70" duration="150"/>
    <frame tileid="84" duration="150"/>
    <frame tileid="86" duration="150"/>
    <frame tileid="88" duration="150"/>
    <frame tileid="90" duration="150"/>
    <frame tileid="92" duration="150"/>
    <frame tileid="94" duration="150"/>
   </animation>
  </tile>
  <tile id="13">
   <animation>
    <frame tileid="13" duration="150"/>
    <frame tileid="15" duration="150"/>
    <frame tileid="17" duration="150"/>
    <frame tileid="19" duration="150"/>
    <frame tileid="21" duration="150"/>
    <frame tileid="23" duration="150"/>
    <frame tileid="37" duration="150"/>
    <frame tileid="39" duration="150"/>
    <frame tileid="41" duration="150"/>
    <frame tileid="43" duration="150"/>
    <frame tileid="45" duration="150"/>
    <frame tileid="47" duration="150"/>
    <frame tileid="61" duration="150"/>
    <frame tileid="63" duration="150"/>
    <frame tileid="65" duration="150"/>
    <frame tileid="67" duration="150"/>
    <frame tileid="69" duration="150"/>
    <frame tileid="71" duration="150"/>
    <frame tileid="85" duration="150"/>
    <frame tileid="87" duration="150"/>
    <frame tileid="89" duration="150"/>
    <frame tileid="91" duration="150"/>
    <frame tileid="93" duration="150"/>
    <frame tileid="95" duration="150"/>
   </animation>
  </tile>
 </tileset>
 <tileset firstgid="577" name="Pupil1" tilewidth="16" tileheight="16" tilecount="96" columns="12">
  <image source="Pupil7.png" width="192" height="128"/>
  <tile id="0">
   <animation>
    <frame tileid="0" duration="150"/>
    <frame tileid="2" duration="150"/>
    <frame tileid="4" duration="150"/>
    <frame tileid="6" duration="150"/>
    <frame tileid="8" duration="150"/>
    <frame tileid="10" duration="150"/>
    <frame tileid="24" duration="150"/>
    <frame tileid="26" duration="150"/>
    <frame tileid="28" duration="150"/>
    <frame tileid="30" duration="150"/>
    <frame tileid="32" duration="150"/>
    <frame tileid="34" duration="150"/>
    <frame tileid="48" duration="150"/>
    <frame tileid="50" duration="150"/>
    <frame tileid="52" duration="150"/>
    <frame tileid="54" duration="150"/>
    <frame tileid="56" duration="150"/>
    <frame tileid="58" duration="150"/>
    <frame tileid="72" duration="150"/>
    <frame tileid="74" duration="150"/>
    <frame tileid="76" duration="150"/>
    <frame tileid="78" duration="150"/>
    <frame tileid="80" duration="150"/>
    <frame tileid="82" duration="150"/>
   </animation>
  </tile>
  <tile id="1">
   <animation>
    <frame tileid="1" duration="150"/>
    <frame tileid="3" duration="150"/>
    <frame tileid="5" duration="150"/>
    <frame tileid="7" duration="150"/>
    <frame tileid="9" duration="150"/>
    <frame tileid="11" duration="150"/>
    <frame tileid="25" duration="150"/>
    <frame tileid="27" duration="150"/>
    <frame tileid="29" duration="150"/>
    <frame tileid="31" duration="150"/>
    <frame tileid="33" duration="150"/>
    <frame tileid="35" duration="150"/>
    <frame tileid="49" duration="150"/>
    <frame tileid="51" duration="150"/>
    <frame tileid="53" duration="150"/>
    <frame tileid="55" duration="150"/>
    <frame tileid="57" duration="150"/>
    <frame tileid="59" duration="150"/>
    <frame tileid="73" duration="150"/>
    <frame tileid="75" duration="150"/>
    <frame tileid="77" duration="150"/>
    <frame tileid="79" duration="150"/>
    <frame tileid="81" duration="150"/>
    <frame tileid="83" duration="150"/>
   </animation>
  </tile>
  <tile id="12">
   <animation>
    <frame tileid="12" duration="150"/>
    <frame tileid="14" duration="150"/>
    <frame tileid="16" duration="150"/>
    <frame tileid="18" duration="150"/>
    <frame tileid="20" duration="150"/>
    <frame tileid="22" duration="150"/>
    <frame tileid="36" duration="150"/>
    <frame tileid="38" duration="150"/>
    <frame tileid="40" duration="150"/>
    <frame tileid="42" duration="150"/>
    <frame tileid="44" duration="150"/>
    <frame tileid="46" duration="150"/>
    <frame tileid="60" duration="150"/>
    <frame tileid="62" duration="150"/>
    <frame tileid="64" duration="150"/>
    <frame tileid="66" duration="150"/>
    <frame tileid="68" duration="150"/>
    <frame tileid="70" duration="150"/>
    <frame tileid="84" duration="150"/>
    <frame tileid="86" duration="150"/>
    <frame tileid="88" duration="150"/>
    <frame tileid="90" duration="150"/>
    <frame tileid="92" duration="150"/>
    <frame tileid="94" duration="150"/>
   </animation>
  </tile>
  <tile id="13">
   <animation>
    <frame tileid="13" duration="150"/>
    <frame tileid="15" duration="150"/>
    <frame tileid="17" duration="150"/>
    <frame tileid="19" duration="150"/>
    <frame tileid="21" duration="150"/>
    <frame tileid="23" duration="150"/>
    <frame tileid="37" duration="150"/>
    <frame tileid="39" duration="150"/>
    <frame tileid="41" duration="150"/>
    <frame tileid="43" duration="150"/>
    <frame tileid="45" duration="150"/>
    <frame tileid="47" duration="150"/>
    <frame tileid="61" duration="150"/>
    <frame tileid="63" duration="150"/>
    <frame tileid="65" duration="150"/>
    <frame tileid="67" duration="150"/>
    <frame tileid="69" duration="150"/>
    <frame tileid="71" duration="150"/>
    <frame tileid="85" duration="150"/>
    <frame tileid="87" duration="150"/>
    <frame tileid="89" duration="150"/>
    <frame tileid="91" duration="150"/>
    <frame tileid="93" duration="150"/>
    <frame tileid="95" duration="150"/>
   </animation>
  </tile>
 </tileset>
 <tileset firstgid="673" name="Pupil1" tilewidth="16" tileheight="16" tilecount="96" columns="12">
  <image source="Pupil8.png" width="192" height="128"/>
  <tile id="0">
   <animation>
    <frame tileid="0" duration="150"/>
    <frame tileid="2" duration="150"/>
    <frame tileid="4" duration="150"/>
    <frame tileid="6" duration="150"/>
    <frame tileid="8" duration="150"/>
    <frame tileid="10" duration="150"/>
    <frame tileid="24" duration="150"/>
    <frame tileid="26" duration="150"/>
    <frame tileid="28" duration="150"/>
    <frame tileid="30" duration="150"/>
    <frame tileid="32" duration="150"/>
    <frame tileid="34" duration="150"/>
    <frame tileid="48" duration="150"/>
    <frame tileid="50" duration="150"/>
    <frame tileid="52" duration="150"/>
    <frame tileid="54" duration="150"/>
    <frame tileid="56" duration="150"/>
    <frame tileid="58" duration="150"/>
    <frame tileid="72" duration="150"/>
    <frame tileid="74" duration="150"/>
    <frame tileid="76" duration="150"/>
    <frame tileid="78" duration="150"/>
    <frame tileid="80" duration="150"/>
    <frame tileid="82" duration="150"/>
   </animation>
  </tile>
  <tile id="1">
   <animation>
    <frame tileid="1" duration="150"/>
    <frame tileid="3" duration="150"/>
    <frame tileid="5" duration="150"/>
    <frame tileid="7" duration="150"/>
    <frame tileid="9" duration="150"/>
    <frame tileid="11" duration="150"/>
    <frame tileid="25" duration="150"/>
    <frame tileid="27" duration="150"/>
    <frame tileid="29" duration="150"/>
    <frame tileid="31" duration="150"/>
    <frame tileid="33" duration="150"/>
    <frame tileid="35" duration="150"/>
    <frame tileid="49" duration="150"/>
    <frame tileid="51" duration="150"/>
    <frame tileid="53" duration="150"/>
    <frame tileid="55" duration="150"/>
    <frame tileid="57" duration="150"/>
    <frame tileid="59" duration="150"/>
    <frame tileid="73" duration="150"/>
    <frame tileid="75" duration="150"/>
    <frame tileid="77" duration="150"/>
    <frame tileid="79" duration="150"/>
    <frame tileid="81" duration="150"/>
    <frame tileid="83" duration="150"/>
   </animation>
  </tile>
  <tile id="12">
   <animation>
    <frame tileid="12" duration="150"/>
    <frame tileid="14" duration="150"/>
    <frame tileid="16" duration="150"/>
    <frame tileid="18" duration="150"/>
    <frame tileid="20" duration="150"/>
    <frame tileid="22" duration="150"/>
    <frame tileid="36" duration="150"/>
    <frame tileid="38" duration="150"/>
    <frame tileid="40" duration="150"/>
    <frame tileid="42" duration="150"/>
    <frame tileid="44" duration="150"/>
    <frame tileid="46" duration="150"/>
    <frame tileid="60" duration="150"/>
    <frame tileid="62" duration="150"/>
    <frame tileid="64" duration="150"/>
    <frame tileid="66" duration="150"/>
    <frame tileid="68" duration="150"/>
    <frame tileid="70" duration="150"/>
    <frame tileid="84" duration="150"/>
    <frame tileid="86" duration="150"/>
    <frame tileid="88" duration="150"/>
    <frame tileid="90" duration="150"/>
    <frame tileid="92" duration="150"/>
    <frame tileid="94" duration="150"/>
   </animation>
  </tile>
  <tile id="13">
   <animation>
    <frame tileid="13" duration="150"/>
    <frame tileid="15" duration="150"/>
    <frame tileid="17" duration="150"/>
    <frame tileid="19" duration="150"/>
    <frame tileid="21" duration="150"/>
    <frame tileid="23" duration="150"/>
    <frame tileid="37" duration="150"/>
    <frame tileid="39" duration="150"/>
    <frame tileid="41" duration="150"/>
    <frame tileid="43" duration="150"/>
    <frame tileid="45" duration="150"/>
    <frame tileid="47" duration="150"/>
    <frame tileid="61" duration="150"/>
    <frame tileid="63" duration="150"/>
    <frame tileid="65" duration="150"/>
    <frame tileid="67" duration="150"/>
    <frame tileid="69" duration="150"/>
    <frame tileid="71" duration="150"/>
    <frame tileid="85" duration="150"/>
    <frame tileid="87" duration="150"/>
    <frame tileid="89" duration="150"/>
    <frame tileid="91" duration="150"/>
    <frame tileid="93" duration="150"/>
    <frame tileid="95" duration="150"/>
   </animation>
  </tile>
 </tileset>
 <tileset firstgid="769" name="Pupil1" tilewidth="16" tileheight="16" tilecount="96" columns="12">
  <image source="Pupil9.png" width="192" height="128"/>
  <tile id="0">
   <animation>
    <frame tileid="0" duration="150"/>
    <frame tileid="2" duration="150"/>
    <frame tileid="4" duration="150"/>
    <frame tileid="6" duration="150"/>
    <frame tileid="8" duration="150"/>
    <frame tileid="10" duration="150"/>
    <frame tileid="24" duration="150"/>
    <frame tileid="26" duration="150"/>
    <frame tileid="28" duration="150"/>
    <frame tileid="30" duration="150"/>
    <frame tileid="32" duration="150"/>
    <frame tileid="34" duration="150"/>
    <frame tileid="48" duration="150"/>
    <frame tileid="50" duration="150"/>
    <frame tileid="52" duration="150"/>
    <frame tileid="54" duration="150"/>
    <frame tileid="56" duration="150"/>
    <frame tileid="58" duration="150"/>
    <frame tileid="72" duration="150"/>
    <frame tileid="74" duration="150"/>
    <frame tileid="76" duration="150"/>
    <frame tileid="78" duration="150"/>
    <frame tileid="80" duration="150"/>
    <frame tileid="82" duration="150"/>
   </animation>
  </tile>
  <tile id="1">
   <animation>
    <frame tileid="1" duration="150"/>
    <frame tileid="3" duration="150"/>
    <frame tileid="5" duration="150"/>
    <frame tileid="7" duration="150"/>
    <frame tileid="9" duration="150"/>
    <frame tileid="11" duration="150"/>
    <frame tileid="25" duration="150"/>
    <frame tileid="27" duration="150"/>
    <frame tileid="29" duration="150"/>
    <frame tileid="31" duration="150"/>
    <frame tileid="33" duration="150"/>
    <frame tileid="35" duration="150"/>
    <frame tileid="49" duration="150"/>
    <frame tileid="51" duration="150"/>
    <frame tileid="53" duration="150"/>
    <frame tileid="55" duration="150"/>
    <frame tileid="57" duration="150"/>
    <frame tileid="59" duration="150"/>
    <frame tileid="73" duration="150"/>
    <frame tileid="75" duration="150"/>
    <frame tileid="77" duration="150"/>
    <frame tileid="79" duration="150"/>
    <frame tileid="81" duration="150"/>
    <frame tileid="83" duration="150"/>
   </animation>
  </tile>
  <tile id="12">
   <animation>
    <frame tileid="12" duration="150"/>
    <frame tileid="14" duration="150"/>
    <frame tileid="16" duration="150"/>
    <frame tileid="18" duration="150"/>
    <frame tileid="20" duration="150"/>
    <frame tileid="22" duration="150"/>
    <frame tileid="36" duration="150"/>
    <frame tileid="38" duration="150"/>
    <frame tileid="40" duration="150"/>
    <frame tileid="42" duration="150"/>
    <frame tileid="44" duration="150"/>
    <frame tileid="46" duration="150"/>
    <frame tileid="60" duration="150"/>
    <frame tileid="62" duration="150"/>
    <frame tileid="64" duration="150"/>
    <frame tileid="66" duration="150"/>
    <frame tileid="68" duration="150"/>
    <frame tileid="70" duration="150"/>
    <frame tileid="84" duration="150"/>
    <frame tileid="86" duration="150"/>
    <frame tileid="88" duration="150"/>
    <frame tileid="90" duration="150"/>
    <frame tileid="92" duration="150"/>
    <frame tileid="94" duration="150"/>
   </animation>
  </tile>
  <tile id="13">
   <animation>
    <frame tileid="13" duration="150"/>
    <frame tileid="15" duration="150"/>
    <frame tileid="17" duration="150"/>
    <frame tileid="19" duration="150"/>
    <frame tileid="21" duration="150"/>
    <frame tileid="23" duration="150"/>
    <frame tileid="37" duration="150"/>
    <frame tileid="39" duration="150"/>
    <frame tileid="41" duration="150"/>
    <frame tileid="43" duration="150"/>
    <frame tileid="45" duration="150"/>
    <frame tileid="47" duration="150"/>
    <frame tileid="61" duration="150"/>
    <frame tileid="63" duration="150"/>
    <frame tileid="65" duration="150"/>
    <frame tileid="67" duration="150"/>
    <frame tileid="69" duration="150"/>
    <frame tileid="71" duration="150"/>
    <frame tileid="85" duration="150"/>
    <frame tileid="87" duration="150"/>
    <frame tileid="89" duration="150"/>
    <frame tileid="91" duration="150"/>
    <frame tileid="93" duration="150"/>
    <frame tileid="95" duration="150"/>
   </animation>
  </tile>
 </tileset>
 <tileset firstgid="865" name="Pupil1" tilewidth="16" tileheight="16" tilecount="96" columns="12">
  <image source="Pupil10.png" width="192" height="128"/>
  <tile id="0">
   <animation>
    <frame tileid="0" duration="150"/>
    <frame tileid="2" duration="150"/>
    <frame tileid="4" duration="150"/>
    <frame tileid="6" duration="150"/>
    <frame tileid="8" duration="150"/>
    <frame tileid="10" duration="150"/>
    <frame tileid="24" duration="150"/>
    <frame tileid="26" duration="150"/>
    <frame tileid="28" duration="150"/>
    <frame tileid="30" duration="150"/>
    <frame tileid="32" duration="150"/>
    <frame tileid="34" duration="150"/>
    <frame tileid="48" duration="150"/>
    <frame tileid="50" duration="150"/>
    <frame tileid="52" duration="150"/>
    <frame tileid="54" duration="150"/>
    <frame tileid="56" duration="150"/>
    <frame tileid="58" duration="150"/>
    <frame tileid="72" duration="150"/>
    <frame tileid="74" duration="150"/>
    <frame tileid="76" duration="150"/>
    <frame tileid="78" duration="150"/>
    <frame tileid="80" duration="150"/>
    <frame tileid="82" duration="150"/>
   </animation>
  </tile>
  <tile id="1">
   <animation>
    <frame tileid="1" duration="150"/>
    <frame tileid="3" duration="150"/>
    <frame tileid="5" duration="150"/>
    <frame tileid="7" duration="150"/>
    <frame tileid="9" duration="150"/>
    <frame tileid="11" duration="150"/>
    <frame tileid="25" duration="150"/>
    <frame tileid="27" duration="150"/>
    <frame tileid="29" duration="150"/>
    <frame tileid="31" duration="150"/>
    <frame tileid="33" duration="150"/>
    <frame tileid="35" duration="150"/>
    <frame tileid="49" duration="150"/>
    <frame tileid="51" duration="150"/>
    <frame tileid="53" duration="150"/>
    <frame tileid="55" duration="150"/>
    <frame tileid="57" duration="150"/>
    <frame tileid="59" duration="150"/>
    <frame tileid="73" duration="150"/>
    <frame tileid="75" duration="150"/>
    <frame tileid="77" duration="150"/>
    <frame tileid="79" duration="150"/>
    <frame tileid="81" duration="150"/>
    <frame tileid="83" duration="150"/>
   </animation>
  </tile>
  <tile id="12">
   <animation>
    <frame tileid="12" duration="150"/>
    <frame tileid="14" duration="150"/>
    <frame tileid="16" duration="150"/>
    <frame tileid="18" duration="150"/>
    <frame tileid="20" duration="150"/>
    <frame tileid="22" duration="150"/>
    <frame tileid="36" duration="150"/>
    <frame tileid="38" duration="150"/>
    <frame tileid="40" duration="150"/>
    <frame tileid="42" duration="150"/>
    <frame tileid="44" duration="150"/>
    <frame tileid="46" duration="150"/>
    <frame tileid="60" duration="150"/>
    <frame tileid="62" duration="150"/>
    <frame tileid="64" duration="150"/>
    <frame tileid="66" duration="150"/>
    <frame tileid="68" duration="150"/>
    <frame tileid="70" duration="150"/>
    <frame tileid="84" duration="150"/>
    <frame tileid="86" duration="150"/>
    <frame tileid="88" duration="150"/>
    <frame tileid="90" duration="150"/>
    <frame tileid="92" duration="150"/>
    <frame tileid="94" duration="150"/>
   </animation>
  </tile>
  <tile id="13">
   <animation>
    <frame tileid="13" duration="150"/>
    <frame tileid="15" duration="150"/>
    <frame tileid="17" duration="150"/>
    <frame tileid="19" duration="150"/>
    <frame tileid="21" duration="150"/>
    <frame tileid="23" duration="150"/>
    <frame tileid="37" duration="150"/>
    <frame tileid="39" duration="150"/>
    <frame tileid="41" duration="150"/>
    <frame tileid="43" duration="150"/>
    <frame tileid="45" duration="150"/>
    <frame tileid="47" duration="150"/>
    <frame tileid="61" duration="150"/>
    <frame tileid="63" duration="150"/>
    <frame tileid="65" duration="150"/>
    <frame tileid="67" duration="150"/>
    <frame tileid="69" duration="150"/>
    <frame tileid="71" duration="150"/>
    <frame tileid="85" duration="150"/>
    <frame tileid="87" duration="150"/>
    <frame tileid="89" duration="150"/>
    <frame tileid="91" duration="150"/>
    <frame tileid="93" duration="150"/>
    <frame tileid="95" duration="150"/>
   </animation>
  </tile>
 </tileset>
 <tileset firstgid="961" name="Pupil1" tilewidth="16" tileheight="16" tilecount="96" columns="12">
  <image source="Pupil11.png" width="192" height="128"/>
  <tile id="0">
   <animation>
    <frame tileid="0" duration="150"/>
    <frame tileid="2" duration="150"/>
    <frame tileid="4" duration="150"/>
    <frame tileid="6" duration="150"/>
    <frame tileid="8" duration="150"/>
    <frame tileid="10" duration="150"/>
    <frame tileid="24" duration="150"/>
    <frame tileid="26" duration="150"/>
    <frame tileid="28" duration="150"/>
    <frame tileid="30" duration="150"/>
    <frame tileid="32" duration="150"/>
    <frame tileid="34" duration="150"/>
    <frame tileid="48" duration="150"/>
    <frame tileid="50" duration="150"/>
    <frame tileid="52" duration="150"/>
    <frame tileid="54" duration="150"/>
    <frame tileid="56" duration="150"/>
    <frame tileid="58" duration="150"/>
    <frame tileid="72" duration="150"/>
    <frame tileid="74" duration="150"/>
    <frame tileid="76" duration="150"/>
    <frame tileid="78" duration="150"/>
    <frame tileid="80" duration="150"/>
    <frame tileid="82" duration="150"/>
   </animation>
  </tile>
  <tile id="1">
   <animation>
    <frame tileid="1" duration="150"/>
    <frame tileid="3" duration="150"/>
    <frame tileid="5" duration="150"/>
    <frame tileid="7" duration="150"/>
    <frame tileid="9" duration="150"/>
    <frame tileid="11" duration="150"/>
    <frame tileid="25" duration="150"/>
    <frame tileid="27" duration="150"/>
    <frame tileid="29" duration="150"/>
    <frame tileid="31" duration="150"/>
    <frame tileid="33" duration="150"/>
    <frame tileid="35" duration="150"/>
    <frame tileid="49" duration="150"/>
    <frame tileid="51" duration="150"/>
    <frame tileid="53" duration="150"/>
    <frame tileid="55" duration="150"/>
    <frame tileid="57" duration="150"/>
    <frame tileid="59" duration="150"/>
    <frame tileid="73" duration="150"/>
    <frame tileid="75" duration="150"/>
    <frame tileid="77" duration="150"/>
    <frame tileid="79" duration="150"/>
    <frame tileid="81" duration="150"/>
    <frame tileid="83" duration="150"/>
   </animation>
  </tile>
  <tile id="12">
   <animation>
    <frame tileid="12" duration="150"/>
    <frame tileid="14" duration="150"/>
    <frame tileid="16" duration="150"/>
    <frame tileid="18" duration="150"/>
    <frame tileid="20" duration="150"/>
    <frame tileid="22" duration="150"/>
    <frame tileid="36" duration="150"/>
    <frame tileid="38" duration="150"/>
    <frame tileid="40" duration="150"/>
    <frame tileid="42" duration="150"/>
    <frame tileid="44" duration="150"/>
    <frame tileid="46" duration="150"/>
    <frame tileid="60" duration="150"/>
    <frame tileid="62" duration="150"/>
    <frame tileid="64" duration="150"/>
    <frame tileid="66" duration="150"/>
    <frame tileid="68" duration="150"/>
    <frame tileid="70" duration="150"/>
    <frame tileid="84" duration="150"/>
    <frame tileid="86" duration="150"/>
    <frame tileid="88" duration="150"/>
    <frame tileid="90" duration="150"/>
    <frame tileid="92" duration="150"/>
    <frame tileid="94" duration="150"/>
   </animation>
  </tile>
  <tile id="13">
   <animation>
    <frame tileid="13" duration="150"/>
    <frame tileid="15" duration="150"/>
    <frame tileid="17" duration="150"/>
    <frame tileid="19" duration="150"/>
    <frame tileid="21" duration="150"/>
    <frame tileid="23" duration="150"/>
    <frame tileid="37" duration="150"/>
    <frame tileid="39" duration="150"/>
    <frame tileid="41" duration="150"/>
    <frame tileid="43" duration="150"/>
    <frame tileid="45" duration="150"/>
    <frame tileid="47" duration="150"/>
    <frame tileid="61" duration="150"/>
    <frame tileid="63" duration="150"/>
    <frame tileid="65" duration="150"/>
    <frame tileid="67" duration="150"/>
    <frame tileid="69" duration="150"/>
    <frame tileid="71" duration="150"/>
    <frame tileid="85" duration="150"/>
    <frame tileid="87" duration="150"/>
    <frame tileid="89" duration="150"/>
    <frame tileid="91" duration="150"/>
    <frame tileid="93" duration="150"/>
    <frame tileid="95" duration="150"/>
   </animation>
  </tile>
 </tileset>
 <tileset firstgid="1057" name="Pupil1" tilewidth="16" tileheight="16" tilecount="96" columns="12">
  <image source="Pupil12.png" width="192" height="128"/>
  <tile id="0">
   <animation>
    <frame tileid="0" duration="150"/>
    <frame tileid="2" duration="150"/>
    <frame tileid="4" duration="150"/>
    <frame tileid="6" duration="150"/>
    <frame tileid="8" duration="150"/>
    <frame tileid="10" duration="150"/>
    <frame tileid="24" duration="150"/>
    <frame tileid="26" duration="150"/>
    <frame tileid="28" duration="150"/>
    <frame tileid="30" duration="150"/>
    <frame tileid="32" duration="150"/>
    <frame tileid="34" duration="150"/>
    <frame tileid="48" duration="150"/>
    <frame tileid="50" duration="150"/>
    <frame tileid="52" duration="150"/>
    <frame tileid="54" duration="150"/>
    <frame tileid="56" duration="150"/>
    <frame tileid="58" duration="150"/>
    <frame tileid="72" duration="150"/>
    <frame tileid="74" duration="150"/>
    <frame tileid="76" duration="150"/>
    <frame tileid="78" duration="150"/>
    <frame tileid="80" duration="150"/>
    <frame tileid="82" duration="150"/>
   </animation>
  </tile>
  <tile id="1">
   <animation>
    <frame tileid="1" duration="150"/>
    <frame tileid="3" duration="150"/>
    <frame tileid="5" duration="150"/>
    <frame tileid="7" duration="150"/>
    <frame tileid="9" duration="150"/>
    <frame tileid="11" duration="150"/>
    <frame tileid="25" duration="150"/>
    <frame tileid="27" duration="150"/>
    <frame tileid="29" duration="150"/>
    <frame tileid="31" duration="150"/>
    <frame tileid="33" duration="150"/>
    <frame tileid="35" duration="150"/>
    <frame tileid="49" duration="150"/>
    <frame tileid="51" duration="150"/>
    <frame tileid="53" duration="150"/>
    <frame tileid="55" duration="150"/>
    <frame tileid="57" duration="150"/>
    <frame tileid="59" duration="150"/>
    <frame tileid="73" duration="150"/>
    <frame tileid="75" duration="150"/>
    <frame tileid="77" duration="150"/>
    <frame tileid="79" duration="150"/>
    <frame tileid="81" duration="150"/>
    <frame tileid="83" duration="150"/>
   </animation>
  </tile>
  <tile id="12">
   <animation>
    <frame tileid="12" duration="150"/>
    <frame tileid="14" duration="150"/>
    <frame tileid="16" duration="150"/>
    <frame tileid="18" duration="150"/>
    <frame tileid="20" duration="150"/>
    <frame tileid="22" duration="150"/>
    <frame tileid="36" duration="150"/>
    <frame tileid="38" duration="150"/>
    <frame tileid="40" duration="150"/>
    <frame tileid="42" duration="150"/>
    <frame tileid="44" duration="150"/>
    <frame tileid="46" duration="150"/>
    <frame tileid="60" duration="150"/>
    <frame tileid="62" duration="150"/>
    <frame tileid="64" duration="150"/>
    <frame tileid="66" duration="150"/>
    <frame tileid="68" duration="150"/>
    <frame tileid="70" duration="150"/>
    <frame tileid="84" duration="150"/>
    <frame tileid="86" duration="150"/>
    <frame tileid="88" duration="150"/>
    <frame tileid="90" duration="150"/>
    <frame tileid="92" duration="150"/>
    <frame tileid="94" duration="150"/>
   </animation>
  </tile>
  <tile id="13">
   <animation>
    <frame tileid="13" duration="150"/>
    <frame tileid="15" duration="150"/>
    <frame tileid="17" duration="150"/>
    <frame tileid="19" duration="150"/>
    <frame tileid="21" duration="150"/>
    <frame tileid="23" duration="150"/>
    <frame tileid="37" duration="150"/>
    <frame tileid="39" duration="150"/>
    <frame tileid="41" duration="150"/>
    <frame tileid="43" duration="150"/>
    <frame tileid="45" duration="150"/>
    <frame tileid="47" duration="150"/>
    <frame tileid="61" duration="150"/>
    <frame tileid="63" duration="150"/>
    <frame tileid="65" duration="150"/>
    <frame tileid="67" duration="150"/>
    <frame tileid="69" duration="150"/>
    <frame tileid="71" duration="150"/>
    <frame tileid="85" duration="150"/>
    <frame tileid="87" duration="150"/>
    <frame tileid="89" duration="150"/>
    <frame tileid="91" duration="150"/>
    <frame tileid="93" duration="150"/>
    <frame tileid="95" duration="150"/>
   </animation>
  </tile>
 </tileset>
 <tileset firstgid="1153" name="Pupil1" tilewidth="16" tileheight="16" tilecount="96" columns="12">
  <image source="Pupil13.png" width="192" height="128"/>
  <tile id="0">
   <animation>
    <frame tileid="0" duration="150"/>
    <frame tileid="2" duration="150"/>
    <frame tileid="4" duration="150"/>
    <frame tileid="6" duration="150"/>
    <frame tileid="8" duration="150"/>
    <frame tileid="10" duration="150"/>
    <frame tileid="24" duration="150"/>
    <frame tileid="26" duration="150"/>
    <frame tileid="28" duration="150"/>
    <frame tileid="30" duration="150"/>
    <frame tileid="32" duration="150"/>
    <frame tileid="34" duration="150"/>
    <frame tileid="48" duration="150"/>
    <frame tileid="50" duration="150"/>
    <frame tileid="52" duration="150"/>
    <frame tileid="54" duration="150"/>
    <frame tileid="56" duration="150"/>
    <frame tileid="58" duration="150"/>
    <frame tileid="72" duration="150"/>
    <frame tileid="74" duration="150"/>
    <frame tileid="76" duration="150"/>
    <frame tileid="78" duration="150"/>
    <frame tileid="80" duration="150"/>
    <frame tileid="82" duration="150"/>
   </animation>
  </tile>
  <tile id="1">
   <animation>
    <frame tileid="1" duration="150"/>
    <frame tileid="3" duration="150"/>
    <frame tileid="5" duration="150"/>
    <frame tileid="7" duration="150"/>
    <frame tileid="9" duration="150"/>
    <frame tileid="11" duration="150"/>
    <frame tileid="25" duration="150"/>
    <frame tileid="27" duration="150"/>
    <frame tileid="29" duration="150"/>
    <frame tileid="31" duration="150"/>
    <frame tileid="33" duration="150"/>
    <frame tileid="35" duration="150"/>
    <frame tileid="49" duration="150"/>
    <frame tileid="51" duration="150"/>
    <frame tileid="53" duration="150"/>
    <frame tileid="55" duration="150"/>
    <frame tileid="57" duration="150"/>
    <frame tileid="59" duration="150"/>
    <frame tileid="73" duration="150"/>
    <frame tileid="75" duration="150"/>
    <frame tileid="77" duration="150"/>
    <frame tileid="79" duration="150"/>
    <frame tileid="81" duration="150"/>
    <frame tileid="83" duration="150"/>
   </animation>
  </tile>
  <tile id="12">
   <animation>
    <frame tileid="12" duration="150"/>
    <frame tileid="14" duration="150"/>
    <frame tileid="16" duration="150"/>
    <frame tileid="18" duration="150"/>
    <frame tileid="20" duration="150"/>
    <frame tileid="22" duration="150"/>
    <frame tileid="36" duration="150"/>
    <frame tileid="38" duration="150"/>
    <frame tileid="40" duration="150"/>
    <frame tileid="42" duration="150"/>
    <frame tileid="44" duration="150"/>
    <frame tileid="46" duration="150"/>
    <frame tileid="60" duration="150"/>
    <frame tileid="62" duration="150"/>
    <frame tileid="64" duration="150"/>
    <frame tileid="66" duration="150"/>
    <frame tileid="68" duration="150"/>
    <frame tileid="70" duration="150"/>
    <frame tileid="84" duration="150"/>
    <frame tileid="86" duration="150"/>
    <frame tileid="88" duration="150"/>
    <frame tileid="90" duration="150"/>
    <frame tileid="92" duration="150"/>
    <frame tileid="94" duration="150"/>
   </animation>
  </tile>
  <tile id="13">
   <animation>
    <frame tileid="13" duration="150"/>
    <frame tileid="15" duration="150"/>
    <frame tileid="17" duration="150"/>
    <frame tileid="19" duration="150"/>
    <frame tileid="21" duration="150"/>
    <frame tileid="23" duration="150"/>
    <frame tileid="37" duration="150"/>
    <frame tileid="39" duration="150"/>
    <frame tileid="41" duration="150"/>
    <frame tileid="43" duration="150"/>
    <frame tileid="45" duration="150"/>
    <frame tileid="47" duration="150"/>
    <frame tileid="61" duration="150"/>
    <frame tileid="63" duration="150"/>
    <frame tileid="65" duration="150"/>
    <frame tileid="67" duration="150"/>
    <frame tileid="69" duration="150"/>
    <frame tileid="71" duration="150"/>
    <frame tileid="85" duration="150"/>
    <frame tileid="87" duration="150"/>
    <frame tileid="89" duration="150"/>
    <frame tileid="91" duration="150"/>
    <frame tileid="93" duration="150"/>
    <frame tileid="95" duration="150"/>
   </animation>
  </tile>
 </tileset>
 <tileset firstgid="1249" name="Pupil1" tilewidth="16" tileheight="16" tilecount="96" columns="12">
  <image source="Pupil14.png" width="192" height="128"/>
  <tile id="0">
   <animation>
    <frame tileid="0" duration="150"/>
    <frame tileid="2" duration="150"/>
    <frame tileid="4" duration="150"/>
    <frame tileid="6" duration="150"/>
    <frame tileid="8" duration="150"/>
    <frame tileid="10" duration="150"/>
    <frame tileid="24" duration="150"/>
    <frame tileid="26" duration="150"/>
    <frame tileid="28" duration="150"/>
    <frame tileid="30" duration="150"/>
    <frame tileid="32" duration="150"/>
    <frame tileid="34" duration="150"/>
    <frame tileid="48" duration="150"/>
    <frame tileid="50" duration="150"/>
    <frame tileid="52" duration="150"/>
    <frame tileid="54" duration="150"/>
    <frame tileid="56" duration="150"/>
    <frame tileid="58" duration="150"/>
    <frame tileid="72" duration="150"/>
    <frame tileid="74" duration="150"/>
    <frame tileid="76" duration="150"/>
    <frame tileid="78" duration="150"/>
    <frame tileid="80" duration="150"/>
    <frame tileid="82" duration="150"/>
   </animation>
  </tile>
  <tile id="1">
   <animation>
    <frame tileid="1" duration="150"/>
    <frame tileid="3" duration="150"/>
    <frame tileid="5" duration="150"/>
    <frame tileid="7" duration="150"/>
    <frame tileid="9" duration="150"/>
    <frame tileid="11" duration="150"/>
    <frame tileid="25" duration="150"/>
    <frame tileid="27" duration="150"/>
    <frame tileid="29" duration="150"/>
    <frame tileid="31" duration="150"/>
    <frame tileid="33" duration="150"/>
    <frame tileid="35" duration="150"/>
    <frame tileid="49" duration="150"/>
    <frame tileid="51" duration="150"/>
    <frame tileid="53" duration="150"/>
    <frame tileid="55" duration="150"/>
    <frame tileid="57" duration="150"/>
    <frame tileid="59" duration="150"/>
    <frame tileid="73" duration="150"/>
    <frame tileid="75" duration="150"/>
    <frame tileid="77" duration="150"/>
    <frame tileid="79" duration="150"/>
    <frame tileid="81" duration="150"/>
    <frame tileid="83" duration="150"/>
   </animation>
  </tile>
  <tile id="12">
   <animation>
    <frame tileid="12" duration="150"/>
    <frame tileid="14" duration="150"/>
    <frame tileid="16" duration="150"/>
    <frame tileid="18" duration="150"/>
    <frame tileid="20" duration="150"/>
    <frame tileid="22" duration="150"/>
    <frame tileid="36" duration="150"/>
    <frame tileid="38" duration="150"/>
    <frame tileid="40" duration="150"/>
    <frame tileid="42" duration="150"/>
    <frame tileid="44" duration="150"/>
    <frame tileid="46" duration="150"/>
    <frame tileid="60" duration="150"/>
    <frame tileid="62" duration="150"/>
    <frame tileid="64" duration="150"/>
    <frame tileid="66" duration="150"/>
    <frame tileid="68" duration="150"/>
    <frame tileid="70" duration="150"/>
    <frame tileid="84" duration="150"/>
    <frame tileid="86" duration="150"/>
    <frame tileid="88" duration="150"/>
    <frame tileid="90" duration="150"/>
    <frame tileid="92" duration="150"/>
    <frame tileid="94" duration="150"/>
   </animation>
  </tile>
  <tile id="13">
   <animation>
    <frame tileid="13" duration="150"/>
    <frame tileid="15" duration="150"/>
    <frame tileid="17" duration="150"/>
    <frame tileid="19" duration="150"/>
    <frame tileid="21" duration="150"/>
    <frame tileid="23" duration="150"/>
    <frame tileid="37" duration="150"/>
    <frame tileid="39" duration="150"/>
    <frame tileid="41" duration="150"/>
    <frame tileid="43" duration="150"/>
    <frame tileid="45" duration="150"/>
    <frame tileid="47" duration="150"/>
    <frame tileid="61" duration="150"/>
    <frame tileid="63" duration="150"/>
    <frame tileid="65" duration="150"/>
    <frame tileid="67" duration="150"/>
    <frame tileid="69" duration="150"/>
    <frame tileid="71" duration="150"/>
    <frame tileid="85" duration="150"/>
    <frame tileid="87" duration="150"/>
    <frame tileid="89" duration="150"/>
    <frame tileid="91" duration="150"/>
    <frame tileid="93" duration="150"/>
    <frame tileid="95" duration="150"/>
   </animation>
  </tile>
 </tileset>
 <tileset firstgid="1345" name="Pupil1" tilewidth="16" tileheight="16" tilecount="96" columns="12">
  <image source="Pupil15.png" width="192" height="128"/>
  <tile id="0">
   <animation>
    <frame tileid="0" duration="150"/>
    <frame tileid="2" duration="150"/>
    <frame tileid="4" duration="150"/>
    <frame tileid="6" duration="150"/>
    <frame tileid="8" duration="150"/>
    <frame tileid="10" duration="150"/>
    <frame tileid="24" duration="150"/>
    <frame tileid="26" duration="150"/>
    <frame tileid="28" duration="150"/>
    <frame tileid="30" duration="150"/>
    <frame tileid="32" duration="150"/>
    <frame tileid="34" duration="150"/>
    <frame tileid="48" duration="150"/>
    <frame tileid="50" duration="150"/>
    <frame tileid="52" duration="150"/>
    <frame tileid="54" duration="150"/>
    <frame tileid="56" duration="150"/>
    <frame tileid="58" duration="150"/>
    <frame tileid="72" duration="150"/>
    <frame tileid="74" duration="150"/>
    <frame tileid="76" duration="150"/>
    <frame tileid="78" duration="150"/>
    <frame tileid="80" duration="150"/>
    <frame tileid="82" duration="150"/>
   </animation>
  </tile>
  <tile id="1">
   <animation>
    <frame tileid="1" duration="150"/>
    <frame tileid="3" duration="150"/>
    <frame tileid="5" duration="150"/>
    <frame tileid="7" duration="150"/>
    <frame tileid="9" duration="150"/>
    <frame tileid="11" duration="150"/>
    <frame tileid="25" duration="150"/>
    <frame tileid="27" duration="150"/>
    <frame tileid="29" duration="150"/>
    <frame tileid="31" duration="150"/>
    <frame tileid="33" duration="150"/>
    <frame tileid="35" duration="150"/>
    <frame tileid="49" duration="150"/>
    <frame tileid="51" duration="150"/>
    <frame tileid="53" duration="150"/>
    <frame tileid="55" duration="150"/>
    <frame tileid="57" duration="150"/>
    <frame tileid="59" duration="150"/>
    <frame tileid="73" duration="150"/>
    <frame tileid="75" duration="150"/>
    <frame tileid="77" duration="150"/>
    <frame tileid="79" duration="150"/>
    <frame tileid="81" duration="150"/>
    <frame tileid="83" duration="150"/>
   </animation>
  </tile>
  <tile id="12">
   <animation>
    <frame tileid="12" duration="150"/>
    <frame tileid="14" duration="150"/>
    <frame tileid="16" duration="150"/>
    <frame tileid="18" duration="150"/>
    <frame tileid="20" duration="150"/>
    <frame tileid="22" duration="150"/>
    <frame tileid="36" duration="150"/>
    <frame tileid="38" duration="150"/>
    <frame tileid="40" duration="150"/>
    <frame tileid="42" duration="150"/>
    <frame tileid="44" duration="150"/>
    <frame tileid="46" duration="150"/>
    <frame tileid="60" duration="150"/>
    <frame tileid="62" duration="150"/>
    <frame tileid="64" duration="150"/>
    <frame tileid="66" duration="150"/>
    <frame tileid="68" duration="150"/>
    <frame tileid="70" duration="150"/>
    <frame tileid="84" duration="150"/>
    <frame tileid="86" duration="150"/>
    <frame tileid="88" duration="150"/>
    <frame tileid="90" duration="150"/>
    <frame tileid="92" duration="150"/>
    <frame tileid="94" duration="150"/>
   </animation>
  </tile>
  <tile id="13">
   <animation>
    <frame tileid="13" duration="150"/>
    <frame tileid="15" duration="150"/>
    <frame tileid="17" duration="150"/>
    <frame tileid="19" duration="150"/>
    <frame tileid="21" duration="150"/>
    <frame tileid="23" duration="150"/>
    <frame tileid="37" duration="150"/>
    <frame tileid="39" duration="150"/>
    <frame tileid="41" duration="150"/>
    <frame tileid="43" duration="150"/>
    <frame tileid="45" duration="150"/>
    <frame tileid="47" duration="150"/>
    <frame tileid="61" duration="150"/>
    <frame tileid="63" duration="150"/>
    <frame tileid="65" duration="150"/>
    <frame tileid="67" duration="150"/>
    <frame tileid="69" duration="150"/>
    <frame tileid="71" duration="150"/>
    <frame tileid="85" duration="150"/>
    <frame tileid="87" duration="150"/>
    <frame tileid="89" duration="150"/>
    <frame tileid="91" duration="150"/>
    <frame tileid="93" duration="150"/>
    <frame tileid="95" duration="150"/>
   </animation>
  </tile>
 </tileset>
 <tileset firstgid="1441" name="Pupil1" tilewidth="16" tileheight="16" tilecount="96" columns="12">
  <image source="Pupil16.png" width="192" height="128"/>
  <tile id="0">
   <animation>
    <frame tileid="0" duration="150"/>
    <frame tileid="2" duration="150"/>
    <frame tileid="4" duration="150"/>
    <frame tileid="6" duration="150"/>
    <frame tileid="8" duration="150"/>
    <frame tileid="10" duration="150"/>
    <frame tileid="24" duration="150"/>
    <frame tileid="26" duration="150"/>
    <frame tileid="28" duration="150"/>
    <frame tileid="30" duration="150"/>
    <frame tileid="32" duration="150"/>
    <frame tileid="34" duration="150"/>
    <frame tileid="48" duration="150"/>
    <frame tileid="50" duration="150"/>
    <frame tileid="52" duration="150"/>
    <frame tileid="54" duration="150"/>
    <frame tileid="56" duration="150"/>
    <frame tileid="58" duration="150"/>
    <frame tileid="72" duration="150"/>
    <frame tileid="74" duration="150"/>
    <frame tileid="76" duration="150"/>
    <frame tileid="78" duration="150"/>
    <frame tileid="80" duration="150"/>
    <frame tileid="82" duration="150"/>
   </animation>
  </tile>
  <tile id="1">
   <animation>
    <frame tileid="1" duration="150"/>
    <frame tileid="3" duration="150"/>
    <frame tileid="5" duration="150"/>
    <frame tileid="7" duration="150"/>
    <frame tileid="9" duration="150"/>
    <frame tileid="11" duration="150"/>
    <frame tileid="25" duration="150"/>
    <frame tileid="27" duration="150"/>
    <frame tileid="29" duration="150"/>
    <frame tileid="31" duration="150"/>
    <frame tileid="33" duration="150"/>
    <frame tileid="35" duration="150"/>
    <frame tileid="49" duration="150"/>
    <frame tileid="51" duration="150"/>
    <frame tileid="53" duration="150"/>
    <frame tileid="55" duration="150"/>
    <frame tileid="57" duration="150"/>
    <frame tileid="59" duration="150"/>
    <frame tileid="73" duration="150"/>
    <frame tileid="75" duration="150"/>
    <frame tileid="77" duration="150"/>
    <frame tileid="79" duration="150"/>
    <frame tileid="81" duration="150"/>
    <frame tileid="83" duration="150"/>
   </animation>
  </tile>
  <tile id="12">
   <animation>
    <frame tileid="12" duration="150"/>
    <frame tileid="14" duration="150"/>
    <frame tileid="16" duration="150"/>
    <frame tileid="18" duration="150"/>
    <frame tileid="20" duration="150"/>
    <frame tileid="22" duration="150"/>
    <frame tileid="36" duration="150"/>
    <frame tileid="38" duration="150"/>
    <frame tileid="40" duration="150"/>
    <frame tileid="42" duration="150"/>
    <frame tileid="44" duration="150"/>
    <frame tileid="46" duration="150"/>
    <frame tileid="60" duration="150"/>
    <frame tileid="62" duration="150"/>
    <frame tileid="64" duration="150"/>
    <frame tileid="66" duration="150"/>
    <frame tileid="68" duration="150"/>
    <frame tileid="70" duration="150"/>
    <frame tileid="84" duration="150"/>
    <frame tileid="86" duration="150"/>
    <frame tileid="88" duration="150"/>
    <frame tileid="90" duration="150"/>
    <frame tileid="92" duration="150"/>
    <frame tileid="94" duration="150"/>
   </animation>
  </tile>
  <tile id="13">
   <animation>
    <frame tileid="13" duration="150"/>
    <frame tileid="15" duration="150"/>
    <frame tileid="17" duration="150"/>
    <frame tileid="19" duration="150"/>
    <frame tileid="21" duration="150"/>
    <frame tileid="23" duration="150"/>
    <frame tileid="37" duration="150"/>
    <frame tileid="39" duration="150"/>
    <frame tileid="41" duration="150"/>
    <frame tileid="43" duration="150"/>
    <frame tileid="45" duration="150"/>
    <frame tileid="47" duration="150"/>
    <frame tileid="61" duration="150"/>
    <frame tileid="63" duration="150"/>
    <frame tileid="65" duration="150"/>
    <frame tileid="67" duration="150"/>
    <frame tileid="69" duration="150"/>
    <frame tileid="71" duration="150"/>
    <frame tileid="85" duration="150"/>
    <frame tileid="87" duration="150"/>
    <frame tileid="89" duration="150"/>
    <frame tileid="91" duration="150"/>
    <frame tileid="93" duration="150"/>
    <frame tileid="95" duration="150"/>
   </animation>
  </tile>
 </tileset>
 <tileset firstgid="1537" name="Pupils_together_floor1" tilewidth="16" tileheight="16" tilecount="1344" columns="48">
  <image source="Pupils_together_floor1.png" width="768" height="448"/>
  <tile id="1">
   <animation>
    <frame tileid="1" duration="150"/>
    <frame tileid="9" duration="150"/>
    <frame tileid="17" duration="150"/>
    <frame tileid="25" duration="150"/>
    <frame tileid="33" duration="150"/>
    <frame tileid="41" duration="150"/>
    <frame tileid="337" duration="150"/>
    <frame tileid="345" duration="150"/>
    <frame tileid="353" duration="150"/>
    <frame tileid="361" duration="150"/>
    <frame tileid="369" duration="150"/>
    <frame tileid="377" duration="150"/>
    <frame tileid="673" duration="150"/>
    <frame tileid="681" duration="150"/>
    <frame tileid="689" duration="150"/>
    <frame tileid="697" duration="150"/>
    <frame tileid="705" duration="150"/>
    <frame tileid="713" duration="150"/>
    <frame tileid="1009" duration="150"/>
    <frame tileid="1017" duration="150"/>
    <frame tileid="1025" duration="150"/>
    <frame tileid="1033" duration="150"/>
    <frame tileid="1041" duration="150"/>
    <frame tileid="1049" duration="150"/>
   </animation>
  </tile>
  <tile id="2">
   <animation>
    <frame tileid="2" duration="150"/>
    <frame tileid="10" duration="150"/>
    <frame tileid="18" duration="150"/>
    <frame tileid="26" duration="150"/>
    <frame tileid="34" duration="150"/>
    <frame tileid="42" duration="150"/>
    <frame tileid="338" duration="150"/>
    <frame tileid="346" duration="150"/>
    <frame tileid="354" duration="150"/>
    <frame tileid="362" duration="150"/>
    <frame tileid="370" duration="150"/>
    <frame tileid="378" duration="150"/>
    <frame tileid="674" duration="150"/>
    <frame tileid="682" duration="150"/>
    <frame tileid="690" duration="150"/>
    <frame tileid="698" duration="150"/>
    <frame tileid="706" duration="150"/>
    <frame tileid="714" duration="150"/>
    <frame tileid="1010" duration="150"/>
    <frame tileid="1018" duration="150"/>
    <frame tileid="1026" duration="150"/>
    <frame tileid="1034" duration="150"/>
    <frame tileid="1042" duration="150"/>
    <frame tileid="1050" duration="150"/>
   </animation>
  </tile>
  <tile id="5">
   <animation>
    <frame tileid="5" duration="150"/>
    <frame tileid="13" duration="150"/>
    <frame tileid="21" duration="150"/>
    <frame tileid="29" duration="150"/>
    <frame tileid="37" duration="150"/>
    <frame tileid="45" duration="150"/>
    <frame tileid="341" duration="150"/>
    <frame tileid="349" duration="150"/>
    <frame tileid="357" duration="150"/>
    <frame tileid="365" duration="150"/>
    <frame tileid="373" duration="150"/>
    <frame tileid="381" duration="150"/>
    <frame tileid="677" duration="150"/>
    <frame tileid="685" duration="150"/>
    <frame tileid="693" duration="150"/>
    <frame tileid="701" duration="150"/>
    <frame tileid="709" duration="150"/>
    <frame tileid="717" duration="150"/>
    <frame tileid="1013" duration="150"/>
    <frame tileid="1021" duration="150"/>
    <frame tileid="1029" duration="150"/>
    <frame tileid="1037" duration="150"/>
    <frame tileid="1045" duration="150"/>
    <frame tileid="1053" duration="150"/>
   </animation>
  </tile>
  <tile id="6">
   <animation>
    <frame tileid="6" duration="150"/>
    <frame tileid="14" duration="150"/>
    <frame tileid="22" duration="150"/>
    <frame tileid="30" duration="150"/>
    <frame tileid="38" duration="150"/>
    <frame tileid="46" duration="150"/>
    <frame tileid="342" duration="150"/>
    <frame tileid="350" duration="150"/>
    <frame tileid="358" duration="150"/>
    <frame tileid="366" duration="150"/>
    <frame tileid="374" duration="150"/>
    <frame tileid="382" duration="150"/>
    <frame tileid="678" duration="150"/>
    <frame tileid="686" duration="150"/>
    <frame tileid="694" duration="150"/>
    <frame tileid="702" duration="150"/>
    <frame tileid="710" duration="150"/>
    <frame tileid="718" duration="150"/>
    <frame tileid="1014" duration="150"/>
    <frame tileid="1022" duration="150"/>
    <frame tileid="1030" duration="150"/>
    <frame tileid="1038" duration="150"/>
    <frame tileid="1046" duration="150"/>
    <frame tileid="1054" duration="150"/>
   </animation>
  </tile>
  <tile id="48">
   <animation>
    <frame tileid="48" duration="150"/>
    <frame tileid="56" duration="150"/>
    <frame tileid="64" duration="150"/>
    <frame tileid="72" duration="150"/>
    <frame tileid="80" duration="150"/>
    <frame tileid="88" duration="150"/>
    <frame tileid="384" duration="150"/>
    <frame tileid="392" duration="150"/>
    <frame tileid="400" duration="150"/>
    <frame tileid="408" duration="150"/>
    <frame tileid="416" duration="150"/>
    <frame tileid="424" duration="150"/>
    <frame tileid="720" duration="150"/>
    <frame tileid="728" duration="150"/>
    <frame tileid="736" duration="150"/>
    <frame tileid="744" duration="150"/>
    <frame tileid="752" duration="150"/>
    <frame tileid="760" duration="150"/>
    <frame tileid="1056" duration="150"/>
    <frame tileid="1064" duration="150"/>
    <frame tileid="1072" duration="150"/>
    <frame tileid="1080" duration="150"/>
    <frame tileid="1088" duration="150"/>
    <frame tileid="1096" duration="150"/>
   </animation>
  </tile>
  <tile id="49">
   <animation>
    <frame tileid="49" duration="150"/>
    <frame tileid="57" duration="150"/>
    <frame tileid="65" duration="150"/>
    <frame tileid="73" duration="150"/>
    <frame tileid="81" duration="150"/>
    <frame tileid="89" duration="150"/>
    <frame tileid="385" duration="150"/>
    <frame tileid="393" duration="150"/>
    <frame tileid="401" duration="150"/>
    <frame tileid="409" duration="150"/>
    <frame tileid="417" duration="150"/>
    <frame tileid="425" duration="150"/>
    <frame tileid="721" duration="150"/>
    <frame tileid="729" duration="150"/>
    <frame tileid="737" duration="150"/>
    <frame tileid="745" duration="150"/>
    <frame tileid="753" duration="150"/>
    <frame tileid="761" duration="150"/>
    <frame tileid="1057" duration="150"/>
    <frame tileid="1065" duration="150"/>
    <frame tileid="1073" duration="150"/>
    <frame tileid="1081" duration="150"/>
    <frame tileid="1089" duration="150"/>
    <frame tileid="1097" duration="150"/>
   </animation>
  </tile>
  <tile id="50">
   <animation>
    <frame tileid="50" duration="150"/>
    <frame tileid="58" duration="150"/>
    <frame tileid="66" duration="150"/>
    <frame tileid="74" duration="150"/>
    <frame tileid="82" duration="150"/>
    <frame tileid="90" duration="150"/>
    <frame tileid="386" duration="150"/>
    <frame tileid="394" duration="150"/>
    <frame tileid="402" duration="150"/>
    <frame tileid="410" duration="150"/>
    <frame tileid="418" duration="150"/>
    <frame tileid="426" duration="150"/>
    <frame tileid="722" duration="150"/>
    <frame tileid="730" duration="150"/>
    <frame tileid="738" duration="150"/>
    <frame tileid="746" duration="150"/>
    <frame tileid="754" duration="150"/>
    <frame tileid="762" duration="150"/>
    <frame tileid="1058" duration="150"/>
    <frame tileid="1066" duration="150"/>
    <frame tileid="1074" duration="150"/>
    <frame tileid="1082" duration="150"/>
    <frame tileid="1090" duration="150"/>
    <frame tileid="1098" duration="150"/>
   </animation>
  </tile>
  <tile id="53">
   <animation>
    <frame tileid="53" duration="150"/>
    <frame tileid="61" duration="150"/>
    <frame tileid="69" duration="150"/>
    <frame tileid="77" duration="150"/>
    <frame tileid="85" duration="150"/>
    <frame tileid="93" duration="150"/>
    <frame tileid="389" duration="150"/>
    <frame tileid="397" duration="150"/>
    <frame tileid="405" duration="150"/>
    <frame tileid="413" duration="150"/>
    <frame tileid="421" duration="150"/>
    <frame tileid="429" duration="150"/>
    <frame tileid="725" duration="150"/>
    <frame tileid="733" duration="150"/>
    <frame tileid="741" duration="150"/>
    <frame tileid="749" duration="150"/>
    <frame tileid="757" duration="150"/>
    <frame tileid="765" duration="150"/>
    <frame tileid="1061" duration="150"/>
    <frame tileid="1069" duration="150"/>
    <frame tileid="1077" duration="150"/>
    <frame tileid="1085" duration="150"/>
    <frame tileid="1093" duration="150"/>
    <frame tileid="1101" duration="150"/>
   </animation>
  </tile>
  <tile id="54">
   <animation>
    <frame tileid="54" duration="150"/>
    <frame tileid="62" duration="150"/>
    <frame tileid="70" duration="150"/>
    <frame tileid="78" duration="150"/>
    <frame tileid="86" duration="150"/>
    <frame tileid="94" duration="150"/>
    <frame tileid="390" duration="150"/>
    <frame tileid="398" duration="150"/>
    <frame tileid="406" duration="150"/>
    <frame tileid="414" duration="150"/>
    <frame tileid="422" duration="150"/>
    <frame tileid="430" duration="150"/>
    <frame tileid="726" duration="150"/>
    <frame tileid="734" duration="150"/>
    <frame tileid="742" duration="150"/>
    <frame tileid="750" duration="150"/>
    <frame tileid="758" duration="150"/>
    <frame tileid="766" duration="150"/>
    <frame tileid="1062" duration="150"/>
    <frame tileid="1070" duration="150"/>
    <frame tileid="1078" duration="150"/>
    <frame tileid="1086" duration="150"/>
    <frame tileid="1094" duration="150"/>
    <frame tileid="1102" duration="150"/>
   </animation>
  </tile>
  <tile id="55">
   <animation>
    <frame tileid="55" duration="150"/>
    <frame tileid="63" duration="150"/>
    <frame tileid="71" duration="150"/>
    <frame tileid="79" duration="150"/>
    <frame tileid="87" duration="150"/>
    <frame tileid="95" duration="150"/>
    <frame tileid="391" duration="150"/>
    <frame tileid="399" duration="150"/>
    <frame tileid="407" duration="150"/>
    <frame tileid="415" duration="150"/>
    <frame tileid="423" duration="150"/>
    <frame tileid="431" duration="150"/>
    <frame tileid="727" duration="150"/>
    <frame tileid="735" duration="150"/>
    <frame tileid="743" duration="150"/>
    <frame tileid="751" duration="150"/>
    <frame tileid="759" duration="150"/>
    <frame tileid="767" duration="150"/>
    <frame tileid="1063" duration="150"/>
    <frame tileid="1071" duration="150"/>
    <frame tileid="1079" duration="150"/>
    <frame tileid="1087" duration="150"/>
    <frame tileid="1095" duration="150"/>
    <frame tileid="1103" duration="150"/>
   </animation>
  </tile>
  <tile id="96">
   <animation>
    <frame tileid="96" duration="150"/>
    <frame tileid="104" duration="150"/>
    <frame tileid="112" duration="150"/>
    <frame tileid="120" duration="150"/>
    <frame tileid="128" duration="150"/>
    <frame tileid="136" duration="150"/>
    <frame tileid="432" duration="150"/>
    <frame tileid="440" duration="150"/>
    <frame tileid="448" duration="150"/>
    <frame tileid="456" duration="150"/>
    <frame tileid="464" duration="150"/>
    <frame tileid="472" duration="150"/>
    <frame tileid="768" duration="150"/>
    <frame tileid="776" duration="150"/>
    <frame tileid="784" duration="150"/>
    <frame tileid="792" duration="150"/>
    <frame tileid="800" duration="150"/>
    <frame tileid="808" duration="150"/>
    <frame tileid="1104" duration="150"/>
    <frame tileid="1112" duration="150"/>
    <frame tileid="1120" duration="150"/>
    <frame tileid="1128" duration="150"/>
    <frame tileid="1136" duration="150"/>
    <frame tileid="1144" duration="150"/>
   </animation>
  </tile>
  <tile id="97">
   <animation>
    <frame tileid="97" duration="150"/>
    <frame tileid="105" duration="150"/>
    <frame tileid="113" duration="150"/>
    <frame tileid="121" duration="150"/>
    <frame tileid="129" duration="150"/>
    <frame tileid="137" duration="150"/>
    <frame tileid="433" duration="150"/>
    <frame tileid="441" duration="150"/>
    <frame tileid="449" duration="150"/>
    <frame tileid="457" duration="150"/>
    <frame tileid="465" duration="150"/>
    <frame tileid="473" duration="150"/>
    <frame tileid="769" duration="150"/>
    <frame tileid="777" duration="150"/>
    <frame tileid="785" duration="150"/>
    <frame tileid="793" duration="150"/>
    <frame tileid="801" duration="150"/>
    <frame tileid="809" duration="150"/>
    <frame tileid="1105" duration="150"/>
    <frame tileid="1113" duration="150"/>
    <frame tileid="1121" duration="150"/>
    <frame tileid="1129" duration="150"/>
    <frame tileid="1137" duration="150"/>
    <frame tileid="1145" duration="150"/>
   </animation>
  </tile>
  <tile id="98">
   <animation>
    <frame tileid="98" duration="150"/>
    <frame tileid="106" duration="150"/>
    <frame tileid="114" duration="150"/>
    <frame tileid="122" duration="150"/>
    <frame tileid="130" duration="150"/>
    <frame tileid="138" duration="150"/>
    <frame tileid="434" duration="150"/>
    <frame tileid="442" duration="150"/>
    <frame tileid="450" duration="150"/>
    <frame tileid="458" duration="150"/>
    <frame tileid="466" duration="150"/>
    <frame tileid="474" duration="150"/>
    <frame tileid="770" duration="150"/>
    <frame tileid="778" duration="150"/>
    <frame tileid="786" duration="150"/>
    <frame tileid="794" duration="150"/>
    <frame tileid="802" duration="150"/>
    <frame tileid="810" duration="150"/>
    <frame tileid="1106" duration="150"/>
    <frame tileid="1114" duration="150"/>
    <frame tileid="1122" duration="150"/>
    <frame tileid="1130" duration="150"/>
    <frame tileid="1138" duration="150"/>
    <frame tileid="1146" duration="150"/>
   </animation>
  </tile>
  <tile id="101">
   <animation>
    <frame tileid="101" duration="150"/>
    <frame tileid="109" duration="150"/>
    <frame tileid="117" duration="150"/>
    <frame tileid="125" duration="150"/>
    <frame tileid="133" duration="150"/>
    <frame tileid="141" duration="150"/>
    <frame tileid="437" duration="150"/>
    <frame tileid="445" duration="150"/>
    <frame tileid="453" duration="150"/>
    <frame tileid="461" duration="150"/>
    <frame tileid="469" duration="150"/>
    <frame tileid="477" duration="150"/>
    <frame tileid="773" duration="150"/>
    <frame tileid="781" duration="150"/>
    <frame tileid="789" duration="150"/>
    <frame tileid="797" duration="150"/>
    <frame tileid="805" duration="150"/>
    <frame tileid="813" duration="150"/>
    <frame tileid="1109" duration="150"/>
    <frame tileid="1117" duration="150"/>
    <frame tileid="1125" duration="150"/>
    <frame tileid="1133" duration="150"/>
    <frame tileid="1141" duration="150"/>
    <frame tileid="1149" duration="150"/>
   </animation>
  </tile>
  <tile id="102">
   <animation>
    <frame tileid="102" duration="150"/>
    <frame tileid="110" duration="150"/>
    <frame tileid="118" duration="150"/>
    <frame tileid="126" duration="150"/>
    <frame tileid="134" duration="150"/>
    <frame tileid="142" duration="150"/>
    <frame tileid="438" duration="150"/>
    <frame tileid="446" duration="150"/>
    <frame tileid="454" duration="150"/>
    <frame tileid="462" duration="150"/>
    <frame tileid="470" duration="150"/>
    <frame tileid="478" duration="150"/>
    <frame tileid="774" duration="150"/>
    <frame tileid="782" duration="150"/>
    <frame tileid="790" duration="150"/>
    <frame tileid="798" duration="150"/>
    <frame tileid="806" duration="150"/>
    <frame tileid="814" duration="150"/>
    <frame tileid="1110" duration="150"/>
    <frame tileid="1118" duration="150"/>
    <frame tileid="1126" duration="150"/>
    <frame tileid="1134" duration="150"/>
    <frame tileid="1142" duration="150"/>
    <frame tileid="1150" duration="150"/>
   </animation>
  </tile>
  <tile id="103">
   <animation>
    <frame tileid="103" duration="150"/>
    <frame tileid="111" duration="150"/>
    <frame tileid="119" duration="150"/>
    <frame tileid="127" duration="150"/>
    <frame tileid="135" duration="150"/>
    <frame tileid="143" duration="150"/>
    <frame tileid="439" duration="150"/>
    <frame tileid="447" duration="150"/>
    <frame tileid="455" duration="150"/>
    <frame tileid="463" duration="150"/>
    <frame tileid="471" duration="150"/>
    <frame tileid="479" duration="150"/>
    <frame tileid="775" duration="150"/>
    <frame tileid="783" duration="150"/>
    <frame tileid="791" duration="150"/>
    <frame tileid="799" duration="150"/>
    <frame tileid="807" duration="150"/>
    <frame tileid="815" duration="150"/>
    <frame tileid="1111" duration="150"/>
    <frame tileid="1119" duration="150"/>
    <frame tileid="1127" duration="150"/>
    <frame tileid="1135" duration="150"/>
    <frame tileid="1143" duration="150"/>
    <frame tileid="1151" duration="150"/>
   </animation>
  </tile>
  <tile id="144">
   <animation>
    <frame tileid="144" duration="150"/>
    <frame tileid="152" duration="150"/>
    <frame tileid="160" duration="150"/>
    <frame tileid="168" duration="150"/>
    <frame tileid="176" duration="150"/>
    <frame tileid="184" duration="150"/>
    <frame tileid="480" duration="150"/>
    <frame tileid="488" duration="150"/>
    <frame tileid="496" duration="150"/>
    <frame tileid="504" duration="150"/>
    <frame tileid="512" duration="150"/>
    <frame tileid="520" duration="150"/>
    <frame tileid="816" duration="150"/>
    <frame tileid="824" duration="150"/>
    <frame tileid="832" duration="150"/>
    <frame tileid="840" duration="150"/>
    <frame tileid="848" duration="150"/>
    <frame tileid="856" duration="150"/>
    <frame tileid="1152" duration="150"/>
    <frame tileid="1160" duration="150"/>
    <frame tileid="1168" duration="150"/>
    <frame tileid="1176" duration="150"/>
    <frame tileid="1184" duration="150"/>
    <frame tileid="1192" duration="150"/>
   </animation>
  </tile>
  <tile id="145">
   <animation>
    <frame tileid="145" duration="150"/>
    <frame tileid="153" duration="150"/>
    <frame tileid="161" duration="150"/>
    <frame tileid="169" duration="150"/>
    <frame tileid="177" duration="150"/>
    <frame tileid="185" duration="150"/>
    <frame tileid="481" duration="150"/>
    <frame tileid="489" duration="150"/>
    <frame tileid="497" duration="150"/>
    <frame tileid="505" duration="150"/>
    <frame tileid="513" duration="150"/>
    <frame tileid="521" duration="150"/>
    <frame tileid="817" duration="150"/>
    <frame tileid="825" duration="150"/>
    <frame tileid="833" duration="150"/>
    <frame tileid="841" duration="150"/>
    <frame tileid="849" duration="150"/>
    <frame tileid="857" duration="150"/>
    <frame tileid="1153" duration="150"/>
    <frame tileid="1161" duration="150"/>
    <frame tileid="1169" duration="150"/>
    <frame tileid="1177" duration="150"/>
    <frame tileid="1185" duration="150"/>
    <frame tileid="1193" duration="150"/>
   </animation>
  </tile>
  <tile id="150">
   <animation>
    <frame tileid="150" duration="150"/>
    <frame tileid="158" duration="150"/>
    <frame tileid="166" duration="150"/>
    <frame tileid="174" duration="150"/>
    <frame tileid="182" duration="150"/>
    <frame tileid="190" duration="150"/>
    <frame tileid="486" duration="150"/>
    <frame tileid="494" duration="150"/>
    <frame tileid="502" duration="150"/>
    <frame tileid="510" duration="150"/>
    <frame tileid="518" duration="150"/>
    <frame tileid="526" duration="150"/>
    <frame tileid="822" duration="150"/>
    <frame tileid="830" duration="150"/>
    <frame tileid="838" duration="150"/>
    <frame tileid="846" duration="150"/>
    <frame tileid="854" duration="150"/>
    <frame tileid="862" duration="150"/>
    <frame tileid="1158" duration="150"/>
    <frame tileid="1166" duration="150"/>
    <frame tileid="1174" duration="150"/>
    <frame tileid="1182" duration="150"/>
    <frame tileid="1190" duration="150"/>
    <frame tileid="1198" duration="150"/>
   </animation>
  </tile>
  <tile id="151">
   <animation>
    <frame tileid="151" duration="150"/>
    <frame tileid="159" duration="150"/>
    <frame tileid="167" duration="150"/>
    <frame tileid="175" duration="150"/>
    <frame tileid="183" duration="150"/>
    <frame tileid="191" duration="150"/>
    <frame tileid="487" duration="150"/>
    <frame tileid="495" duration="150"/>
    <frame tileid="503" duration="150"/>
    <frame tileid="511" duration="150"/>
    <frame tileid="519" duration="150"/>
    <frame tileid="527" duration="150"/>
    <frame tileid="823" duration="150"/>
    <frame tileid="831" duration="150"/>
    <frame tileid="839" duration="150"/>
    <frame tileid="847" duration="150"/>
    <frame tileid="855" duration="150"/>
    <frame tileid="863" duration="150"/>
    <frame tileid="1159" duration="150"/>
    <frame tileid="1167" duration="150"/>
    <frame tileid="1175" duration="150"/>
    <frame tileid="1183" duration="150"/>
    <frame tileid="1191" duration="150"/>
    <frame tileid="1199" duration="150"/>
   </animation>
  </tile>
  <tile id="192">
   <animation>
    <frame tileid="192" duration="150"/>
    <frame tileid="200" duration="150"/>
    <frame tileid="208" duration="150"/>
    <frame tileid="216" duration="150"/>
    <frame tileid="224" duration="150"/>
    <frame tileid="232" duration="150"/>
    <frame tileid="528" duration="150"/>
    <frame tileid="536" duration="150"/>
    <frame tileid="544" duration="150"/>
    <frame tileid="552" duration="150"/>
    <frame tileid="560" duration="150"/>
    <frame tileid="568" duration="150"/>
    <frame tileid="864" duration="150"/>
    <frame tileid="872" duration="150"/>
    <frame tileid="880" duration="150"/>
    <frame tileid="888" duration="150"/>
    <frame tileid="896" duration="150"/>
    <frame tileid="904" duration="150"/>
    <frame tileid="1200" duration="150"/>
    <frame tileid="1208" duration="150"/>
    <frame tileid="1216" duration="150"/>
    <frame tileid="1224" duration="150"/>
    <frame tileid="1232" duration="150"/>
    <frame tileid="1240" duration="150"/>
   </animation>
  </tile>
  <tile id="193">
   <animation>
    <frame tileid="193" duration="150"/>
    <frame tileid="201" duration="150"/>
    <frame tileid="209" duration="150"/>
    <frame tileid="217" duration="150"/>
    <frame tileid="225" duration="150"/>
    <frame tileid="233" duration="150"/>
    <frame tileid="529" duration="150"/>
    <frame tileid="537" duration="150"/>
    <frame tileid="545" duration="150"/>
    <frame tileid="553" duration="150"/>
    <frame tileid="561" duration="150"/>
    <frame tileid="569" duration="150"/>
    <frame tileid="865" duration="150"/>
    <frame tileid="873" duration="150"/>
    <frame tileid="881" duration="150"/>
    <frame tileid="889" duration="150"/>
    <frame tileid="897" duration="150"/>
    <frame tileid="905" duration="150"/>
    <frame tileid="1201" duration="150"/>
    <frame tileid="1209" duration="150"/>
    <frame tileid="1217" duration="150"/>
    <frame tileid="1225" duration="150"/>
    <frame tileid="1233" duration="150"/>
    <frame tileid="1241" duration="150"/>
   </animation>
  </tile>
  <tile id="194">
   <animation>
    <frame tileid="194" duration="150"/>
    <frame tileid="202" duration="150"/>
    <frame tileid="210" duration="150"/>
    <frame tileid="218" duration="150"/>
    <frame tileid="226" duration="150"/>
    <frame tileid="234" duration="150"/>
    <frame tileid="530" duration="150"/>
    <frame tileid="538" duration="150"/>
    <frame tileid="546" duration="150"/>
    <frame tileid="554" duration="150"/>
    <frame tileid="562" duration="150"/>
    <frame tileid="570" duration="150"/>
    <frame tileid="866" duration="150"/>
    <frame tileid="874" duration="150"/>
    <frame tileid="882" duration="150"/>
    <frame tileid="890" duration="150"/>
    <frame tileid="898" duration="150"/>
    <frame tileid="906" duration="150"/>
    <frame tileid="1202" duration="150"/>
    <frame tileid="1210" duration="150"/>
    <frame tileid="1218" duration="150"/>
    <frame tileid="1226" duration="150"/>
    <frame tileid="1234" duration="150"/>
    <frame tileid="1242" duration="150"/>
   </animation>
  </tile>
  <tile id="195">
   <animation>
    <frame tileid="195" duration="150"/>
    <frame tileid="203" duration="150"/>
    <frame tileid="211" duration="150"/>
    <frame tileid="219" duration="150"/>
    <frame tileid="227" duration="150"/>
    <frame tileid="235" duration="150"/>
    <frame tileid="531" duration="150"/>
    <frame tileid="539" duration="150"/>
    <frame tileid="547" duration="150"/>
    <frame tileid="555" duration="150"/>
    <frame tileid="563" duration="150"/>
    <frame tileid="571" duration="150"/>
    <frame tileid="867" duration="150"/>
    <frame tileid="875" duration="150"/>
    <frame tileid="883" duration="150"/>
    <frame tileid="891" duration="150"/>
    <frame tileid="899" duration="150"/>
    <frame tileid="907" duration="150"/>
    <frame tileid="1203" duration="150"/>
    <frame tileid="1211" duration="150"/>
    <frame tileid="1219" duration="150"/>
    <frame tileid="1227" duration="150"/>
    <frame tileid="1235" duration="150"/>
    <frame tileid="1243" duration="150"/>
   </animation>
  </tile>
  <tile id="196">
   <animation>
    <frame tileid="196" duration="150"/>
    <frame tileid="204" duration="150"/>
    <frame tileid="212" duration="150"/>
    <frame tileid="220" duration="150"/>
    <frame tileid="228" duration="150"/>
    <frame tileid="236" duration="150"/>
    <frame tileid="532" duration="150"/>
    <frame tileid="540" duration="150"/>
    <frame tileid="548" duration="150"/>
    <frame tileid="556" duration="150"/>
    <frame tileid="564" duration="150"/>
    <frame tileid="572" duration="150"/>
    <frame tileid="868" duration="150"/>
    <frame tileid="876" duration="150"/>
    <frame tileid="884" duration="150"/>
    <frame tileid="892" duration="150"/>
    <frame tileid="900" duration="150"/>
    <frame tileid="908" duration="150"/>
    <frame tileid="1204" duration="150"/>
    <frame tileid="1212" duration="150"/>
    <frame tileid="1220" duration="150"/>
    <frame tileid="1228" duration="150"/>
    <frame tileid="1236" duration="150"/>
    <frame tileid="1244" duration="150"/>
   </animation>
  </tile>
  <tile id="197">
   <animation>
    <frame tileid="197" duration="150"/>
    <frame tileid="205" duration="150"/>
    <frame tileid="213" duration="150"/>
    <frame tileid="221" duration="150"/>
    <frame tileid="229" duration="150"/>
    <frame tileid="237" duration="150"/>
    <frame tileid="533" duration="150"/>
    <frame tileid="541" duration="150"/>
    <frame tileid="549" duration="150"/>
    <frame tileid="557" duration="150"/>
    <frame tileid="565" duration="150"/>
    <frame tileid="573" duration="150"/>
    <frame tileid="869" duration="150"/>
    <frame tileid="877" duration="150"/>
    <frame tileid="885" duration="150"/>
    <frame tileid="893" duration="150"/>
    <frame tileid="901" duration="150"/>
    <frame tileid="909" duration="150"/>
    <frame tileid="1205" duration="150"/>
    <frame tileid="1213" duration="150"/>
    <frame tileid="1221" duration="150"/>
    <frame tileid="1229" duration="150"/>
    <frame tileid="1237" duration="150"/>
    <frame tileid="1245" duration="150"/>
   </animation>
  </tile>
  <tile id="198">
   <animation>
    <frame tileid="198" duration="150"/>
    <frame tileid="206" duration="150"/>
    <frame tileid="214" duration="150"/>
    <frame tileid="222" duration="150"/>
    <frame tileid="230" duration="150"/>
    <frame tileid="238" duration="150"/>
    <frame tileid="534" duration="150"/>
    <frame tileid="542" duration="150"/>
    <frame tileid="550" duration="150"/>
    <frame tileid="558" duration="150"/>
    <frame tileid="566" duration="150"/>
    <frame tileid="574" duration="150"/>
    <frame tileid="870" duration="150"/>
    <frame tileid="878" duration="150"/>
    <frame tileid="886" duration="150"/>
    <frame tileid="894" duration="150"/>
    <frame tileid="902" duration="150"/>
    <frame tileid="910" duration="150"/>
    <frame tileid="1206" duration="150"/>
    <frame tileid="1214" duration="150"/>
    <frame tileid="1222" duration="150"/>
    <frame tileid="1230" duration="150"/>
    <frame tileid="1238" duration="150"/>
    <frame tileid="1246" duration="150"/>
   </animation>
  </tile>
  <tile id="199">
   <animation>
    <frame tileid="199" duration="150"/>
    <frame tileid="207" duration="150"/>
    <frame tileid="215" duration="150"/>
    <frame tileid="223" duration="150"/>
    <frame tileid="231" duration="150"/>
    <frame tileid="239" duration="150"/>
    <frame tileid="535" duration="150"/>
    <frame tileid="543" duration="150"/>
    <frame tileid="551" duration="150"/>
    <frame tileid="559" duration="150"/>
    <frame tileid="567" duration="150"/>
    <frame tileid="575" duration="150"/>
    <frame tileid="871" duration="150"/>
    <frame tileid="879" duration="150"/>
    <frame tileid="887" duration="150"/>
    <frame tileid="895" duration="150"/>
    <frame tileid="903" duration="150"/>
    <frame tileid="911" duration="150"/>
    <frame tileid="1207" duration="150"/>
    <frame tileid="1215" duration="150"/>
    <frame tileid="1223" duration="150"/>
    <frame tileid="1231" duration="150"/>
    <frame tileid="1239" duration="150"/>
    <frame tileid="1247" duration="150"/>
   </animation>
  </tile>
  <tile id="240">
   <animation>
    <frame tileid="240" duration="150"/>
    <frame tileid="248" duration="150"/>
    <frame tileid="256" duration="150"/>
    <frame tileid="264" duration="150"/>
    <frame tileid="272" duration="150"/>
    <frame tileid="280" duration="150"/>
    <frame tileid="576" duration="150"/>
    <frame tileid="584" duration="150"/>
    <frame tileid="592" duration="150"/>
    <frame tileid="600" duration="150"/>
    <frame tileid="608" duration="150"/>
    <frame tileid="616" duration="150"/>
    <frame tileid="912" duration="150"/>
    <frame tileid="920" duration="150"/>
    <frame tileid="928" duration="150"/>
    <frame tileid="936" duration="150"/>
    <frame tileid="944" duration="150"/>
    <frame tileid="952" duration="150"/>
    <frame tileid="1248" duration="150"/>
    <frame tileid="1256" duration="150"/>
    <frame tileid="1264" duration="150"/>
    <frame tileid="1272" duration="150"/>
    <frame tileid="1280" duration="150"/>
    <frame tileid="1288" duration="150"/>
   </animation>
  </tile>
  <tile id="241">
   <animation>
    <frame tileid="241" duration="150"/>
    <frame tileid="249" duration="150"/>
    <frame tileid="257" duration="150"/>
    <frame tileid="265" duration="150"/>
    <frame tileid="273" duration="150"/>
    <frame tileid="281" duration="150"/>
    <frame tileid="577" duration="150"/>
    <frame tileid="585" duration="150"/>
    <frame tileid="593" duration="150"/>
    <frame tileid="601" duration="150"/>
    <frame tileid="609" duration="150"/>
    <frame tileid="617" duration="150"/>
    <frame tileid="913" duration="150"/>
    <frame tileid="921" duration="150"/>
    <frame tileid="929" duration="150"/>
    <frame tileid="937" duration="150"/>
    <frame tileid="945" duration="150"/>
    <frame tileid="953" duration="150"/>
    <frame tileid="1249" duration="150"/>
    <frame tileid="1257" duration="150"/>
    <frame tileid="1265" duration="150"/>
    <frame tileid="1273" duration="150"/>
    <frame tileid="1281" duration="150"/>
    <frame tileid="1289" duration="150"/>
   </animation>
  </tile>
  <tile id="242">
   <animation>
    <frame tileid="242" duration="150"/>
    <frame tileid="250" duration="150"/>
    <frame tileid="258" duration="150"/>
    <frame tileid="266" duration="150"/>
    <frame tileid="274" duration="150"/>
    <frame tileid="282" duration="150"/>
    <frame tileid="578" duration="150"/>
    <frame tileid="586" duration="150"/>
    <frame tileid="594" duration="150"/>
    <frame tileid="602" duration="150"/>
    <frame tileid="610" duration="150"/>
    <frame tileid="618" duration="150"/>
    <frame tileid="914" duration="150"/>
    <frame tileid="922" duration="150"/>
    <frame tileid="930" duration="150"/>
    <frame tileid="938" duration="150"/>
    <frame tileid="946" duration="150"/>
    <frame tileid="954" duration="150"/>
    <frame tileid="1250" duration="150"/>
    <frame tileid="1258" duration="150"/>
    <frame tileid="1266" duration="150"/>
    <frame tileid="1274" duration="150"/>
    <frame tileid="1282" duration="150"/>
    <frame tileid="1290" duration="150"/>
   </animation>
  </tile>
  <tile id="243">
   <animation>
    <frame tileid="243" duration="150"/>
    <frame tileid="251" duration="150"/>
    <frame tileid="259" duration="150"/>
    <frame tileid="267" duration="150"/>
    <frame tileid="275" duration="150"/>
    <frame tileid="283" duration="150"/>
    <frame tileid="579" duration="150"/>
    <frame tileid="587" duration="150"/>
    <frame tileid="595" duration="150"/>
    <frame tileid="603" duration="150"/>
    <frame tileid="611" duration="150"/>
    <frame tileid="619" duration="150"/>
    <frame tileid="915" duration="150"/>
    <frame tileid="923" duration="150"/>
    <frame tileid="931" duration="150"/>
    <frame tileid="939" duration="150"/>
    <frame tileid="947" duration="150"/>
    <frame tileid="955" duration="150"/>
    <frame tileid="1251" duration="150"/>
    <frame tileid="1259" duration="150"/>
    <frame tileid="1267" duration="150"/>
    <frame tileid="1275" duration="150"/>
    <frame tileid="1283" duration="150"/>
    <frame tileid="1291" duration="150"/>
   </animation>
  </tile>
  <tile id="244">
   <animation>
    <frame tileid="244" duration="150"/>
    <frame tileid="252" duration="150"/>
    <frame tileid="260" duration="150"/>
    <frame tileid="268" duration="150"/>
    <frame tileid="276" duration="150"/>
    <frame tileid="284" duration="150"/>
    <frame tileid="580" duration="150"/>
    <frame tileid="588" duration="150"/>
    <frame tileid="596" duration="150"/>
    <frame tileid="604" duration="150"/>
    <frame tileid="612" duration="150"/>
    <frame tileid="620" duration="150"/>
    <frame tileid="916" duration="150"/>
    <frame tileid="924" duration="150"/>
    <frame tileid="932" duration="150"/>
    <frame tileid="940" duration="150"/>
    <frame tileid="948" duration="150"/>
    <frame tileid="956" duration="150"/>
    <frame tileid="1252" duration="150"/>
    <frame tileid="1260" duration="150"/>
    <frame tileid="1268" duration="150"/>
    <frame tileid="1276" duration="150"/>
    <frame tileid="1284" duration="150"/>
    <frame tileid="1292" duration="150"/>
   </animation>
  </tile>
  <tile id="245">
   <animation>
    <frame tileid="245" duration="150"/>
    <frame tileid="253" duration="150"/>
    <frame tileid="261" duration="150"/>
    <frame tileid="269" duration="150"/>
    <frame tileid="277" duration="150"/>
    <frame tileid="285" duration="150"/>
    <frame tileid="581" duration="150"/>
    <frame tileid="589" duration="150"/>
    <frame tileid="597" duration="150"/>
    <frame tileid="605" duration="150"/>
    <frame tileid="613" duration="150"/>
    <frame tileid="621" duration="150"/>
    <frame tileid="917" duration="150"/>
    <frame tileid="925" duration="150"/>
    <frame tileid="933" duration="150"/>
    <frame tileid="941" duration="150"/>
    <frame tileid="949" duration="150"/>
    <frame tileid="957" duration="150"/>
    <frame tileid="1253" duration="150"/>
    <frame tileid="1261" duration="150"/>
    <frame tileid="1269" duration="150"/>
    <frame tileid="1277" duration="150"/>
    <frame tileid="1285" duration="150"/>
    <frame tileid="1293" duration="150"/>
   </animation>
  </tile>
  <tile id="246">
   <animation>
    <frame tileid="246" duration="150"/>
    <frame tileid="254" duration="150"/>
    <frame tileid="262" duration="150"/>
    <frame tileid="270" duration="150"/>
    <frame tileid="278" duration="150"/>
    <frame tileid="286" duration="150"/>
    <frame tileid="582" duration="150"/>
    <frame tileid="590" duration="150"/>
    <frame tileid="598" duration="150"/>
    <frame tileid="606" duration="150"/>
    <frame tileid="614" duration="150"/>
    <frame tileid="622" duration="150"/>
    <frame tileid="918" duration="150"/>
    <frame tileid="926" duration="150"/>
    <frame tileid="934" duration="150"/>
    <frame tileid="942" duration="150"/>
    <frame tileid="950" duration="150"/>
    <frame tileid="958" duration="150"/>
    <frame tileid="1254" duration="150"/>
    <frame tileid="1262" duration="150"/>
    <frame tileid="1270" duration="150"/>
    <frame tileid="1278" duration="150"/>
    <frame tileid="1286" duration="150"/>
    <frame tileid="1294" duration="150"/>
   </animation>
  </tile>
  <tile id="247">
   <animation>
    <frame tileid="247" duration="150"/>
    <frame tileid="255" duration="150"/>
    <frame tileid="263" duration="150"/>
    <frame tileid="271" duration="150"/>
    <frame tileid="279" duration="150"/>
    <frame tileid="287" duration="150"/>
    <frame tileid="583" duration="150"/>
    <frame tileid="591" duration="150"/>
    <frame tileid="599" duration="150"/>
    <frame tileid="607" duration="150"/>
    <frame tileid="615" duration="150"/>
    <frame tileid="623" duration="150"/>
    <frame tileid="919" duration="150"/>
    <frame tileid="927" duration="150"/>
    <frame tileid="935" duration="150"/>
    <frame tileid="943" duration="150"/>
    <frame tileid="951" duration="150"/>
    <frame tileid="959" duration="150"/>
    <frame tileid="1255" duration="150"/>
    <frame tileid="1263" duration="150"/>
    <frame tileid="1271" duration="150"/>
    <frame tileid="1279" duration="150"/>
    <frame tileid="1287" duration="150"/>
    <frame tileid="1295" duration="150"/>
   </animation>
  </tile>
  <tile id="289">
   <animation>
    <frame tileid="289" duration="150"/>
    <frame tileid="297" duration="150"/>
    <frame tileid="305" duration="150"/>
    <frame tileid="313" duration="150"/>
    <frame tileid="321" duration="150"/>
    <frame tileid="329" duration="150"/>
    <frame tileid="625" duration="150"/>
    <frame tileid="633" duration="150"/>
    <frame tileid="641" duration="150"/>
    <frame tileid="649" duration="150"/>
    <frame tileid="657" duration="150"/>
    <frame tileid="665" duration="150"/>
    <frame tileid="961" duration="150"/>
    <frame tileid="969" duration="150"/>
    <frame tileid="977" duration="150"/>
    <frame tileid="985" duration="150"/>
    <frame tileid="993" duration="150"/>
    <frame tileid="1001" duration="150"/>
    <frame tileid="1297" duration="150"/>
    <frame tileid="1305" duration="150"/>
    <frame tileid="1313" duration="150"/>
    <frame tileid="1321" duration="150"/>
    <frame tileid="1329" duration="150"/>
    <frame tileid="1337" duration="150"/>
   </animation>
  </tile>
  <tile id="290">
   <animation>
    <frame tileid="290" duration="150"/>
    <frame tileid="298" duration="150"/>
    <frame tileid="306" duration="150"/>
    <frame tileid="314" duration="150"/>
    <frame tileid="322" duration="150"/>
    <frame tileid="330" duration="150"/>
    <frame tileid="626" duration="150"/>
    <frame tileid="634" duration="150"/>
    <frame tileid="642" duration="150"/>
    <frame tileid="650" duration="150"/>
    <frame tileid="658" duration="150"/>
    <frame tileid="666" duration="150"/>
    <frame tileid="962" duration="150"/>
    <frame tileid="970" duration="150"/>
    <frame tileid="978" duration="150"/>
    <frame tileid="986" duration="150"/>
    <frame tileid="994" duration="150"/>
    <frame tileid="1002" duration="150"/>
    <frame tileid="1298" duration="150"/>
    <frame tileid="1306" duration="150"/>
    <frame tileid="1314" duration="150"/>
    <frame tileid="1322" duration="150"/>
    <frame tileid="1330" duration="150"/>
    <frame tileid="1338" duration="150"/>
   </animation>
  </tile>
  <tile id="291">
   <animation>
    <frame tileid="291" duration="150"/>
    <frame tileid="299" duration="150"/>
    <frame tileid="307" duration="150"/>
    <frame tileid="315" duration="150"/>
    <frame tileid="323" duration="150"/>
    <frame tileid="331" duration="150"/>
    <frame tileid="627" duration="150"/>
    <frame tileid="635" duration="150"/>
    <frame tileid="643" duration="150"/>
    <frame tileid="651" duration="150"/>
    <frame tileid="659" duration="150"/>
    <frame tileid="667" duration="150"/>
    <frame tileid="963" duration="150"/>
    <frame tileid="971" duration="150"/>
    <frame tileid="979" duration="150"/>
    <frame tileid="987" duration="150"/>
    <frame tileid="995" duration="150"/>
    <frame tileid="1003" duration="150"/>
    <frame tileid="1299" duration="150"/>
    <frame tileid="1307" duration="150"/>
    <frame tileid="1315" duration="150"/>
    <frame tileid="1323" duration="150"/>
    <frame tileid="1331" duration="150"/>
    <frame tileid="1339" duration="150"/>
   </animation>
  </tile>
  <tile id="292">
   <animation>
    <frame tileid="292" duration="150"/>
    <frame tileid="300" duration="150"/>
    <frame tileid="308" duration="150"/>
    <frame tileid="316" duration="150"/>
    <frame tileid="324" duration="150"/>
    <frame tileid="332" duration="150"/>
    <frame tileid="628" duration="150"/>
    <frame tileid="636" duration="150"/>
    <frame tileid="644" duration="150"/>
    <frame tileid="652" duration="150"/>
    <frame tileid="660" duration="150"/>
    <frame tileid="668" duration="150"/>
    <frame tileid="964" duration="150"/>
    <frame tileid="972" duration="150"/>
    <frame tileid="980" duration="150"/>
    <frame tileid="988" duration="150"/>
    <frame tileid="996" duration="150"/>
    <frame tileid="1004" duration="150"/>
    <frame tileid="1300" duration="150"/>
    <frame tileid="1308" duration="150"/>
    <frame tileid="1316" duration="150"/>
    <frame tileid="1324" duration="150"/>
    <frame tileid="1332" duration="150"/>
    <frame tileid="1340" duration="150"/>
   </animation>
  </tile>
  <tile id="293">
   <animation>
    <frame tileid="293" duration="150"/>
    <frame tileid="301" duration="150"/>
    <frame tileid="309" duration="150"/>
    <frame tileid="317" duration="150"/>
    <frame tileid="325" duration="150"/>
    <frame tileid="333" duration="150"/>
    <frame tileid="629" duration="150"/>
    <frame tileid="637" duration="150"/>
    <frame tileid="645" duration="150"/>
    <frame tileid="653" duration="150"/>
    <frame tileid="661" duration="150"/>
    <frame tileid="669" duration="150"/>
    <frame tileid="965" duration="150"/>
    <frame tileid="973" duration="150"/>
    <frame tileid="981" duration="150"/>
    <frame tileid="989" duration="150"/>
    <frame tileid="997" duration="150"/>
    <frame tileid="1005" duration="150"/>
    <frame tileid="1301" duration="150"/>
    <frame tileid="1309" duration="150"/>
    <frame tileid="1317" duration="150"/>
    <frame tileid="1325" duration="150"/>
    <frame tileid="1333" duration="150"/>
    <frame tileid="1341" duration="150"/>
   </animation>
  </tile>
  <tile id="294">
   <animation>
    <frame tileid="294" duration="150"/>
    <frame tileid="302" duration="150"/>
    <frame tileid="310" duration="150"/>
    <frame tileid="318" duration="150"/>
    <frame tileid="326" duration="150"/>
    <frame tileid="334" duration="150"/>
    <frame tileid="630" duration="150"/>
    <frame tileid="638" duration="150"/>
    <frame tileid="646" duration="150"/>
    <frame tileid="654" duration="150"/>
    <frame tileid="662" duration="150"/>
    <frame tileid="670" duration="150"/>
    <frame tileid="966" duration="150"/>
    <frame tileid="974" duration="150"/>
    <frame tileid="982" duration="150"/>
    <frame tileid="990" duration="150"/>
    <frame tileid="998" duration="150"/>
    <frame tileid="1006" duration="150"/>
    <frame tileid="1302" duration="150"/>
    <frame tileid="1310" duration="150"/>
    <frame tileid="1318" duration="150"/>
    <frame tileid="1326" duration="150"/>
    <frame tileid="1334" duration="150"/>
    <frame tileid="1342" duration="150"/>
   </animation>
  </tile>
 </tileset>
 <tileset firstgid="2881" name="Pupils_together_floor2" tilewidth="16" tileheight="16" tilecount="1008" columns="42">
  <image source="Pupils_together_floor2.png" width="672" height="384"/>
  <tile id="1">
   <animation>
    <frame tileid="1" duration="150"/>
    <frame tileid="8" duration="150"/>
    <frame tileid="15" duration="150"/>
    <frame tileid="22" duration="150"/>
    <frame tileid="29" duration="150"/>
    <frame tileid="36" duration="150"/>
    <frame tileid="253" duration="150"/>
    <frame tileid="260" duration="150"/>
    <frame tileid="267" duration="150"/>
    <frame tileid="274" duration="150"/>
    <frame tileid="281" duration="150"/>
    <frame tileid="288" duration="150"/>
    <frame tileid="505" duration="150"/>
    <frame tileid="512" duration="150"/>
    <frame tileid="519" duration="150"/>
    <frame tileid="526" duration="150"/>
    <frame tileid="533" duration="150"/>
    <frame tileid="540" duration="150"/>
    <frame tileid="757" duration="150"/>
    <frame tileid="764" duration="150"/>
    <frame tileid="771" duration="150"/>
    <frame tileid="778" duration="150"/>
    <frame tileid="785" duration="150"/>
    <frame tileid="792" duration="150"/>
   </animation>
  </tile>
  <tile id="2">
   <animation>
    <frame tileid="2" duration="150"/>
    <frame tileid="9" duration="150"/>
    <frame tileid="16" duration="150"/>
    <frame tileid="23" duration="150"/>
    <frame tileid="30" duration="150"/>
    <frame tileid="37" duration="150"/>
    <frame tileid="254" duration="150"/>
    <frame tileid="261" duration="150"/>
    <frame tileid="268" duration="150"/>
    <frame tileid="275" duration="150"/>
    <frame tileid="282" duration="150"/>
    <frame tileid="289" duration="150"/>
    <frame tileid="506" duration="150"/>
    <frame tileid="513" duration="150"/>
    <frame tileid="520" duration="150"/>
    <frame tileid="527" duration="150"/>
    <frame tileid="534" duration="150"/>
    <frame tileid="541" duration="150"/>
    <frame tileid="758" duration="150"/>
    <frame tileid="765" duration="150"/>
    <frame tileid="772" duration="150"/>
    <frame tileid="779" duration="150"/>
    <frame tileid="786" duration="150"/>
    <frame tileid="793" duration="150"/>
   </animation>
  </tile>
  <tile id="4">
   <animation>
    <frame tileid="4" duration="150"/>
    <frame tileid="11" duration="150"/>
    <frame tileid="18" duration="150"/>
    <frame tileid="25" duration="150"/>
    <frame tileid="32" duration="150"/>
    <frame tileid="39" duration="150"/>
    <frame tileid="256" duration="150"/>
    <frame tileid="263" duration="150"/>
    <frame tileid="270" duration="150"/>
    <frame tileid="277" duration="150"/>
    <frame tileid="284" duration="150"/>
    <frame tileid="291" duration="150"/>
    <frame tileid="508" duration="150"/>
    <frame tileid="515" duration="150"/>
    <frame tileid="522" duration="150"/>
    <frame tileid="529" duration="150"/>
    <frame tileid="536" duration="150"/>
    <frame tileid="543" duration="150"/>
    <frame tileid="760" duration="150"/>
    <frame tileid="767" duration="150"/>
    <frame tileid="774" duration="150"/>
    <frame tileid="781" duration="150"/>
    <frame tileid="788" duration="150"/>
    <frame tileid="795" duration="150"/>
   </animation>
  </tile>
  <tile id="5">
   <animation>
    <frame tileid="5" duration="150"/>
    <frame tileid="12" duration="150"/>
    <frame tileid="19" duration="150"/>
    <frame tileid="26" duration="150"/>
    <frame tileid="33" duration="150"/>
    <frame tileid="40" duration="150"/>
    <frame tileid="257" duration="150"/>
    <frame tileid="264" duration="150"/>
    <frame tileid="271" duration="150"/>
    <frame tileid="278" duration="150"/>
    <frame tileid="285" duration="150"/>
    <frame tileid="292" duration="150"/>
    <frame tileid="509" duration="150"/>
    <frame tileid="516" duration="150"/>
    <frame tileid="523" duration="150"/>
    <frame tileid="530" duration="150"/>
    <frame tileid="537" duration="150"/>
    <frame tileid="544" duration="150"/>
    <frame tileid="761" duration="150"/>
    <frame tileid="768" duration="150"/>
    <frame tileid="775" duration="150"/>
    <frame tileid="782" duration="150"/>
    <frame tileid="789" duration="150"/>
    <frame tileid="796" duration="150"/>
   </animation>
  </tile>
  <tile id="42">
   <animation>
    <frame tileid="42" duration="150"/>
    <frame tileid="49" duration="150"/>
    <frame tileid="56" duration="150"/>
    <frame tileid="63" duration="150"/>
    <frame tileid="70" duration="150"/>
    <frame tileid="77" duration="150"/>
    <frame tileid="294" duration="150"/>
    <frame tileid="301" duration="150"/>
    <frame tileid="308" duration="150"/>
    <frame tileid="315" duration="150"/>
    <frame tileid="322" duration="150"/>
    <frame tileid="329" duration="150"/>
    <frame tileid="546" duration="150"/>
    <frame tileid="553" duration="150"/>
    <frame tileid="560" duration="150"/>
    <frame tileid="567" duration="150"/>
    <frame tileid="574" duration="150"/>
    <frame tileid="581" duration="150"/>
    <frame tileid="798" duration="150"/>
    <frame tileid="805" duration="150"/>
    <frame tileid="812" duration="150"/>
    <frame tileid="819" duration="150"/>
    <frame tileid="826" duration="150"/>
    <frame tileid="833" duration="150"/>
   </animation>
  </tile>
  <tile id="43">
   <animation>
    <frame tileid="43" duration="150"/>
    <frame tileid="50" duration="150"/>
    <frame tileid="57" duration="150"/>
    <frame tileid="64" duration="150"/>
    <frame tileid="71" duration="150"/>
    <frame tileid="78" duration="150"/>
    <frame tileid="295" duration="150"/>
    <frame tileid="302" duration="150"/>
    <frame tileid="309" duration="150"/>
    <frame tileid="316" duration="150"/>
    <frame tileid="323" duration="150"/>
    <frame tileid="330" duration="150"/>
    <frame tileid="547" duration="150"/>
    <frame tileid="554" duration="150"/>
    <frame tileid="561" duration="150"/>
    <frame tileid="568" duration="150"/>
    <frame tileid="575" duration="150"/>
    <frame tileid="582" duration="150"/>
    <frame tileid="799" duration="150"/>
    <frame tileid="806" duration="150"/>
    <frame tileid="813" duration="150"/>
    <frame tileid="820" duration="150"/>
    <frame tileid="827" duration="150"/>
    <frame tileid="834" duration="150"/>
   </animation>
  </tile>
  <tile id="44">
   <animation>
    <frame tileid="44" duration="150"/>
    <frame tileid="51" duration="150"/>
    <frame tileid="58" duration="150"/>
    <frame tileid="65" duration="150"/>
    <frame tileid="72" duration="150"/>
    <frame tileid="79" duration="150"/>
    <frame tileid="296" duration="150"/>
    <frame tileid="303" duration="150"/>
    <frame tileid="310" duration="150"/>
    <frame tileid="317" duration="150"/>
    <frame tileid="324" duration="150"/>
    <frame tileid="331" duration="150"/>
    <frame tileid="548" duration="150"/>
    <frame tileid="555" duration="150"/>
    <frame tileid="562" duration="150"/>
    <frame tileid="569" duration="150"/>
    <frame tileid="576" duration="150"/>
    <frame tileid="583" duration="150"/>
    <frame tileid="800" duration="150"/>
    <frame tileid="807" duration="150"/>
    <frame tileid="814" duration="150"/>
    <frame tileid="821" duration="150"/>
    <frame tileid="828" duration="150"/>
    <frame tileid="835" duration="150"/>
   </animation>
  </tile>
  <tile id="46">
   <animation>
    <frame tileid="46" duration="150"/>
    <frame tileid="53" duration="150"/>
    <frame tileid="60" duration="150"/>
    <frame tileid="67" duration="150"/>
    <frame tileid="74" duration="150"/>
    <frame tileid="81" duration="150"/>
    <frame tileid="298" duration="150"/>
    <frame tileid="305" duration="150"/>
    <frame tileid="312" duration="150"/>
    <frame tileid="319" duration="150"/>
    <frame tileid="326" duration="150"/>
    <frame tileid="333" duration="150"/>
    <frame tileid="550" duration="150"/>
    <frame tileid="557" duration="150"/>
    <frame tileid="564" duration="150"/>
    <frame tileid="571" duration="150"/>
    <frame tileid="578" duration="150"/>
    <frame tileid="585" duration="150"/>
    <frame tileid="802" duration="150"/>
    <frame tileid="809" duration="150"/>
    <frame tileid="816" duration="150"/>
    <frame tileid="823" duration="150"/>
    <frame tileid="830" duration="150"/>
    <frame tileid="837" duration="150"/>
   </animation>
  </tile>
  <tile id="47">
   <animation>
    <frame tileid="47" duration="150"/>
    <frame tileid="54" duration="150"/>
    <frame tileid="61" duration="150"/>
    <frame tileid="68" duration="150"/>
    <frame tileid="75" duration="150"/>
    <frame tileid="82" duration="150"/>
    <frame tileid="299" duration="150"/>
    <frame tileid="306" duration="150"/>
    <frame tileid="313" duration="150"/>
    <frame tileid="320" duration="150"/>
    <frame tileid="327" duration="150"/>
    <frame tileid="334" duration="150"/>
    <frame tileid="551" duration="150"/>
    <frame tileid="558" duration="150"/>
    <frame tileid="565" duration="150"/>
    <frame tileid="572" duration="150"/>
    <frame tileid="579" duration="150"/>
    <frame tileid="586" duration="150"/>
    <frame tileid="803" duration="150"/>
    <frame tileid="810" duration="150"/>
    <frame tileid="817" duration="150"/>
    <frame tileid="824" duration="150"/>
    <frame tileid="831" duration="150"/>
    <frame tileid="838" duration="150"/>
   </animation>
  </tile>
  <tile id="84">
   <animation>
    <frame tileid="84" duration="150"/>
    <frame tileid="91" duration="150"/>
    <frame tileid="98" duration="150"/>
    <frame tileid="105" duration="150"/>
    <frame tileid="112" duration="150"/>
    <frame tileid="119" duration="150"/>
    <frame tileid="336" duration="150"/>
    <frame tileid="343" duration="150"/>
    <frame tileid="350" duration="150"/>
    <frame tileid="357" duration="150"/>
    <frame tileid="364" duration="150"/>
    <frame tileid="371" duration="150"/>
    <frame tileid="588" duration="150"/>
    <frame tileid="595" duration="150"/>
    <frame tileid="602" duration="150"/>
    <frame tileid="609" duration="150"/>
    <frame tileid="616" duration="150"/>
    <frame tileid="623" duration="150"/>
    <frame tileid="840" duration="150"/>
    <frame tileid="847" duration="150"/>
    <frame tileid="854" duration="150"/>
    <frame tileid="861" duration="150"/>
    <frame tileid="868" duration="150"/>
    <frame tileid="875" duration="150"/>
   </animation>
  </tile>
  <tile id="85">
   <animation>
    <frame tileid="85" duration="150"/>
    <frame tileid="92" duration="150"/>
    <frame tileid="99" duration="150"/>
    <frame tileid="106" duration="150"/>
    <frame tileid="113" duration="150"/>
    <frame tileid="120" duration="150"/>
    <frame tileid="337" duration="150"/>
    <frame tileid="344" duration="150"/>
    <frame tileid="351" duration="150"/>
    <frame tileid="358" duration="150"/>
    <frame tileid="365" duration="150"/>
    <frame tileid="372" duration="150"/>
    <frame tileid="589" duration="150"/>
    <frame tileid="596" duration="150"/>
    <frame tileid="603" duration="150"/>
    <frame tileid="610" duration="150"/>
    <frame tileid="617" duration="150"/>
    <frame tileid="624" duration="150"/>
    <frame tileid="841" duration="150"/>
    <frame tileid="848" duration="150"/>
    <frame tileid="855" duration="150"/>
    <frame tileid="862" duration="150"/>
    <frame tileid="869" duration="150"/>
    <frame tileid="876" duration="150"/>
   </animation>
  </tile>
  <tile id="89">
   <animation>
    <frame tileid="89" duration="150"/>
    <frame tileid="96" duration="150"/>
    <frame tileid="103" duration="150"/>
    <frame tileid="110" duration="150"/>
    <frame tileid="117" duration="150"/>
    <frame tileid="124" duration="150"/>
    <frame tileid="341" duration="150"/>
    <frame tileid="348" duration="150"/>
    <frame tileid="355" duration="150"/>
    <frame tileid="362" duration="150"/>
    <frame tileid="369" duration="150"/>
    <frame tileid="376" duration="150"/>
    <frame tileid="593" duration="150"/>
    <frame tileid="600" duration="150"/>
    <frame tileid="607" duration="150"/>
    <frame tileid="614" duration="150"/>
    <frame tileid="621" duration="150"/>
    <frame tileid="628" duration="150"/>
    <frame tileid="845" duration="150"/>
    <frame tileid="852" duration="150"/>
    <frame tileid="859" duration="150"/>
    <frame tileid="866" duration="150"/>
    <frame tileid="873" duration="150"/>
    <frame tileid="880" duration="150"/>
   </animation>
  </tile>
  <tile id="90">
   <animation>
    <frame tileid="90" duration="150"/>
    <frame tileid="97" duration="150"/>
    <frame tileid="104" duration="150"/>
    <frame tileid="111" duration="150"/>
    <frame tileid="118" duration="150"/>
    <frame tileid="125" duration="150"/>
    <frame tileid="342" duration="150"/>
    <frame tileid="349" duration="150"/>
    <frame tileid="356" duration="150"/>
    <frame tileid="363" duration="150"/>
    <frame tileid="370" duration="150"/>
    <frame tileid="377" duration="150"/>
    <frame tileid="594" duration="150"/>
    <frame tileid="601" duration="150"/>
    <frame tileid="608" duration="150"/>
    <frame tileid="615" duration="150"/>
    <frame tileid="622" duration="150"/>
    <frame tileid="629" duration="150"/>
    <frame tileid="846" duration="150"/>
    <frame tileid="853" duration="150"/>
    <frame tileid="860" duration="150"/>
    <frame tileid="867" duration="150"/>
    <frame tileid="874" duration="150"/>
    <frame tileid="881" duration="150"/>
   </animation>
  </tile>
  <tile id="126">
   <animation>
    <frame tileid="126" duration="150"/>
    <frame tileid="133" duration="150"/>
    <frame tileid="140" duration="150"/>
    <frame tileid="147" duration="150"/>
    <frame tileid="154" duration="150"/>
    <frame tileid="161" duration="150"/>
    <frame tileid="378" duration="150"/>
    <frame tileid="385" duration="150"/>
    <frame tileid="392" duration="150"/>
    <frame tileid="399" duration="150"/>
    <frame tileid="406" duration="150"/>
    <frame tileid="413" duration="150"/>
    <frame tileid="630" duration="150"/>
    <frame tileid="637" duration="150"/>
    <frame tileid="644" duration="150"/>
    <frame tileid="651" duration="150"/>
    <frame tileid="658" duration="150"/>
    <frame tileid="665" duration="150"/>
    <frame tileid="882" duration="150"/>
    <frame tileid="889" duration="150"/>
    <frame tileid="896" duration="150"/>
    <frame tileid="903" duration="150"/>
    <frame tileid="910" duration="150"/>
    <frame tileid="917" duration="150"/>
   </animation>
  </tile>
  <tile id="127">
   <animation>
    <frame tileid="127" duration="150"/>
    <frame tileid="134" duration="150"/>
    <frame tileid="141" duration="150"/>
    <frame tileid="148" duration="150"/>
    <frame tileid="155" duration="150"/>
    <frame tileid="162" duration="150"/>
    <frame tileid="379" duration="150"/>
    <frame tileid="386" duration="150"/>
    <frame tileid="393" duration="150"/>
    <frame tileid="400" duration="150"/>
    <frame tileid="407" duration="150"/>
    <frame tileid="414" duration="150"/>
    <frame tileid="631" duration="150"/>
    <frame tileid="638" duration="150"/>
    <frame tileid="645" duration="150"/>
    <frame tileid="652" duration="150"/>
    <frame tileid="659" duration="150"/>
    <frame tileid="666" duration="150"/>
    <frame tileid="883" duration="150"/>
    <frame tileid="890" duration="150"/>
    <frame tileid="897" duration="150"/>
    <frame tileid="904" duration="150"/>
    <frame tileid="911" duration="150"/>
    <frame tileid="918" duration="150"/>
   </animation>
  </tile>
  <tile id="128">
   <animation>
    <frame tileid="128" duration="150"/>
    <frame tileid="135" duration="150"/>
    <frame tileid="142" duration="150"/>
    <frame tileid="149" duration="150"/>
    <frame tileid="156" duration="150"/>
    <frame tileid="163" duration="150"/>
    <frame tileid="380" duration="150"/>
    <frame tileid="387" duration="150"/>
    <frame tileid="394" duration="150"/>
    <frame tileid="401" duration="150"/>
    <frame tileid="408" duration="150"/>
    <frame tileid="415" duration="150"/>
    <frame tileid="632" duration="150"/>
    <frame tileid="639" duration="150"/>
    <frame tileid="646" duration="150"/>
    <frame tileid="653" duration="150"/>
    <frame tileid="660" duration="150"/>
    <frame tileid="667" duration="150"/>
    <frame tileid="884" duration="150"/>
    <frame tileid="891" duration="150"/>
    <frame tileid="898" duration="150"/>
    <frame tileid="905" duration="150"/>
    <frame tileid="912" duration="150"/>
    <frame tileid="919" duration="150"/>
   </animation>
  </tile>
  <tile id="129">
   <animation>
    <frame tileid="129" duration="150"/>
    <frame tileid="136" duration="150"/>
    <frame tileid="143" duration="150"/>
    <frame tileid="150" duration="150"/>
    <frame tileid="157" duration="150"/>
    <frame tileid="164" duration="150"/>
    <frame tileid="381" duration="150"/>
    <frame tileid="388" duration="150"/>
    <frame tileid="395" duration="150"/>
    <frame tileid="402" duration="150"/>
    <frame tileid="409" duration="150"/>
    <frame tileid="416" duration="150"/>
    <frame tileid="633" duration="150"/>
    <frame tileid="640" duration="150"/>
    <frame tileid="647" duration="150"/>
    <frame tileid="654" duration="150"/>
    <frame tileid="661" duration="150"/>
    <frame tileid="668" duration="150"/>
    <frame tileid="885" duration="150"/>
    <frame tileid="892" duration="150"/>
    <frame tileid="899" duration="150"/>
    <frame tileid="906" duration="150"/>
    <frame tileid="913" duration="150"/>
    <frame tileid="920" duration="150"/>
   </animation>
  </tile>
  <tile id="130">
   <animation>
    <frame tileid="130" duration="150"/>
    <frame tileid="137" duration="150"/>
    <frame tileid="144" duration="150"/>
    <frame tileid="151" duration="150"/>
    <frame tileid="158" duration="150"/>
    <frame tileid="165" duration="150"/>
    <frame tileid="382" duration="150"/>
    <frame tileid="389" duration="150"/>
    <frame tileid="396" duration="150"/>
    <frame tileid="403" duration="150"/>
    <frame tileid="410" duration="150"/>
    <frame tileid="417" duration="150"/>
    <frame tileid="634" duration="150"/>
    <frame tileid="641" duration="150"/>
    <frame tileid="648" duration="150"/>
    <frame tileid="655" duration="150"/>
    <frame tileid="662" duration="150"/>
    <frame tileid="669" duration="150"/>
    <frame tileid="886" duration="150"/>
    <frame tileid="893" duration="150"/>
    <frame tileid="900" duration="150"/>
    <frame tileid="907" duration="150"/>
    <frame tileid="914" duration="150"/>
    <frame tileid="921" duration="150"/>
   </animation>
  </tile>
  <tile id="131">
   <animation>
    <frame tileid="131" duration="150"/>
    <frame tileid="138" duration="150"/>
    <frame tileid="145" duration="150"/>
    <frame tileid="152" duration="150"/>
    <frame tileid="159" duration="150"/>
    <frame tileid="166" duration="150"/>
    <frame tileid="383" duration="150"/>
    <frame tileid="390" duration="150"/>
    <frame tileid="397" duration="150"/>
    <frame tileid="404" duration="150"/>
    <frame tileid="411" duration="150"/>
    <frame tileid="418" duration="150"/>
    <frame tileid="635" duration="150"/>
    <frame tileid="642" duration="150"/>
    <frame tileid="649" duration="150"/>
    <frame tileid="656" duration="150"/>
    <frame tileid="663" duration="150"/>
    <frame tileid="670" duration="150"/>
    <frame tileid="887" duration="150"/>
    <frame tileid="894" duration="150"/>
    <frame tileid="901" duration="150"/>
    <frame tileid="908" duration="150"/>
    <frame tileid="915" duration="150"/>
    <frame tileid="922" duration="150"/>
   </animation>
  </tile>
  <tile id="132">
   <animation>
    <frame tileid="132" duration="150"/>
    <frame tileid="139" duration="150"/>
    <frame tileid="146" duration="150"/>
    <frame tileid="153" duration="150"/>
    <frame tileid="160" duration="150"/>
    <frame tileid="167" duration="150"/>
    <frame tileid="384" duration="150"/>
    <frame tileid="391" duration="150"/>
    <frame tileid="398" duration="150"/>
    <frame tileid="405" duration="150"/>
    <frame tileid="412" duration="150"/>
    <frame tileid="419" duration="150"/>
    <frame tileid="636" duration="150"/>
    <frame tileid="643" duration="150"/>
    <frame tileid="650" duration="150"/>
    <frame tileid="657" duration="150"/>
    <frame tileid="664" duration="150"/>
    <frame tileid="671" duration="150"/>
    <frame tileid="888" duration="150"/>
    <frame tileid="895" duration="150"/>
    <frame tileid="902" duration="150"/>
    <frame tileid="909" duration="150"/>
    <frame tileid="916" duration="150"/>
    <frame tileid="923" duration="150"/>
   </animation>
  </tile>
  <tile id="169">
   <animation>
    <frame tileid="169" duration="150"/>
    <frame tileid="176" duration="150"/>
    <frame tileid="183" duration="150"/>
    <frame tileid="190" duration="150"/>
    <frame tileid="197" duration="150"/>
    <frame tileid="204" duration="150"/>
    <frame tileid="421" duration="150"/>
    <frame tileid="428" duration="150"/>
    <frame tileid="435" duration="150"/>
    <frame tileid="442" duration="150"/>
    <frame tileid="449" duration="150"/>
    <frame tileid="456" duration="150"/>
    <frame tileid="673" duration="150"/>
    <frame tileid="680" duration="150"/>
    <frame tileid="687" duration="150"/>
    <frame tileid="694" duration="150"/>
    <frame tileid="701" duration="150"/>
    <frame tileid="708" duration="150"/>
    <frame tileid="925" duration="150"/>
    <frame tileid="932" duration="150"/>
    <frame tileid="939" duration="150"/>
    <frame tileid="946" duration="150"/>
    <frame tileid="953" duration="150"/>
    <frame tileid="960" duration="150"/>
   </animation>
  </tile>
  <tile id="170">
   <animation>
    <frame tileid="170" duration="150"/>
    <frame tileid="177" duration="150"/>
    <frame tileid="184" duration="150"/>
    <frame tileid="191" duration="150"/>
    <frame tileid="198" duration="150"/>
    <frame tileid="205" duration="150"/>
    <frame tileid="422" duration="150"/>
    <frame tileid="429" duration="150"/>
    <frame tileid="436" duration="150"/>
    <frame tileid="443" duration="150"/>
    <frame tileid="450" duration="150"/>
    <frame tileid="457" duration="150"/>
    <frame tileid="674" duration="150"/>
    <frame tileid="681" duration="150"/>
    <frame tileid="688" duration="150"/>
    <frame tileid="695" duration="150"/>
    <frame tileid="702" duration="150"/>
    <frame tileid="709" duration="150"/>
    <frame tileid="926" duration="150"/>
    <frame tileid="933" duration="150"/>
    <frame tileid="940" duration="150"/>
    <frame tileid="947" duration="150"/>
    <frame tileid="954" duration="150"/>
    <frame tileid="961" duration="150"/>
   </animation>
  </tile>
  <tile id="171">
   <animation>
    <frame tileid="171" duration="150"/>
    <frame tileid="178" duration="150"/>
    <frame tileid="185" duration="150"/>
    <frame tileid="192" duration="150"/>
    <frame tileid="199" duration="150"/>
    <frame tileid="206" duration="150"/>
    <frame tileid="423" duration="150"/>
    <frame tileid="430" duration="150"/>
    <frame tileid="437" duration="150"/>
    <frame tileid="444" duration="150"/>
    <frame tileid="451" duration="150"/>
    <frame tileid="458" duration="150"/>
    <frame tileid="675" duration="150"/>
    <frame tileid="682" duration="150"/>
    <frame tileid="689" duration="150"/>
    <frame tileid="696" duration="150"/>
    <frame tileid="703" duration="150"/>
    <frame tileid="710" duration="150"/>
    <frame tileid="927" duration="150"/>
    <frame tileid="934" duration="150"/>
    <frame tileid="941" duration="150"/>
    <frame tileid="948" duration="150"/>
    <frame tileid="955" duration="150"/>
    <frame tileid="962" duration="150"/>
   </animation>
  </tile>
  <tile id="172">
   <animation>
    <frame tileid="172" duration="150"/>
    <frame tileid="179" duration="150"/>
    <frame tileid="186" duration="150"/>
    <frame tileid="193" duration="150"/>
    <frame tileid="200" duration="150"/>
    <frame tileid="207" duration="150"/>
    <frame tileid="424" duration="150"/>
    <frame tileid="431" duration="150"/>
    <frame tileid="438" duration="150"/>
    <frame tileid="445" duration="150"/>
    <frame tileid="452" duration="150"/>
    <frame tileid="459" duration="150"/>
    <frame tileid="676" duration="150"/>
    <frame tileid="683" duration="150"/>
    <frame tileid="690" duration="150"/>
    <frame tileid="697" duration="150"/>
    <frame tileid="704" duration="150"/>
    <frame tileid="711" duration="150"/>
    <frame tileid="928" duration="150"/>
    <frame tileid="935" duration="150"/>
    <frame tileid="942" duration="150"/>
    <frame tileid="949" duration="150"/>
    <frame tileid="956" duration="150"/>
    <frame tileid="963" duration="150"/>
   </animation>
  </tile>
  <tile id="173">
   <animation>
    <frame tileid="173" duration="150"/>
    <frame tileid="180" duration="150"/>
    <frame tileid="187" duration="150"/>
    <frame tileid="194" duration="150"/>
    <frame tileid="201" duration="150"/>
    <frame tileid="208" duration="150"/>
    <frame tileid="425" duration="150"/>
    <frame tileid="432" duration="150"/>
    <frame tileid="439" duration="150"/>
    <frame tileid="446" duration="150"/>
    <frame tileid="453" duration="150"/>
    <frame tileid="460" duration="150"/>
    <frame tileid="677" duration="150"/>
    <frame tileid="684" duration="150"/>
    <frame tileid="691" duration="150"/>
    <frame tileid="698" duration="150"/>
    <frame tileid="705" duration="150"/>
    <frame tileid="712" duration="150"/>
    <frame tileid="929" duration="150"/>
    <frame tileid="936" duration="150"/>
    <frame tileid="943" duration="150"/>
    <frame tileid="950" duration="150"/>
    <frame tileid="957" duration="150"/>
    <frame tileid="964" duration="150"/>
   </animation>
  </tile>
  <tile id="213">
   <animation>
    <frame tileid="213" duration="150"/>
    <frame tileid="220" duration="150"/>
    <frame tileid="227" duration="150"/>
    <frame tileid="234" duration="150"/>
    <frame tileid="241" duration="150"/>
    <frame tileid="248" duration="150"/>
    <frame tileid="465" duration="150"/>
    <frame tileid="472" duration="150"/>
    <frame tileid="479" duration="150"/>
    <frame tileid="486" duration="150"/>
    <frame tileid="493" duration="150"/>
    <frame tileid="500" duration="150"/>
    <frame tileid="717" duration="150"/>
    <frame tileid="724" duration="150"/>
    <frame tileid="731" duration="150"/>
    <frame tileid="738" duration="150"/>
    <frame tileid="745" duration="150"/>
    <frame tileid="752" duration="150"/>
    <frame tileid="969" duration="150"/>
    <frame tileid="976" duration="150"/>
    <frame tileid="983" duration="150"/>
    <frame tileid="990" duration="150"/>
    <frame tileid="997" duration="150"/>
    <frame tileid="1004" duration="150"/>
   </animation>
  </tile>
 </tileset>
 <tileset firstgid="3889" name="Demon" tilewidth="16" tileheight="16" tilecount="500" columns="25">
  <image source="Demon.png" width="400" height="320"/>
  <tile id="1">
   <animation>
    <frame tileid="1" duration="150"/>
    <frame tileid="6" duration="150"/>
    <frame tileid="11" duration="150"/>
    <frame tileid="16" duration="150"/>
    <frame tileid="21" duration="150"/>
    <frame tileid="126" duration="150"/>
    <frame tileid="131" duration="150"/>
    <frame tileid="136" duration="150"/>
    <frame tileid="141" duration="150"/>
    <frame tileid="146" duration="150"/>
    <frame tileid="251" duration="150"/>
    <frame tileid="256" duration="150"/>
    <frame tileid="261" duration="150"/>
    <frame tileid="266" duration="150"/>
    <frame tileid="271" duration="150"/>
    <frame tileid="376" duration="150"/>
    <frame tileid="381" duration="150"/>
    <frame tileid="386" duration="150"/>
    <frame tileid="418" duration="150"/>
    <frame tileid="418" duration="150"/>
    <frame tileid="418" duration="150"/>
    <frame tileid="418" duration="150"/>
    <frame tileid="418" duration="150"/>
    <frame tileid="418" duration="150"/>
   </animation>
  </tile>
  <tile id="2">
   <animation>
    <frame tileid="2" duration="150"/>
    <frame tileid="7" duration="150"/>
    <frame tileid="12" duration="150"/>
    <frame tileid="17" duration="150"/>
    <frame tileid="22" duration="150"/>
    <frame tileid="127" duration="150"/>
    <frame tileid="132" duration="150"/>
    <frame tileid="137" duration="150"/>
    <frame tileid="142" duration="150"/>
    <frame tileid="147" duration="150"/>
    <frame tileid="252" duration="150"/>
    <frame tileid="257" duration="150"/>
    <frame tileid="262" duration="150"/>
    <frame tileid="267" duration="150"/>
    <frame tileid="272" duration="150"/>
    <frame tileid="377" duration="150"/>
    <frame tileid="382" duration="150"/>
    <frame tileid="387" duration="150"/>
    <frame tileid="419" duration="150"/>
    <frame tileid="419" duration="150"/>
    <frame tileid="419" duration="150"/>
    <frame tileid="419" duration="150"/>
    <frame tileid="419" duration="150"/>
    <frame tileid="421" duration="150"/>
   </animation>
  </tile>
  <tile id="3">
   <animation>
    <frame tileid="3" duration="150"/>
    <frame tileid="8" duration="150"/>
    <frame tileid="13" duration="150"/>
    <frame tileid="18" duration="150"/>
    <frame tileid="23" duration="150"/>
    <frame tileid="128" duration="150"/>
    <frame tileid="133" duration="150"/>
    <frame tileid="138" duration="150"/>
    <frame tileid="143" duration="150"/>
    <frame tileid="148" duration="150"/>
    <frame tileid="253" duration="150"/>
    <frame tileid="258" duration="150"/>
    <frame tileid="263" duration="150"/>
    <frame tileid="268" duration="150"/>
    <frame tileid="273" duration="150"/>
    <frame tileid="378" duration="150"/>
    <frame tileid="383" duration="150"/>
    <frame tileid="388" duration="150"/>
    <frame tileid="421" duration="150"/>
    <frame tileid="421" duration="150"/>
    <frame tileid="421" duration="150"/>
    <frame tileid="421" duration="150"/>
    <frame tileid="421" duration="150"/>
    <frame tileid="421" duration="150"/>
   </animation>
  </tile>
  <tile id="26">
   <animation>
    <frame tileid="26" duration="150"/>
    <frame tileid="31" duration="150"/>
    <frame tileid="36" duration="150"/>
    <frame tileid="41" duration="150"/>
    <frame tileid="46" duration="150"/>
    <frame tileid="151" duration="150"/>
    <frame tileid="156" duration="150"/>
    <frame tileid="161" duration="150"/>
    <frame tileid="166" duration="150"/>
    <frame tileid="171" duration="150"/>
    <frame tileid="276" duration="150"/>
    <frame tileid="281" duration="150"/>
    <frame tileid="286" duration="150"/>
    <frame tileid="291" duration="150"/>
    <frame tileid="296" duration="150"/>
    <frame tileid="401" duration="150"/>
    <frame tileid="406" duration="150"/>
    <frame tileid="411" duration="150"/>
    <frame tileid="397" duration="150"/>
    <frame tileid="397" duration="150"/>
    <frame tileid="397" duration="150"/>
    <frame tileid="397" duration="150"/>
    <frame tileid="397" duration="150"/>
    <frame tileid="397" duration="150"/>
   </animation>
  </tile>
  <tile id="27">
   <animation>
    <frame tileid="27" duration="150"/>
    <frame tileid="32" duration="150"/>
    <frame tileid="37" duration="150"/>
    <frame tileid="42" duration="150"/>
    <frame tileid="47" duration="150"/>
    <frame tileid="152" duration="150"/>
    <frame tileid="157" duration="150"/>
    <frame tileid="162" duration="150"/>
    <frame tileid="167" duration="150"/>
    <frame tileid="172" duration="150"/>
    <frame tileid="277" duration="150"/>
    <frame tileid="282" duration="150"/>
    <frame tileid="287" duration="150"/>
    <frame tileid="292" duration="150"/>
    <frame tileid="297" duration="150"/>
    <frame tileid="402" duration="150"/>
    <frame tileid="407" duration="150"/>
    <frame tileid="412" duration="150"/>
    <frame tileid="396" duration="150"/>
    <frame tileid="396" duration="150"/>
    <frame tileid="396" duration="150"/>
    <frame tileid="396" duration="150"/>
    <frame tileid="396" duration="150"/>
    <frame tileid="396" duration="150"/>
   </animation>
  </tile>
  <tile id="28">
   <animation>
    <frame tileid="28" duration="150"/>
    <frame tileid="33" duration="150"/>
    <frame tileid="38" duration="150"/>
    <frame tileid="43" duration="150"/>
    <frame tileid="48" duration="150"/>
    <frame tileid="153" duration="150"/>
    <frame tileid="158" duration="150"/>
    <frame tileid="163" duration="150"/>
    <frame tileid="168" duration="150"/>
    <frame tileid="173" duration="150"/>
    <frame tileid="278" duration="150"/>
    <frame tileid="283" duration="150"/>
    <frame tileid="288" duration="150"/>
    <frame tileid="293" duration="150"/>
    <frame tileid="298" duration="150"/>
    <frame tileid="403" duration="150"/>
    <frame tileid="408" duration="150"/>
    <frame tileid="413" duration="150"/>
    <frame tileid="421" duration="150"/>
    <frame tileid="421" duration="150"/>
    <frame tileid="421" duration="150"/>
    <frame tileid="421" duration="150"/>
    <frame tileid="421" duration="150"/>
    <frame tileid="421" duration="150"/>
   </animation>
  </tile>
  <tile id="50">
   <animation>
    <frame tileid="50" duration="150"/>
    <frame tileid="55" duration="150"/>
    <frame tileid="60" duration="150"/>
    <frame tileid="65" duration="150"/>
    <frame tileid="70" duration="150"/>
    <frame tileid="175" duration="150"/>
    <frame tileid="180" duration="150"/>
    <frame tileid="185" duration="150"/>
    <frame tileid="190" duration="150"/>
    <frame tileid="195" duration="150"/>
    <frame tileid="300" duration="150"/>
    <frame tileid="305" duration="150"/>
    <frame tileid="310" duration="150"/>
    <frame tileid="315" duration="150"/>
    <frame tileid="320" duration="150"/>
    <frame tileid="425" duration="150"/>
    <frame tileid="430" duration="150"/>
    <frame tileid="435" duration="150"/>
    <frame tileid="421" duration="150"/>
    <frame tileid="421" duration="150"/>
    <frame tileid="421" duration="150"/>
    <frame tileid="421" duration="150"/>
    <frame tileid="421" duration="150"/>
    <frame tileid="421" duration="150"/>
   </animation>
  </tile>
  <tile id="51">
   <animation>
    <frame tileid="51" duration="150"/>
    <frame tileid="56" duration="150"/>
    <frame tileid="61" duration="150"/>
    <frame tileid="66" duration="150"/>
    <frame tileid="71" duration="150"/>
    <frame tileid="176" duration="150"/>
    <frame tileid="181" duration="150"/>
    <frame tileid="186" duration="150"/>
    <frame tileid="191" duration="150"/>
    <frame tileid="196" duration="150"/>
    <frame tileid="301" duration="150"/>
    <frame tileid="306" duration="150"/>
    <frame tileid="311" duration="150"/>
    <frame tileid="316" duration="150"/>
    <frame tileid="321" duration="150"/>
    <frame tileid="426" duration="150"/>
    <frame tileid="431" duration="150"/>
    <frame tileid="436" duration="150"/>
    <frame tileid="421" duration="150"/>
    <frame tileid="421" duration="150"/>
    <frame tileid="421" duration="150"/>
    <frame tileid="421" duration="150"/>
    <frame tileid="421" duration="150"/>
    <frame tileid="421" duration="150"/>
   </animation>
  </tile>
  <tile id="52">
   <animation>
    <frame tileid="52" duration="150"/>
    <frame tileid="57" duration="150"/>
    <frame tileid="62" duration="150"/>
    <frame tileid="67" duration="150"/>
    <frame tileid="72" duration="150"/>
    <frame tileid="177" duration="150"/>
    <frame tileid="182" duration="150"/>
    <frame tileid="187" duration="150"/>
    <frame tileid="192" duration="150"/>
    <frame tileid="197" duration="150"/>
    <frame tileid="302" duration="150"/>
    <frame tileid="307" duration="150"/>
    <frame tileid="312" duration="150"/>
    <frame tileid="317" duration="150"/>
    <frame tileid="322" duration="150"/>
    <frame tileid="427" duration="150"/>
    <frame tileid="432" duration="150"/>
    <frame tileid="437" duration="150"/>
    <frame tileid="420" duration="150"/>
    <frame tileid="420" duration="150"/>
    <frame tileid="420" duration="150"/>
    <frame tileid="420" duration="150"/>
    <frame tileid="420" duration="150"/>
    <frame tileid="420" duration="150"/>
   </animation>
  </tile>
  <tile id="53">
   <animation>
    <frame tileid="53" duration="150"/>
    <frame tileid="58" duration="150"/>
    <frame tileid="63" duration="150"/>
    <frame tileid="68" duration="150"/>
    <frame tileid="73" duration="150"/>
    <frame tileid="178" duration="150"/>
    <frame tileid="183" duration="150"/>
    <frame tileid="188" duration="150"/>
    <frame tileid="193" duration="150"/>
    <frame tileid="198" duration="150"/>
    <frame tileid="303" duration="150"/>
    <frame tileid="308" duration="150"/>
    <frame tileid="313" duration="150"/>
    <frame tileid="318" duration="150"/>
    <frame tileid="323" duration="150"/>
    <frame tileid="428" duration="150"/>
    <frame tileid="433" duration="150"/>
    <frame tileid="438" duration="150"/>
    <frame tileid="446" duration="150"/>
    <frame tileid="446" duration="150"/>
    <frame tileid="446" duration="150"/>
    <frame tileid="446" duration="150"/>
    <frame tileid="446" duration="150"/>
    <frame tileid="446" duration="150"/>
   </animation>
  </tile>
  <tile id="54">
   <animation>
    <frame tileid="54" duration="150"/>
    <frame tileid="59" duration="150"/>
    <frame tileid="64" duration="150"/>
    <frame tileid="69" duration="150"/>
    <frame tileid="74" duration="150"/>
    <frame tileid="179" duration="150"/>
    <frame tileid="184" duration="150"/>
    <frame tileid="189" duration="150"/>
    <frame tileid="194" duration="150"/>
    <frame tileid="199" duration="150"/>
    <frame tileid="304" duration="150"/>
    <frame tileid="309" duration="150"/>
    <frame tileid="314" duration="150"/>
    <frame tileid="319" duration="150"/>
    <frame tileid="324" duration="150"/>
    <frame tileid="429" duration="150"/>
    <frame tileid="434" duration="150"/>
    <frame tileid="439" duration="150"/>
    <frame tileid="396" duration="150"/>
    <frame tileid="396" duration="150"/>
    <frame tileid="396" duration="150"/>
    <frame tileid="396" duration="150"/>
    <frame tileid="396" duration="150"/>
    <frame tileid="396" duration="150"/>
   </animation>
  </tile>
  <tile id="75">
   <animation>
    <frame tileid="75" duration="150"/>
    <frame tileid="80" duration="150"/>
    <frame tileid="85" duration="150"/>
    <frame tileid="90" duration="150"/>
    <frame tileid="95" duration="150"/>
    <frame tileid="200" duration="150"/>
    <frame tileid="205" duration="150"/>
    <frame tileid="210" duration="150"/>
    <frame tileid="215" duration="150"/>
    <frame tileid="220" duration="150"/>
    <frame tileid="325" duration="150"/>
    <frame tileid="330" duration="150"/>
    <frame tileid="335" duration="150"/>
    <frame tileid="340" duration="150"/>
    <frame tileid="345" duration="150"/>
    <frame tileid="450" duration="150"/>
    <frame tileid="455" duration="150"/>
    <frame tileid="460" duration="150"/>
    <frame tileid="447" duration="150"/>
    <frame tileid="447" duration="150"/>
    <frame tileid="447" duration="150"/>
    <frame tileid="447" duration="150"/>
    <frame tileid="447" duration="150"/>
    <frame tileid="447" duration="150"/>
   </animation>
  </tile>
  <tile id="76">
   <animation>
    <frame tileid="76" duration="150"/>
    <frame tileid="81" duration="150"/>
    <frame tileid="86" duration="150"/>
    <frame tileid="91" duration="150"/>
    <frame tileid="96" duration="150"/>
    <frame tileid="201" duration="150"/>
    <frame tileid="206" duration="150"/>
    <frame tileid="211" duration="150"/>
    <frame tileid="216" duration="150"/>
    <frame tileid="221" duration="150"/>
    <frame tileid="326" duration="150"/>
    <frame tileid="331" duration="150"/>
    <frame tileid="336" duration="150"/>
    <frame tileid="341" duration="150"/>
    <frame tileid="346" duration="150"/>
    <frame tileid="451" duration="150"/>
    <frame tileid="456" duration="150"/>
    <frame tileid="461" duration="150"/>
    <frame tileid="398" duration="150"/>
    <frame tileid="398" duration="150"/>
    <frame tileid="398" duration="150"/>
    <frame tileid="398" duration="150"/>
    <frame tileid="398" duration="150"/>
    <frame tileid="398" duration="150"/>
   </animation>
  </tile>
  <tile id="77">
   <animation>
    <frame tileid="77" duration="150"/>
    <frame tileid="82" duration="150"/>
    <frame tileid="87" duration="150"/>
    <frame tileid="92" duration="150"/>
    <frame tileid="97" duration="150"/>
    <frame tileid="202" duration="150"/>
    <frame tileid="207" duration="150"/>
    <frame tileid="212" duration="150"/>
    <frame tileid="217" duration="150"/>
    <frame tileid="222" duration="150"/>
    <frame tileid="327" duration="150"/>
    <frame tileid="332" duration="150"/>
    <frame tileid="337" duration="150"/>
    <frame tileid="342" duration="150"/>
    <frame tileid="347" duration="150"/>
    <frame tileid="452" duration="150"/>
    <frame tileid="457" duration="150"/>
    <frame tileid="462" duration="150"/>
    <frame tileid="420" duration="150"/>
    <frame tileid="420" duration="150"/>
    <frame tileid="420" duration="150"/>
    <frame tileid="420" duration="150"/>
    <frame tileid="420" duration="150"/>
    <frame tileid="420" duration="150"/>
   </animation>
  </tile>
  <tile id="78">
   <animation>
    <frame tileid="78" duration="150"/>
    <frame tileid="83" duration="150"/>
    <frame tileid="88" duration="150"/>
    <frame tileid="93" duration="150"/>
    <frame tileid="98" duration="150"/>
    <frame tileid="203" duration="150"/>
    <frame tileid="208" duration="150"/>
    <frame tileid="213" duration="150"/>
    <frame tileid="218" duration="150"/>
    <frame tileid="223" duration="150"/>
    <frame tileid="328" duration="150"/>
    <frame tileid="333" duration="150"/>
    <frame tileid="338" duration="150"/>
    <frame tileid="343" duration="150"/>
    <frame tileid="348" duration="150"/>
    <frame tileid="453" duration="150"/>
    <frame tileid="458" duration="150"/>
    <frame tileid="463" duration="150"/>
    <frame tileid="422" duration="150"/>
    <frame tileid="422" duration="150"/>
    <frame tileid="422" duration="150"/>
    <frame tileid="422" duration="150"/>
    <frame tileid="422" duration="150"/>
    <frame tileid="422" duration="150"/>
   </animation>
  </tile>
  <tile id="101">
   <animation>
    <frame tileid="101" duration="150"/>
    <frame tileid="106" duration="150"/>
    <frame tileid="111" duration="150"/>
    <frame tileid="116" duration="150"/>
    <frame tileid="121" duration="150"/>
    <frame tileid="226" duration="150"/>
    <frame tileid="231" duration="150"/>
    <frame tileid="236" duration="150"/>
    <frame tileid="241" duration="150"/>
    <frame tileid="246" duration="150"/>
    <frame tileid="351" duration="150"/>
    <frame tileid="356" duration="150"/>
    <frame tileid="361" duration="150"/>
    <frame tileid="366" duration="150"/>
    <frame tileid="371" duration="150"/>
    <frame tileid="476" duration="150"/>
    <frame tileid="481" duration="150"/>
    <frame tileid="486" duration="150"/>
    <frame tileid="397" duration="150"/>
    <frame tileid="397" duration="150"/>
    <frame tileid="397" duration="150"/>
    <frame tileid="397" duration="150"/>
    <frame tileid="397" duration="150"/>
    <frame tileid="397" duration="150"/>
   </animation>
  </tile>
  <tile id="102">
   <animation>
    <frame tileid="102" duration="150"/>
    <frame tileid="107" duration="150"/>
    <frame tileid="112" duration="150"/>
    <frame tileid="117" duration="150"/>
    <frame tileid="122" duration="150"/>
    <frame tileid="227" duration="150"/>
    <frame tileid="232" duration="150"/>
    <frame tileid="237" duration="150"/>
    <frame tileid="242" duration="150"/>
    <frame tileid="247" duration="150"/>
    <frame tileid="352" duration="150"/>
    <frame tileid="357" duration="150"/>
    <frame tileid="362" duration="150"/>
    <frame tileid="367" duration="150"/>
    <frame tileid="372" duration="150"/>
    <frame tileid="477" duration="150"/>
    <frame tileid="482" duration="150"/>
    <frame tileid="487" duration="150"/>
    <frame tileid="395" duration="150"/>
    <frame tileid="420" duration="150"/>
    <frame tileid="420" duration="150"/>
    <frame tileid="420" duration="150"/>
    <frame tileid="420" duration="150"/>
    <frame tileid="420" duration="150"/>
   </animation>
  </tile>
 </tileset>
 <tileset firstgid="4389" name="Demon_shadow" tilewidth="16" tileheight="16" tilecount="72" columns="12">
  <image source="Demon_shadow.png" width="192" height="96"/>
  <tile id="0">
   <animation>
    <frame tileid="0" duration="150"/>
    <frame tileid="4" duration="150"/>
    <frame tileid="8" duration="150"/>
    <frame tileid="24" duration="150"/>
    <frame tileid="28" duration="150"/>
    <frame tileid="32" duration="150"/>
    <frame tileid="32" duration="150"/>
    <frame tileid="32" duration="150"/>
    <frame tileid="32" duration="150"/>
    <frame tileid="32" duration="150"/>
    <frame tileid="32" duration="150"/>
    <frame tileid="32" duration="150"/>
    <frame tileid="32" duration="150"/>
    <frame tileid="32" duration="150"/>
    <frame tileid="32" duration="150"/>
    <frame tileid="48" duration="150"/>
    <frame tileid="52" duration="150"/>
    <frame tileid="56" duration="150"/>
    <frame tileid="8" duration="150"/>
    <frame tileid="8" duration="150"/>
    <frame tileid="8" duration="150"/>
    <frame tileid="8" duration="150"/>
    <frame tileid="8" duration="150"/>
    <frame tileid="8" duration="150"/>
   </animation>
  </tile>
  <tile id="1">
   <animation>
    <frame tileid="1" duration="150"/>
    <frame tileid="5" duration="150"/>
    <frame tileid="9" duration="150"/>
    <frame tileid="25" duration="150"/>
    <frame tileid="29" duration="150"/>
    <frame tileid="33" duration="150"/>
    <frame tileid="33" duration="150"/>
    <frame tileid="33" duration="150"/>
    <frame tileid="33" duration="150"/>
    <frame tileid="33" duration="150"/>
    <frame tileid="33" duration="150"/>
    <frame tileid="33" duration="150"/>
    <frame tileid="33" duration="150"/>
    <frame tileid="33" duration="150"/>
    <frame tileid="33" duration="150"/>
    <frame tileid="49" duration="150"/>
    <frame tileid="53" duration="150"/>
    <frame tileid="57" duration="150"/>
    <frame tileid="8" duration="150"/>
    <frame tileid="8" duration="150"/>
    <frame tileid="8" duration="150"/>
    <frame tileid="8" duration="150"/>
    <frame tileid="8" duration="150"/>
    <frame tileid="8" duration="150"/>
   </animation>
  </tile>
  <tile id="2">
   <animation>
    <frame tileid="2" duration="150"/>
    <frame tileid="6" duration="150"/>
    <frame tileid="10" duration="150"/>
    <frame tileid="26" duration="150"/>
    <frame tileid="30" duration="150"/>
    <frame tileid="34" duration="150"/>
    <frame tileid="34" duration="150"/>
    <frame tileid="34" duration="150"/>
    <frame tileid="34" duration="150"/>
    <frame tileid="34" duration="150"/>
    <frame tileid="34" duration="150"/>
    <frame tileid="34" duration="150"/>
    <frame tileid="34" duration="150"/>
    <frame tileid="34" duration="150"/>
    <frame tileid="34" duration="150"/>
    <frame tileid="50" duration="150"/>
    <frame tileid="54" duration="150"/>
    <frame tileid="56" duration="150"/>
    <frame tileid="8" duration="150"/>
    <frame tileid="8" duration="150"/>
    <frame tileid="8" duration="150"/>
    <frame tileid="8" duration="150"/>
    <frame tileid="8" duration="150"/>
    <frame tileid="8" duration="150"/>
   </animation>
  </tile>
  <tile id="3">
   <animation>
    <frame tileid="3" duration="150"/>
    <frame tileid="7" duration="150"/>
    <frame tileid="11" duration="150"/>
    <frame tileid="27" duration="150"/>
    <frame tileid="31" duration="150"/>
    <frame tileid="35" duration="150"/>
    <frame tileid="35" duration="150"/>
    <frame tileid="35" duration="150"/>
    <frame tileid="35" duration="150"/>
    <frame tileid="35" duration="150"/>
    <frame tileid="35" duration="150"/>
    <frame tileid="35" duration="150"/>
    <frame tileid="35" duration="150"/>
    <frame tileid="35" duration="150"/>
    <frame tileid="35" duration="150"/>
    <frame tileid="51" duration="150"/>
    <frame tileid="55" duration="150"/>
    <frame tileid="59" duration="150"/>
    <frame tileid="8" duration="150"/>
    <frame tileid="8" duration="150"/>
    <frame tileid="8" duration="150"/>
    <frame tileid="8" duration="150"/>
    <frame tileid="8" duration="150"/>
    <frame tileid="8" duration="150"/>
   </animation>
  </tile>
  <tile id="12">
   <animation>
    <frame tileid="12" duration="150"/>
    <frame tileid="16" duration="150"/>
    <frame tileid="20" duration="150"/>
    <frame tileid="36" duration="150"/>
    <frame tileid="40" duration="150"/>
    <frame tileid="44" duration="150"/>
    <frame tileid="44" duration="150"/>
    <frame tileid="44" duration="150"/>
    <frame tileid="44" duration="150"/>
    <frame tileid="44" duration="150"/>
    <frame tileid="44" duration="150"/>
    <frame tileid="44" duration="150"/>
    <frame tileid="44" duration="150"/>
    <frame tileid="44" duration="150"/>
    <frame tileid="44" duration="150"/>
    <frame tileid="60" duration="150"/>
    <frame tileid="64" duration="150"/>
    <frame tileid="68" duration="150"/>
    <frame tileid="8" duration="150"/>
    <frame tileid="8" duration="150"/>
    <frame tileid="8" duration="150"/>
    <frame tileid="8" duration="150"/>
    <frame tileid="8" duration="150"/>
    <frame tileid="8" duration="150"/>
   </animation>
  </tile>
  <tile id="13">
   <animation>
    <frame tileid="13" duration="150"/>
    <frame tileid="17" duration="150"/>
    <frame tileid="21" duration="150"/>
    <frame tileid="37" duration="150"/>
    <frame tileid="41" duration="150"/>
    <frame tileid="45" duration="150"/>
    <frame tileid="45" duration="150"/>
    <frame tileid="45" duration="150"/>
    <frame tileid="45" duration="150"/>
    <frame tileid="45" duration="150"/>
    <frame tileid="45" duration="150"/>
    <frame tileid="45" duration="150"/>
    <frame tileid="45" duration="150"/>
    <frame tileid="45" duration="150"/>
    <frame tileid="45" duration="150"/>
    <frame tileid="61" duration="150"/>
    <frame tileid="65" duration="150"/>
    <frame tileid="68" duration="150"/>
    <frame tileid="8" duration="150"/>
    <frame tileid="8" duration="150"/>
    <frame tileid="8" duration="150"/>
    <frame tileid="8" duration="150"/>
    <frame tileid="8" duration="150"/>
    <frame tileid="8" duration="150"/>
   </animation>
  </tile>
  <tile id="14">
   <animation>
    <frame tileid="14" duration="150"/>
    <frame tileid="18" duration="150"/>
    <frame tileid="22" duration="150"/>
    <frame tileid="38" duration="150"/>
    <frame tileid="42" duration="150"/>
    <frame tileid="46" duration="150"/>
    <frame tileid="46" duration="150"/>
    <frame tileid="46" duration="150"/>
    <frame tileid="46" duration="150"/>
    <frame tileid="46" duration="150"/>
    <frame tileid="46" duration="150"/>
    <frame tileid="46" duration="150"/>
    <frame tileid="46" duration="150"/>
    <frame tileid="46" duration="150"/>
    <frame tileid="46" duration="150"/>
    <frame tileid="62" duration="150"/>
    <frame tileid="66" duration="150"/>
    <frame tileid="69" duration="150"/>
    <frame tileid="8" duration="150"/>
    <frame tileid="8" duration="150"/>
    <frame tileid="8" duration="150"/>
    <frame tileid="8" duration="150"/>
    <frame tileid="8" duration="150"/>
    <frame tileid="8" duration="150"/>
   </animation>
  </tile>
  <tile id="15">
   <animation>
    <frame tileid="15" duration="150"/>
    <frame tileid="19" duration="150"/>
    <frame tileid="23" duration="150"/>
    <frame tileid="39" duration="150"/>
    <frame tileid="43" duration="150"/>
    <frame tileid="47" duration="150"/>
    <frame tileid="47" duration="150"/>
    <frame tileid="47" duration="150"/>
    <frame tileid="47" duration="150"/>
    <frame tileid="47" duration="150"/>
    <frame tileid="47" duration="150"/>
    <frame tileid="47" duration="150"/>
    <frame tileid="47" duration="150"/>
    <frame tileid="47" duration="150"/>
    <frame tileid="47" duration="150"/>
    <frame tileid="63" duration="150"/>
    <frame tileid="67" duration="150"/>
    <frame tileid="69" duration="150"/>
    <frame tileid="8" duration="150"/>
    <frame tileid="8" duration="150"/>
    <frame tileid="8" duration="150"/>
    <frame tileid="8" duration="150"/>
    <frame tileid="8" duration="150"/>
    <frame tileid="8" duration="150"/>
   </animation>
  </tile>
 </tileset>
 <tileset firstgid="4461" name="Reader1" tilewidth="16" tileheight="16" tilecount="108" columns="36">
  <image source="Reader1.png" width="576" height="48"/>
  <tile id="0">
   <animation>
    <frame tileid="0" duration="150"/>
    <frame tileid="2" duration="150"/>
    <frame tileid="4" duration="150"/>
    <frame tileid="6" duration="150"/>
    <frame tileid="8" duration="150"/>
    <frame tileid="10" duration="150"/>
    <frame tileid="12" duration="150"/>
    <frame tileid="14" duration="150"/>
    <frame tileid="16" duration="150"/>
    <frame tileid="18" duration="150"/>
    <frame tileid="20" duration="150"/>
    <frame tileid="22" duration="150"/>
    <frame tileid="24" duration="150"/>
    <frame tileid="26" duration="150"/>
    <frame tileid="28" duration="150"/>
    <frame tileid="30" duration="150"/>
    <frame tileid="32" duration="150"/>
    <frame tileid="34" duration="150"/>
   </animation>
  </tile>
  <tile id="1">
   <animation>
    <frame tileid="1" duration="150"/>
    <frame tileid="3" duration="150"/>
    <frame tileid="5" duration="150"/>
    <frame tileid="7" duration="150"/>
    <frame tileid="9" duration="150"/>
    <frame tileid="11" duration="150"/>
    <frame tileid="13" duration="150"/>
    <frame tileid="15" duration="150"/>
    <frame tileid="17" duration="150"/>
    <frame tileid="19" duration="150"/>
    <frame tileid="21" duration="150"/>
    <frame tileid="23" duration="150"/>
    <frame tileid="25" duration="150"/>
    <frame tileid="27" duration="150"/>
    <frame tileid="29" duration="150"/>
    <frame tileid="31" duration="150"/>
    <frame tileid="33" duration="150"/>
    <frame tileid="35" duration="150"/>
   </animation>
  </tile>
  <tile id="36">
   <animation>
    <frame tileid="36" duration="150"/>
    <frame tileid="38" duration="150"/>
    <frame tileid="40" duration="150"/>
    <frame tileid="42" duration="150"/>
    <frame tileid="44" duration="150"/>
    <frame tileid="46" duration="150"/>
    <frame tileid="48" duration="150"/>
    <frame tileid="50" duration="150"/>
    <frame tileid="52" duration="150"/>
    <frame tileid="54" duration="150"/>
    <frame tileid="56" duration="150"/>
    <frame tileid="58" duration="150"/>
    <frame tileid="60" duration="150"/>
    <frame tileid="62" duration="150"/>
    <frame tileid="64" duration="150"/>
    <frame tileid="66" duration="150"/>
    <frame tileid="68" duration="150"/>
    <frame tileid="70" duration="150"/>
   </animation>
  </tile>
  <tile id="37">
   <animation>
    <frame tileid="37" duration="150"/>
    <frame tileid="39" duration="150"/>
    <frame tileid="41" duration="150"/>
    <frame tileid="43" duration="150"/>
    <frame tileid="45" duration="150"/>
    <frame tileid="47" duration="150"/>
    <frame tileid="49" duration="150"/>
    <frame tileid="51" duration="150"/>
    <frame tileid="53" duration="150"/>
    <frame tileid="55" duration="150"/>
    <frame tileid="57" duration="150"/>
    <frame tileid="59" duration="150"/>
    <frame tileid="61" duration="150"/>
    <frame tileid="63" duration="150"/>
    <frame tileid="65" duration="150"/>
    <frame tileid="67" duration="150"/>
    <frame tileid="69" duration="150"/>
    <frame tileid="71" duration="150"/>
   </animation>
  </tile>
  <tile id="72">
   <animation>
    <frame tileid="72" duration="150"/>
    <frame tileid="74" duration="150"/>
    <frame tileid="76" duration="150"/>
    <frame tileid="78" duration="150"/>
    <frame tileid="80" duration="150"/>
    <frame tileid="82" duration="150"/>
    <frame tileid="84" duration="150"/>
    <frame tileid="86" duration="150"/>
    <frame tileid="88" duration="150"/>
    <frame tileid="90" duration="150"/>
    <frame tileid="92" duration="150"/>
    <frame tileid="94" duration="150"/>
    <frame tileid="96" duration="150"/>
    <frame tileid="98" duration="150"/>
    <frame tileid="100" duration="150"/>
    <frame tileid="102" duration="150"/>
    <frame tileid="104" duration="150"/>
    <frame tileid="106" duration="150"/>
   </animation>
  </tile>
  <tile id="73">
   <animation>
    <frame tileid="73" duration="150"/>
    <frame tileid="75" duration="150"/>
    <frame tileid="77" duration="150"/>
    <frame tileid="79" duration="150"/>
    <frame tileid="81" duration="150"/>
    <frame tileid="83" duration="150"/>
    <frame tileid="85" duration="150"/>
    <frame tileid="87" duration="150"/>
    <frame tileid="89" duration="150"/>
    <frame tileid="91" duration="150"/>
    <frame tileid="93" duration="150"/>
    <frame tileid="95" duration="150"/>
    <frame tileid="97" duration="150"/>
    <frame tileid="99" duration="150"/>
    <frame tileid="101" duration="150"/>
    <frame tileid="103" duration="150"/>
    <frame tileid="105" duration="150"/>
    <frame tileid="107" duration="150"/>
   </animation>
  </tile>
 </tileset>
 <tileset firstgid="4569" name="Reader1" tilewidth="16" tileheight="16" tilecount="108" columns="36">
  <image source="Reader1_fit2.png" width="576" height="48"/>
  <tile id="0">
   <animation>
    <frame tileid="0" duration="150"/>
    <frame tileid="2" duration="150"/>
    <frame tileid="4" duration="150"/>
    <frame tileid="6" duration="150"/>
    <frame tileid="8" duration="150"/>
    <frame tileid="10" duration="150"/>
    <frame tileid="12" duration="150"/>
    <frame tileid="14" duration="150"/>
    <frame tileid="16" duration="150"/>
    <frame tileid="18" duration="150"/>
    <frame tileid="20" duration="150"/>
    <frame tileid="22" duration="150"/>
    <frame tileid="24" duration="150"/>
    <frame tileid="26" duration="150"/>
    <frame tileid="28" duration="150"/>
    <frame tileid="30" duration="150"/>
    <frame tileid="32" duration="150"/>
    <frame tileid="34" duration="150"/>
   </animation>
  </tile>
  <tile id="1">
   <animation>
    <frame tileid="1" duration="150"/>
    <frame tileid="3" duration="150"/>
    <frame tileid="5" duration="150"/>
    <frame tileid="7" duration="150"/>
    <frame tileid="9" duration="150"/>
    <frame tileid="11" duration="150"/>
    <frame tileid="13" duration="150"/>
    <frame tileid="15" duration="150"/>
    <frame tileid="17" duration="150"/>
    <frame tileid="19" duration="150"/>
    <frame tileid="21" duration="150"/>
    <frame tileid="23" duration="150"/>
    <frame tileid="25" duration="150"/>
    <frame tileid="27" duration="150"/>
    <frame tileid="29" duration="150"/>
    <frame tileid="31" duration="150"/>
    <frame tileid="33" duration="150"/>
    <frame tileid="35" duration="150"/>
   </animation>
  </tile>
  <tile id="36">
   <animation>
    <frame tileid="36" duration="150"/>
    <frame tileid="38" duration="150"/>
    <frame tileid="40" duration="150"/>
    <frame tileid="42" duration="150"/>
    <frame tileid="44" duration="150"/>
    <frame tileid="46" duration="150"/>
    <frame tileid="48" duration="150"/>
    <frame tileid="50" duration="150"/>
    <frame tileid="52" duration="150"/>
    <frame tileid="54" duration="150"/>
    <frame tileid="56" duration="150"/>
    <frame tileid="58" duration="150"/>
    <frame tileid="60" duration="150"/>
    <frame tileid="62" duration="150"/>
    <frame tileid="64" duration="150"/>
    <frame tileid="66" duration="150"/>
    <frame tileid="68" duration="150"/>
    <frame tileid="70" duration="150"/>
   </animation>
  </tile>
  <tile id="37">
   <animation>
    <frame tileid="37" duration="150"/>
    <frame tileid="39" duration="150"/>
    <frame tileid="41" duration="150"/>
    <frame tileid="43" duration="150"/>
    <frame tileid="45" duration="150"/>
    <frame tileid="47" duration="150"/>
    <frame tileid="49" duration="150"/>
    <frame tileid="51" duration="150"/>
    <frame tileid="53" duration="150"/>
    <frame tileid="55" duration="150"/>
    <frame tileid="57" duration="150"/>
    <frame tileid="59" duration="150"/>
    <frame tileid="61" duration="150"/>
    <frame tileid="63" duration="150"/>
    <frame tileid="65" duration="150"/>
    <frame tileid="67" duration="150"/>
    <frame tileid="69" duration="150"/>
    <frame tileid="71" duration="150"/>
   </animation>
  </tile>
  <tile id="72">
   <animation>
    <frame tileid="72" duration="150"/>
    <frame tileid="74" duration="150"/>
    <frame tileid="76" duration="150"/>
    <frame tileid="78" duration="150"/>
    <frame tileid="80" duration="150"/>
    <frame tileid="82" duration="150"/>
    <frame tileid="84" duration="150"/>
    <frame tileid="86" duration="150"/>
    <frame tileid="88" duration="150"/>
    <frame tileid="90" duration="150"/>
    <frame tileid="92" duration="150"/>
    <frame tileid="94" duration="150"/>
    <frame tileid="96" duration="150"/>
    <frame tileid="98" duration="150"/>
    <frame tileid="100" duration="150"/>
    <frame tileid="102" duration="150"/>
    <frame tileid="104" duration="150"/>
    <frame tileid="106" duration="150"/>
   </animation>
  </tile>
  <tile id="73">
   <animation>
    <frame tileid="73" duration="150"/>
    <frame tileid="75" duration="150"/>
    <frame tileid="77" duration="150"/>
    <frame tileid="79" duration="150"/>
    <frame tileid="81" duration="150"/>
    <frame tileid="83" duration="150"/>
    <frame tileid="85" duration="150"/>
    <frame tileid="87" duration="150"/>
    <frame tileid="89" duration="150"/>
    <frame tileid="91" duration="150"/>
    <frame tileid="93" duration="150"/>
    <frame tileid="95" duration="150"/>
    <frame tileid="97" duration="150"/>
    <frame tileid="99" duration="150"/>
    <frame tileid="101" duration="150"/>
    <frame tileid="103" duration="150"/>
    <frame tileid="105" duration="150"/>
    <frame tileid="107" duration="150"/>
   </animation>
  </tile>
 </tileset>
 <tileset firstgid="4677" name="Reader1" tilewidth="16" tileheight="16" tilecount="108" columns="36">
  <image source="Reader1_fit3.png" width="576" height="48"/>
  <tile id="0">
   <animation>
    <frame tileid="0" duration="150"/>
    <frame tileid="2" duration="150"/>
    <frame tileid="4" duration="150"/>
    <frame tileid="6" duration="150"/>
    <frame tileid="8" duration="150"/>
    <frame tileid="10" duration="150"/>
    <frame tileid="12" duration="150"/>
    <frame tileid="14" duration="150"/>
    <frame tileid="16" duration="150"/>
    <frame tileid="18" duration="150"/>
    <frame tileid="20" duration="150"/>
    <frame tileid="22" duration="150"/>
    <frame tileid="24" duration="150"/>
    <frame tileid="26" duration="150"/>
    <frame tileid="28" duration="150"/>
    <frame tileid="30" duration="150"/>
    <frame tileid="32" duration="150"/>
    <frame tileid="34" duration="150"/>
   </animation>
  </tile>
  <tile id="1">
   <animation>
    <frame tileid="1" duration="150"/>
    <frame tileid="3" duration="150"/>
    <frame tileid="5" duration="150"/>
    <frame tileid="7" duration="150"/>
    <frame tileid="9" duration="150"/>
    <frame tileid="11" duration="150"/>
    <frame tileid="13" duration="150"/>
    <frame tileid="15" duration="150"/>
    <frame tileid="17" duration="150"/>
    <frame tileid="19" duration="150"/>
    <frame tileid="21" duration="150"/>
    <frame tileid="23" duration="150"/>
    <frame tileid="25" duration="150"/>
    <frame tileid="27" duration="150"/>
    <frame tileid="29" duration="150"/>
    <frame tileid="31" duration="150"/>
    <frame tileid="33" duration="150"/>
    <frame tileid="35" duration="150"/>
   </animation>
  </tile>
  <tile id="36">
   <animation>
    <frame tileid="36" duration="150"/>
    <frame tileid="38" duration="150"/>
    <frame tileid="40" duration="150"/>
    <frame tileid="42" duration="150"/>
    <frame tileid="44" duration="150"/>
    <frame tileid="46" duration="150"/>
    <frame tileid="48" duration="150"/>
    <frame tileid="50" duration="150"/>
    <frame tileid="52" duration="150"/>
    <frame tileid="54" duration="150"/>
    <frame tileid="56" duration="150"/>
    <frame tileid="58" duration="150"/>
    <frame tileid="60" duration="150"/>
    <frame tileid="62" duration="150"/>
    <frame tileid="64" duration="150"/>
    <frame tileid="66" duration="150"/>
    <frame tileid="68" duration="150"/>
    <frame tileid="70" duration="150"/>
   </animation>
  </tile>
  <tile id="37">
   <animation>
    <frame tileid="37" duration="150"/>
    <frame tileid="39" duration="150"/>
    <frame tileid="41" duration="150"/>
    <frame tileid="43" duration="150"/>
    <frame tileid="45" duration="150"/>
    <frame tileid="47" duration="150"/>
    <frame tileid="49" duration="150"/>
    <frame tileid="51" duration="150"/>
    <frame tileid="53" duration="150"/>
    <frame tileid="55" duration="150"/>
    <frame tileid="57" duration="150"/>
    <frame tileid="59" duration="150"/>
    <frame tileid="61" duration="150"/>
    <frame tileid="63" duration="150"/>
    <frame tileid="65" duration="150"/>
    <frame tileid="67" duration="150"/>
    <frame tileid="69" duration="150"/>
    <frame tileid="71" duration="150"/>
   </animation>
  </tile>
  <tile id="72">
   <animation>
    <frame tileid="72" duration="150"/>
    <frame tileid="74" duration="150"/>
    <frame tileid="76" duration="150"/>
    <frame tileid="78" duration="150"/>
    <frame tileid="80" duration="150"/>
    <frame tileid="82" duration="150"/>
    <frame tileid="84" duration="150"/>
    <frame tileid="86" duration="150"/>
    <frame tileid="88" duration="150"/>
    <frame tileid="90" duration="150"/>
    <frame tileid="92" duration="150"/>
    <frame tileid="94" duration="150"/>
    <frame tileid="96" duration="150"/>
    <frame tileid="98" duration="150"/>
    <frame tileid="100" duration="150"/>
    <frame tileid="102" duration="150"/>
    <frame tileid="104" duration="150"/>
    <frame tileid="106" duration="150"/>
   </animation>
  </tile>
  <tile id="73">
   <animation>
    <frame tileid="73" duration="150"/>
    <frame tileid="75" duration="150"/>
    <frame tileid="77" duration="150"/>
    <frame tileid="79" duration="150"/>
    <frame tileid="81" duration="150"/>
    <frame tileid="83" duration="150"/>
    <frame tileid="85" duration="150"/>
    <frame tileid="87" duration="150"/>
    <frame tileid="89" duration="150"/>
    <frame tileid="91" duration="150"/>
    <frame tileid="93" duration="150"/>
    <frame tileid="95" duration="150"/>
    <frame tileid="97" duration="150"/>
    <frame tileid="99" duration="150"/>
    <frame tileid="101" duration="150"/>
    <frame tileid="103" duration="150"/>
    <frame tileid="105" duration="150"/>
    <frame tileid="107" duration="150"/>
   </animation>
  </tile>
 </tileset>
 <tileset firstgid="4785" name="Reader1" tilewidth="16" tileheight="16" tilecount="108" columns="36">
  <image source="Reader1_fit5.png" width="576" height="48"/>
  <tile id="0">
   <animation>
    <frame tileid="0" duration="150"/>
    <frame tileid="2" duration="150"/>
    <frame tileid="4" duration="150"/>
    <frame tileid="6" duration="150"/>
    <frame tileid="8" duration="150"/>
    <frame tileid="10" duration="150"/>
    <frame tileid="12" duration="150"/>
    <frame tileid="14" duration="150"/>
    <frame tileid="16" duration="150"/>
    <frame tileid="18" duration="150"/>
    <frame tileid="20" duration="150"/>
    <frame tileid="22" duration="150"/>
    <frame tileid="24" duration="150"/>
    <frame tileid="26" duration="150"/>
    <frame tileid="28" duration="150"/>
    <frame tileid="30" duration="150"/>
    <frame tileid="32" duration="150"/>
    <frame tileid="34" duration="150"/>
   </animation>
  </tile>
  <tile id="1">
   <animation>
    <frame tileid="1" duration="150"/>
    <frame tileid="3" duration="150"/>
    <frame tileid="5" duration="150"/>
    <frame tileid="7" duration="150"/>
    <frame tileid="9" duration="150"/>
    <frame tileid="11" duration="150"/>
    <frame tileid="13" duration="150"/>
    <frame tileid="15" duration="150"/>
    <frame tileid="17" duration="150"/>
    <frame tileid="19" duration="150"/>
    <frame tileid="21" duration="150"/>
    <frame tileid="23" duration="150"/>
    <frame tileid="25" duration="150"/>
    <frame tileid="27" duration="150"/>
    <frame tileid="29" duration="150"/>
    <frame tileid="31" duration="150"/>
    <frame tileid="33" duration="150"/>
    <frame tileid="35" duration="150"/>
   </animation>
  </tile>
  <tile id="36">
   <animation>
    <frame tileid="36" duration="150"/>
    <frame tileid="38" duration="150"/>
    <frame tileid="40" duration="150"/>
    <frame tileid="42" duration="150"/>
    <frame tileid="44" duration="150"/>
    <frame tileid="46" duration="150"/>
    <frame tileid="48" duration="150"/>
    <frame tileid="50" duration="150"/>
    <frame tileid="52" duration="150"/>
    <frame tileid="54" duration="150"/>
    <frame tileid="56" duration="150"/>
    <frame tileid="58" duration="150"/>
    <frame tileid="60" duration="150"/>
    <frame tileid="62" duration="150"/>
    <frame tileid="64" duration="150"/>
    <frame tileid="66" duration="150"/>
    <frame tileid="68" duration="150"/>
    <frame tileid="70" duration="150"/>
   </animation>
  </tile>
  <tile id="37">
   <animation>
    <frame tileid="37" duration="150"/>
    <frame tileid="39" duration="150"/>
    <frame tileid="41" duration="150"/>
    <frame tileid="43" duration="150"/>
    <frame tileid="45" duration="150"/>
    <frame tileid="47" duration="150"/>
    <frame tileid="49" duration="150"/>
    <frame tileid="51" duration="150"/>
    <frame tileid="53" duration="150"/>
    <frame tileid="55" duration="150"/>
    <frame tileid="57" duration="150"/>
    <frame tileid="59" duration="150"/>
    <frame tileid="61" duration="150"/>
    <frame tileid="63" duration="150"/>
    <frame tileid="65" duration="150"/>
    <frame tileid="67" duration="150"/>
    <frame tileid="69" duration="150"/>
    <frame tileid="71" duration="150"/>
   </animation>
  </tile>
  <tile id="72">
   <animation>
    <frame tileid="72" duration="150"/>
    <frame tileid="74" duration="150"/>
    <frame tileid="76" duration="150"/>
    <frame tileid="78" duration="150"/>
    <frame tileid="80" duration="150"/>
    <frame tileid="82" duration="150"/>
    <frame tileid="84" duration="150"/>
    <frame tileid="86" duration="150"/>
    <frame tileid="88" duration="150"/>
    <frame tileid="90" duration="150"/>
    <frame tileid="92" duration="150"/>
    <frame tileid="94" duration="150"/>
    <frame tileid="96" duration="150"/>
    <frame tileid="98" duration="150"/>
    <frame tileid="100" duration="150"/>
    <frame tileid="102" duration="150"/>
    <frame tileid="104" duration="150"/>
    <frame tileid="106" duration="150"/>
   </animation>
  </tile>
  <tile id="73">
   <animation>
    <frame tileid="73" duration="150"/>
    <frame tileid="75" duration="150"/>
    <frame tileid="77" duration="150"/>
    <frame tileid="79" duration="150"/>
    <frame tileid="81" duration="150"/>
    <frame tileid="83" duration="150"/>
    <frame tileid="85" duration="150"/>
    <frame tileid="87" duration="150"/>
    <frame tileid="89" duration="150"/>
    <frame tileid="91" duration="150"/>
    <frame tileid="93" duration="150"/>
    <frame tileid="95" duration="150"/>
    <frame tileid="97" duration="150"/>
    <frame tileid="99" duration="150"/>
    <frame tileid="101" duration="150"/>
    <frame tileid="103" duration="150"/>
    <frame tileid="105" duration="150"/>
    <frame tileid="107" duration="150"/>
   </animation>
  </tile>
 </tileset>
 <tileset firstgid="4893" name="Reader1" tilewidth="16" tileheight="16" tilecount="108" columns="36">
  <image source="Reader1_fit4.png" width="576" height="48"/>
  <tile id="0">
   <animation>
    <frame tileid="0" duration="150"/>
    <frame tileid="2" duration="150"/>
    <frame tileid="4" duration="150"/>
    <frame tileid="6" duration="150"/>
    <frame tileid="8" duration="150"/>
    <frame tileid="10" duration="150"/>
    <frame tileid="12" duration="150"/>
    <frame tileid="14" duration="150"/>
    <frame tileid="16" duration="150"/>
    <frame tileid="18" duration="150"/>
    <frame tileid="20" duration="150"/>
    <frame tileid="22" duration="150"/>
    <frame tileid="24" duration="150"/>
    <frame tileid="26" duration="150"/>
    <frame tileid="28" duration="150"/>
    <frame tileid="30" duration="150"/>
    <frame tileid="32" duration="150"/>
    <frame tileid="34" duration="150"/>
   </animation>
  </tile>
  <tile id="1">
   <animation>
    <frame tileid="1" duration="150"/>
    <frame tileid="3" duration="150"/>
    <frame tileid="5" duration="150"/>
    <frame tileid="7" duration="150"/>
    <frame tileid="9" duration="150"/>
    <frame tileid="11" duration="150"/>
    <frame tileid="13" duration="150"/>
    <frame tileid="15" duration="150"/>
    <frame tileid="17" duration="150"/>
    <frame tileid="19" duration="150"/>
    <frame tileid="21" duration="150"/>
    <frame tileid="23" duration="150"/>
    <frame tileid="25" duration="150"/>
    <frame tileid="27" duration="150"/>
    <frame tileid="29" duration="150"/>
    <frame tileid="31" duration="150"/>
    <frame tileid="33" duration="150"/>
    <frame tileid="35" duration="150"/>
   </animation>
  </tile>
  <tile id="36">
   <animation>
    <frame tileid="36" duration="150"/>
    <frame tileid="38" duration="150"/>
    <frame tileid="40" duration="150"/>
    <frame tileid="42" duration="150"/>
    <frame tileid="44" duration="150"/>
    <frame tileid="46" duration="150"/>
    <frame tileid="48" duration="150"/>
    <frame tileid="50" duration="150"/>
    <frame tileid="52" duration="150"/>
    <frame tileid="54" duration="150"/>
    <frame tileid="56" duration="150"/>
    <frame tileid="58" duration="150"/>
    <frame tileid="60" duration="150"/>
    <frame tileid="62" duration="150"/>
    <frame tileid="64" duration="150"/>
    <frame tileid="66" duration="150"/>
    <frame tileid="68" duration="150"/>
    <frame tileid="70" duration="150"/>
   </animation>
  </tile>
  <tile id="37">
   <animation>
    <frame tileid="37" duration="150"/>
    <frame tileid="39" duration="150"/>
    <frame tileid="41" duration="150"/>
    <frame tileid="43" duration="150"/>
    <frame tileid="45" duration="150"/>
    <frame tileid="47" duration="150"/>
    <frame tileid="49" duration="150"/>
    <frame tileid="51" duration="150"/>
    <frame tileid="53" duration="150"/>
    <frame tileid="55" duration="150"/>
    <frame tileid="57" duration="150"/>
    <frame tileid="59" duration="150"/>
    <frame tileid="61" duration="150"/>
    <frame tileid="63" duration="150"/>
    <frame tileid="65" duration="150"/>
    <frame tileid="67" duration="150"/>
    <frame tileid="69" duration="150"/>
    <frame tileid="71" duration="150"/>
   </animation>
  </tile>
  <tile id="72">
   <animation>
    <frame tileid="72" duration="150"/>
    <frame tileid="74" duration="150"/>
    <frame tileid="76" duration="150"/>
    <frame tileid="78" duration="150"/>
    <frame tileid="80" duration="150"/>
    <frame tileid="82" duration="150"/>
    <frame tileid="84" duration="150"/>
    <frame tileid="86" duration="150"/>
    <frame tileid="88" duration="150"/>
    <frame tileid="90" duration="150"/>
    <frame tileid="92" duration="150"/>
    <frame tileid="94" duration="150"/>
    <frame tileid="96" duration="150"/>
    <frame tileid="98" duration="150"/>
    <frame tileid="100" duration="150"/>
    <frame tileid="102" duration="150"/>
    <frame tileid="104" duration="150"/>
    <frame tileid="106" duration="150"/>
   </animation>
  </tile>
  <tile id="73">
   <animation>
    <frame tileid="73" duration="150"/>
    <frame tileid="75" duration="150"/>
    <frame tileid="77" duration="150"/>
    <frame tileid="79" duration="150"/>
    <frame tileid="81" duration="150"/>
    <frame tileid="83" duration="150"/>
    <frame tileid="85" duration="150"/>
    <frame tileid="87" duration="150"/>
    <frame tileid="89" duration="150"/>
    <frame tileid="91" duration="150"/>
    <frame tileid="93" duration="150"/>
    <frame tileid="95" duration="150"/>
    <frame tileid="97" duration="150"/>
    <frame tileid="99" duration="150"/>
    <frame tileid="101" duration="150"/>
    <frame tileid="103" duration="150"/>
    <frame tileid="105" duration="150"/>
    <frame tileid="107" duration="150"/>
   </animation>
  </tile>
 </tileset>
 <tileset firstgid="5001" name="Reader3" tilewidth="16" tileheight="16" tilecount="12" columns="4">
  <image source="Reader3_fit4.png" width="64" height="48"/>
  <tile id="0">
   <animation>
    <frame tileid="0" duration="150"/>
    <frame tileid="0" duration="150"/>
    <frame tileid="0" duration="150"/>
    <frame tileid="0" duration="150"/>
    <frame tileid="0" duration="150"/>
    <frame tileid="0" duration="150"/>
    <frame tileid="2" duration="150"/>
    <frame tileid="2" duration="150"/>
    <frame tileid="2" duration="150"/>
    <frame tileid="2" duration="150"/>
    <frame tileid="2" duration="150"/>
    <frame tileid="2" duration="150"/>
   </animation>
  </tile>
  <tile id="1">
   <animation>
    <frame tileid="1" duration="150"/>
    <frame tileid="1" duration="150"/>
    <frame tileid="1" duration="150"/>
    <frame tileid="1" duration="150"/>
    <frame tileid="1" duration="150"/>
    <frame tileid="1" duration="150"/>
    <frame tileid="3" duration="150"/>
    <frame tileid="3" duration="150"/>
    <frame tileid="3" duration="150"/>
    <frame tileid="3" duration="150"/>
    <frame tileid="3" duration="150"/>
    <frame tileid="3" duration="150"/>
   </animation>
  </tile>
  <tile id="4">
   <animation>
    <frame tileid="4" duration="150"/>
    <frame tileid="4" duration="150"/>
    <frame tileid="4" duration="150"/>
    <frame tileid="4" duration="150"/>
    <frame tileid="4" duration="150"/>
    <frame tileid="4" duration="150"/>
    <frame tileid="6" duration="150"/>
    <frame tileid="6" duration="150"/>
    <frame tileid="6" duration="150"/>
    <frame tileid="6" duration="150"/>
    <frame tileid="6" duration="150"/>
    <frame tileid="6" duration="150"/>
   </animation>
  </tile>
  <tile id="5">
   <animation>
    <frame tileid="5" duration="150"/>
    <frame tileid="5" duration="150"/>
    <frame tileid="5" duration="150"/>
    <frame tileid="5" duration="150"/>
    <frame tileid="5" duration="150"/>
    <frame tileid="5" duration="150"/>
    <frame tileid="7" duration="150"/>
    <frame tileid="7" duration="150"/>
    <frame tileid="7" duration="150"/>
    <frame tileid="7" duration="150"/>
    <frame tileid="7" duration="150"/>
    <frame tileid="7" duration="150"/>
   </animation>
  </tile>
  <tile id="8">
   <animation>
    <frame tileid="8" duration="150"/>
    <frame tileid="8" duration="150"/>
    <frame tileid="8" duration="150"/>
    <frame tileid="8" duration="150"/>
    <frame tileid="8" duration="150"/>
    <frame tileid="8" duration="150"/>
    <frame tileid="10" duration="150"/>
    <frame tileid="10" duration="150"/>
    <frame tileid="10" duration="150"/>
    <frame tileid="10" duration="150"/>
    <frame tileid="10" duration="150"/>
    <frame tileid="10" duration="150"/>
   </animation>
  </tile>
  <tile id="9">
   <animation>
    <frame tileid="9" duration="150"/>
    <frame tileid="9" duration="150"/>
    <frame tileid="9" duration="150"/>
    <frame tileid="9" duration="150"/>
    <frame tileid="9" duration="150"/>
    <frame tileid="9" duration="150"/>
    <frame tileid="11" duration="150"/>
    <frame tileid="11" duration="150"/>
    <frame tileid="11" duration="150"/>
    <frame tileid="11" duration="150"/>
    <frame tileid="11" duration="150"/>
    <frame tileid="11" duration="150"/>
   </animation>
  </tile>
 </tileset>
 <tileset firstgid="5013" name="Reader3" tilewidth="16" tileheight="16" tilecount="12" columns="4">
  <image source="Reader2_fit4.png" width="64" height="48"/>
  <tile id="0">
   <animation>
    <frame tileid="0" duration="150"/>
    <frame tileid="0" duration="150"/>
    <frame tileid="0" duration="150"/>
    <frame tileid="0" duration="150"/>
    <frame tileid="0" duration="150"/>
    <frame tileid="0" duration="150"/>
    <frame tileid="2" duration="150"/>
    <frame tileid="2" duration="150"/>
    <frame tileid="2" duration="150"/>
    <frame tileid="2" duration="150"/>
    <frame tileid="2" duration="150"/>
    <frame tileid="2" duration="150"/>
   </animation>
  </tile>
  <tile id="1">
   <animation>
    <frame tileid="1" duration="150"/>
    <frame tileid="1" duration="150"/>
    <frame tileid="1" duration="150"/>
    <frame tileid="1" duration="150"/>
    <frame tileid="1" duration="150"/>
    <frame tileid="1" duration="150"/>
    <frame tileid="3" duration="150"/>
    <frame tileid="3" duration="150"/>
    <frame tileid="3" duration="150"/>
    <frame tileid="3" duration="150"/>
    <frame tileid="3" duration="150"/>
    <frame tileid="3" duration="150"/>
   </animation>
  </tile>
  <tile id="4">
   <animation>
    <frame tileid="4" duration="150"/>
    <frame tileid="4" duration="150"/>
    <frame tileid="4" duration="150"/>
    <frame tileid="4" duration="150"/>
    <frame tileid="4" duration="150"/>
    <frame tileid="4" duration="150"/>
    <frame tileid="6" duration="150"/>
    <frame tileid="6" duration="150"/>
    <frame tileid="6" duration="150"/>
    <frame tileid="6" duration="150"/>
    <frame tileid="6" duration="150"/>
    <frame tileid="6" duration="150"/>
   </animation>
  </tile>
  <tile id="5">
   <animation>
    <frame tileid="5" duration="150"/>
    <frame tileid="5" duration="150"/>
    <frame tileid="5" duration="150"/>
    <frame tileid="5" duration="150"/>
    <frame tileid="5" duration="150"/>
    <frame tileid="5" duration="150"/>
    <frame tileid="7" duration="150"/>
    <frame tileid="7" duration="150"/>
    <frame tileid="7" duration="150"/>
    <frame tileid="7" duration="150"/>
    <frame tileid="7" duration="150"/>
    <frame tileid="7" duration="150"/>
   </animation>
  </tile>
  <tile id="8">
   <animation>
    <frame tileid="8" duration="150"/>
    <frame tileid="8" duration="150"/>
    <frame tileid="8" duration="150"/>
    <frame tileid="8" duration="150"/>
    <frame tileid="8" duration="150"/>
    <frame tileid="8" duration="150"/>
    <frame tileid="10" duration="150"/>
    <frame tileid="10" duration="150"/>
    <frame tileid="10" duration="150"/>
    <frame tileid="10" duration="150"/>
    <frame tileid="10" duration="150"/>
    <frame tileid="10" duration="150"/>
   </animation>
  </tile>
  <tile id="9">
   <animation>
    <frame tileid="9" duration="150"/>
    <frame tileid="9" duration="150"/>
    <frame tileid="9" duration="150"/>
    <frame tileid="9" duration="150"/>
    <frame tileid="9" duration="150"/>
    <frame tileid="9" duration="150"/>
    <frame tileid="11" duration="150"/>
    <frame tileid="11" duration="150"/>
    <frame tileid="11" duration="150"/>
    <frame tileid="11" duration="150"/>
    <frame tileid="11" duration="150"/>
    <frame tileid="11" duration="150"/>
   </animation>
  </tile>
 </tileset>
 <tileset firstgid="5025" name="Reader3" tilewidth="16" tileheight="16" tilecount="12" columns="4">
  <image source="Reader3_fit5.png" width="64" height="48"/>
  <tile id="0">
   <animation>
    <frame tileid="0" duration="150"/>
    <frame tileid="0" duration="150"/>
    <frame tileid="0" duration="150"/>
    <frame tileid="0" duration="150"/>
    <frame tileid="0" duration="150"/>
    <frame tileid="0" duration="150"/>
    <frame tileid="2" duration="150"/>
    <frame tileid="2" duration="150"/>
    <frame tileid="2" duration="150"/>
    <frame tileid="2" duration="150"/>
    <frame tileid="2" duration="150"/>
    <frame tileid="2" duration="150"/>
   </animation>
  </tile>
  <tile id="1">
   <animation>
    <frame tileid="1" duration="150"/>
    <frame tileid="1" duration="150"/>
    <frame tileid="1" duration="150"/>
    <frame tileid="1" duration="150"/>
    <frame tileid="1" duration="150"/>
    <frame tileid="1" duration="150"/>
    <frame tileid="3" duration="150"/>
    <frame tileid="3" duration="150"/>
    <frame tileid="3" duration="150"/>
    <frame tileid="3" duration="150"/>
    <frame tileid="3" duration="150"/>
    <frame tileid="3" duration="150"/>
   </animation>
  </tile>
  <tile id="4">
   <animation>
    <frame tileid="4" duration="150"/>
    <frame tileid="4" duration="150"/>
    <frame tileid="4" duration="150"/>
    <frame tileid="4" duration="150"/>
    <frame tileid="4" duration="150"/>
    <frame tileid="4" duration="150"/>
    <frame tileid="6" duration="150"/>
    <frame tileid="6" duration="150"/>
    <frame tileid="6" duration="150"/>
    <frame tileid="6" duration="150"/>
    <frame tileid="6" duration="150"/>
    <frame tileid="6" duration="150"/>
   </animation>
  </tile>
  <tile id="5">
   <animation>
    <frame tileid="5" duration="150"/>
    <frame tileid="5" duration="150"/>
    <frame tileid="5" duration="150"/>
    <frame tileid="5" duration="150"/>
    <frame tileid="5" duration="150"/>
    <frame tileid="5" duration="150"/>
    <frame tileid="7" duration="150"/>
    <frame tileid="7" duration="150"/>
    <frame tileid="7" duration="150"/>
    <frame tileid="7" duration="150"/>
    <frame tileid="7" duration="150"/>
    <frame tileid="7" duration="150"/>
   </animation>
  </tile>
  <tile id="8">
   <animation>
    <frame tileid="8" duration="150"/>
    <frame tileid="8" duration="150"/>
    <frame tileid="8" duration="150"/>
    <frame tileid="8" duration="150"/>
    <frame tileid="8" duration="150"/>
    <frame tileid="8" duration="150"/>
    <frame tileid="10" duration="150"/>
    <frame tileid="10" duration="150"/>
    <frame tileid="10" duration="150"/>
    <frame tileid="10" duration="150"/>
    <frame tileid="10" duration="150"/>
    <frame tileid="10" duration="150"/>
   </animation>
  </tile>
  <tile id="9">
   <animation>
    <frame tileid="9" duration="150"/>
    <frame tileid="9" duration="150"/>
    <frame tileid="9" duration="150"/>
    <frame tileid="9" duration="150"/>
    <frame tileid="9" duration="150"/>
    <frame tileid="9" duration="150"/>
    <frame tileid="11" duration="150"/>
    <frame tileid="11" duration="150"/>
    <frame tileid="11" duration="150"/>
    <frame tileid="11" duration="150"/>
    <frame tileid="11" duration="150"/>
    <frame tileid="11" duration="150"/>
   </animation>
  </tile>
 </tileset>
 <tileset firstgid="5037" name="Reader3" tilewidth="16" tileheight="16" tilecount="12" columns="4">
  <image source="Reader3_fit3.png" width="64" height="48"/>
  <tile id="0">
   <animation>
    <frame tileid="0" duration="150"/>
    <frame tileid="0" duration="150"/>
    <frame tileid="0" duration="150"/>
    <frame tileid="0" duration="150"/>
    <frame tileid="0" duration="150"/>
    <frame tileid="0" duration="150"/>
    <frame tileid="2" duration="150"/>
    <frame tileid="2" duration="150"/>
    <frame tileid="2" duration="150"/>
    <frame tileid="2" duration="150"/>
    <frame tileid="2" duration="150"/>
    <frame tileid="2" duration="150"/>
   </animation>
  </tile>
  <tile id="1">
   <animation>
    <frame tileid="1" duration="150"/>
    <frame tileid="1" duration="150"/>
    <frame tileid="1" duration="150"/>
    <frame tileid="1" duration="150"/>
    <frame tileid="1" duration="150"/>
    <frame tileid="1" duration="150"/>
    <frame tileid="3" duration="150"/>
    <frame tileid="3" duration="150"/>
    <frame tileid="3" duration="150"/>
    <frame tileid="3" duration="150"/>
    <frame tileid="3" duration="150"/>
    <frame tileid="3" duration="150"/>
   </animation>
  </tile>
  <tile id="4">
   <animation>
    <frame tileid="4" duration="150"/>
    <frame tileid="4" duration="150"/>
    <frame tileid="4" duration="150"/>
    <frame tileid="4" duration="150"/>
    <frame tileid="4" duration="150"/>
    <frame tileid="4" duration="150"/>
    <frame tileid="6" duration="150"/>
    <frame tileid="6" duration="150"/>
    <frame tileid="6" duration="150"/>
    <frame tileid="6" duration="150"/>
    <frame tileid="6" duration="150"/>
    <frame tileid="6" duration="150"/>
   </animation>
  </tile>
  <tile id="5">
   <animation>
    <frame tileid="5" duration="150"/>
    <frame tileid="5" duration="150"/>
    <frame tileid="5" duration="150"/>
    <frame tileid="5" duration="150"/>
    <frame tileid="5" duration="150"/>
    <frame tileid="5" duration="150"/>
    <frame tileid="7" duration="150"/>
    <frame tileid="7" duration="150"/>
    <frame tileid="7" duration="150"/>
    <frame tileid="7" duration="150"/>
    <frame tileid="7" duration="150"/>
    <frame tileid="7" duration="150"/>
   </animation>
  </tile>
  <tile id="8">
   <animation>
    <frame tileid="8" duration="150"/>
    <frame tileid="8" duration="150"/>
    <frame tileid="8" duration="150"/>
    <frame tileid="8" duration="150"/>
    <frame tileid="8" duration="150"/>
    <frame tileid="8" duration="150"/>
    <frame tileid="10" duration="150"/>
    <frame tileid="10" duration="150"/>
    <frame tileid="10" duration="150"/>
    <frame tileid="10" duration="150"/>
    <frame tileid="10" duration="150"/>
    <frame tileid="10" duration="150"/>
   </animation>
  </tile>
  <tile id="9">
   <animation>
    <frame tileid="9" duration="150"/>
    <frame tileid="9" duration="150"/>
    <frame tileid="9" duration="150"/>
    <frame tileid="9" duration="150"/>
    <frame tileid="9" duration="150"/>
    <frame tileid="9" duration="150"/>
    <frame tileid="11" duration="150"/>
    <frame tileid="11" duration="150"/>
    <frame tileid="11" duration="150"/>
    <frame tileid="11" duration="150"/>
    <frame tileid="11" duration="150"/>
    <frame tileid="11" duration="150"/>
   </animation>
  </tile>
 </tileset>
 <tileset firstgid="5049" name="Reader3" tilewidth="16" tileheight="16" tilecount="12" columns="4">
  <image source="Reader3_fit2.png" width="64" height="48"/>
  <tile id="0">
   <animation>
    <frame tileid="0" duration="150"/>
    <frame tileid="0" duration="150"/>
    <frame tileid="0" duration="150"/>
    <frame tileid="0" duration="150"/>
    <frame tileid="0" duration="150"/>
    <frame tileid="0" duration="150"/>
    <frame tileid="2" duration="150"/>
    <frame tileid="2" duration="150"/>
    <frame tileid="2" duration="150"/>
    <frame tileid="2" duration="150"/>
    <frame tileid="2" duration="150"/>
    <frame tileid="2" duration="150"/>
   </animation>
  </tile>
  <tile id="1">
   <animation>
    <frame tileid="1" duration="150"/>
    <frame tileid="1" duration="150"/>
    <frame tileid="1" duration="150"/>
    <frame tileid="1" duration="150"/>
    <frame tileid="1" duration="150"/>
    <frame tileid="1" duration="150"/>
    <frame tileid="3" duration="150"/>
    <frame tileid="3" duration="150"/>
    <frame tileid="3" duration="150"/>
    <frame tileid="3" duration="150"/>
    <frame tileid="3" duration="150"/>
    <frame tileid="3" duration="150"/>
   </animation>
  </tile>
  <tile id="4">
   <animation>
    <frame tileid="4" duration="150"/>
    <frame tileid="4" duration="150"/>
    <frame tileid="4" duration="150"/>
    <frame tileid="4" duration="150"/>
    <frame tileid="4" duration="150"/>
    <frame tileid="4" duration="150"/>
    <frame tileid="6" duration="150"/>
    <frame tileid="6" duration="150"/>
    <frame tileid="6" duration="150"/>
    <frame tileid="6" duration="150"/>
    <frame tileid="6" duration="150"/>
    <frame tileid="6" duration="150"/>
   </animation>
  </tile>
  <tile id="5">
   <animation>
    <frame tileid="5" duration="150"/>
    <frame tileid="5" duration="150"/>
    <frame tileid="5" duration="150"/>
    <frame tileid="5" duration="150"/>
    <frame tileid="5" duration="150"/>
    <frame tileid="5" duration="150"/>
    <frame tileid="7" duration="150"/>
    <frame tileid="7" duration="150"/>
    <frame tileid="7" duration="150"/>
    <frame tileid="7" duration="150"/>
    <frame tileid="7" duration="150"/>
    <frame tileid="7" duration="150"/>
   </animation>
  </tile>
  <tile id="8">
   <animation>
    <frame tileid="8" duration="150"/>
    <frame tileid="8" duration="150"/>
    <frame tileid="8" duration="150"/>
    <frame tileid="8" duration="150"/>
    <frame tileid="8" duration="150"/>
    <frame tileid="8" duration="150"/>
    <frame tileid="10" duration="150"/>
    <frame tileid="10" duration="150"/>
    <frame tileid="10" duration="150"/>
    <frame tileid="10" duration="150"/>
    <frame tileid="10" duration="150"/>
    <frame tileid="10" duration="150"/>
   </animation>
  </tile>
  <tile id="9">
   <animation>
    <frame tileid="9" duration="150"/>
    <frame tileid="9" duration="150"/>
    <frame tileid="9" duration="150"/>
    <frame tileid="9" duration="150"/>
    <frame tileid="9" duration="150"/>
    <frame tileid="9" duration="150"/>
    <frame tileid="11" duration="150"/>
    <frame tileid="11" duration="150"/>
    <frame tileid="11" duration="150"/>
    <frame tileid="11" duration="150"/>
    <frame tileid="11" duration="150"/>
    <frame tileid="11" duration="150"/>
   </animation>
  </tile>
 </tileset>
 <tileset firstgid="5061" name="Reader3" tilewidth="16" tileheight="16" tilecount="12" columns="4">
  <image source="Reader2_fit5.png" width="64" height="48"/>
  <tile id="0">
   <animation>
    <frame tileid="0" duration="150"/>
    <frame tileid="0" duration="150"/>
    <frame tileid="0" duration="150"/>
    <frame tileid="0" duration="150"/>
    <frame tileid="0" duration="150"/>
    <frame tileid="0" duration="150"/>
    <frame tileid="2" duration="150"/>
    <frame tileid="2" duration="150"/>
    <frame tileid="2" duration="150"/>
    <frame tileid="2" duration="150"/>
    <frame tileid="2" duration="150"/>
    <frame tileid="2" duration="150"/>
   </animation>
  </tile>
  <tile id="1">
   <animation>
    <frame tileid="1" duration="150"/>
    <frame tileid="1" duration="150"/>
    <frame tileid="1" duration="150"/>
    <frame tileid="1" duration="150"/>
    <frame tileid="1" duration="150"/>
    <frame tileid="1" duration="150"/>
    <frame tileid="3" duration="150"/>
    <frame tileid="3" duration="150"/>
    <frame tileid="3" duration="150"/>
    <frame tileid="3" duration="150"/>
    <frame tileid="3" duration="150"/>
    <frame tileid="3" duration="150"/>
   </animation>
  </tile>
  <tile id="4">
   <animation>
    <frame tileid="4" duration="150"/>
    <frame tileid="4" duration="150"/>
    <frame tileid="4" duration="150"/>
    <frame tileid="4" duration="150"/>
    <frame tileid="4" duration="150"/>
    <frame tileid="4" duration="150"/>
    <frame tileid="6" duration="150"/>
    <frame tileid="6" duration="150"/>
    <frame tileid="6" duration="150"/>
    <frame tileid="6" duration="150"/>
    <frame tileid="6" duration="150"/>
    <frame tileid="6" duration="150"/>
   </animation>
  </tile>
  <tile id="5">
   <animation>
    <frame tileid="5" duration="150"/>
    <frame tileid="5" duration="150"/>
    <frame tileid="5" duration="150"/>
    <frame tileid="5" duration="150"/>
    <frame tileid="5" duration="150"/>
    <frame tileid="5" duration="150"/>
    <frame tileid="7" duration="150"/>
    <frame tileid="7" duration="150"/>
    <frame tileid="7" duration="150"/>
    <frame tileid="7" duration="150"/>
    <frame tileid="7" duration="150"/>
    <frame tileid="7" duration="150"/>
   </animation>
  </tile>
  <tile id="8">
   <animation>
    <frame tileid="8" duration="150"/>
    <frame tileid="8" duration="150"/>
    <frame tileid="8" duration="150"/>
    <frame tileid="8" duration="150"/>
    <frame tileid="8" duration="150"/>
    <frame tileid="8" duration="150"/>
    <frame tileid="10" duration="150"/>
    <frame tileid="10" duration="150"/>
    <frame tileid="10" duration="150"/>
    <frame tileid="10" duration="150"/>
    <frame tileid="10" duration="150"/>
    <frame tileid="10" duration="150"/>
   </animation>
  </tile>
  <tile id="9">
   <animation>
    <frame tileid="9" duration="150"/>
    <frame tileid="9" duration="150"/>
    <frame tileid="9" duration="150"/>
    <frame tileid="9" duration="150"/>
    <frame tileid="9" duration="150"/>
    <frame tileid="9" duration="150"/>
    <frame tileid="11" duration="150"/>
    <frame tileid="11" duration="150"/>
    <frame tileid="11" duration="150"/>
    <frame tileid="11" duration="150"/>
    <frame tileid="11" duration="150"/>
    <frame tileid="11" duration="150"/>
   </animation>
  </tile>
 </tileset>
 <tileset firstgid="5073" name="Reader3" tilewidth="16" tileheight="16" tilecount="12" columns="4">
  <image source="Reader2_fit2.png" width="64" height="48"/>
  <tile id="0">
   <animation>
    <frame tileid="0" duration="150"/>
    <frame tileid="0" duration="150"/>
    <frame tileid="0" duration="150"/>
    <frame tileid="0" duration="150"/>
    <frame tileid="0" duration="150"/>
    <frame tileid="0" duration="150"/>
    <frame tileid="2" duration="150"/>
    <frame tileid="2" duration="150"/>
    <frame tileid="2" duration="150"/>
    <frame tileid="2" duration="150"/>
    <frame tileid="2" duration="150"/>
    <frame tileid="2" duration="150"/>
   </animation>
  </tile>
  <tile id="1">
   <animation>
    <frame tileid="1" duration="150"/>
    <frame tileid="1" duration="150"/>
    <frame tileid="1" duration="150"/>
    <frame tileid="1" duration="150"/>
    <frame tileid="1" duration="150"/>
    <frame tileid="1" duration="150"/>
    <frame tileid="3" duration="150"/>
    <frame tileid="3" duration="150"/>
    <frame tileid="3" duration="150"/>
    <frame tileid="3" duration="150"/>
    <frame tileid="3" duration="150"/>
    <frame tileid="3" duration="150"/>
   </animation>
  </tile>
  <tile id="4">
   <animation>
    <frame tileid="4" duration="150"/>
    <frame tileid="4" duration="150"/>
    <frame tileid="4" duration="150"/>
    <frame tileid="4" duration="150"/>
    <frame tileid="4" duration="150"/>
    <frame tileid="4" duration="150"/>
    <frame tileid="6" duration="150"/>
    <frame tileid="6" duration="150"/>
    <frame tileid="6" duration="150"/>
    <frame tileid="6" duration="150"/>
    <frame tileid="6" duration="150"/>
    <frame tileid="6" duration="150"/>
   </animation>
  </tile>
  <tile id="5">
   <animation>
    <frame tileid="5" duration="150"/>
    <frame tileid="5" duration="150"/>
    <frame tileid="5" duration="150"/>
    <frame tileid="5" duration="150"/>
    <frame tileid="5" duration="150"/>
    <frame tileid="5" duration="150"/>
    <frame tileid="7" duration="150"/>
    <frame tileid="7" duration="150"/>
    <frame tileid="7" duration="150"/>
    <frame tileid="7" duration="150"/>
    <frame tileid="7" duration="150"/>
    <frame tileid="7" duration="150"/>
   </animation>
  </tile>
  <tile id="8">
   <animation>
    <frame tileid="8" duration="150"/>
    <frame tileid="8" duration="150"/>
    <frame tileid="8" duration="150"/>
    <frame tileid="8" duration="150"/>
    <frame tileid="8" duration="150"/>
    <frame tileid="8" duration="150"/>
    <frame tileid="10" duration="150"/>
    <frame tileid="10" duration="150"/>
    <frame tileid="10" duration="150"/>
    <frame tileid="10" duration="150"/>
    <frame tileid="10" duration="150"/>
    <frame tileid="10" duration="150"/>
   </animation>
  </tile>
  <tile id="9">
   <animation>
    <frame tileid="9" duration="150"/>
    <frame tileid="9" duration="150"/>
    <frame tileid="9" duration="150"/>
    <frame tileid="9" duration="150"/>
    <frame tileid="9" duration="150"/>
    <frame tileid="9" duration="150"/>
    <frame tileid="11" duration="150"/>
    <frame tileid="11" duration="150"/>
    <frame tileid="11" duration="150"/>
    <frame tileid="11" duration="150"/>
    <frame tileid="11" duration="150"/>
    <frame tileid="11" duration="150"/>
   </animation>
  </tile>
 </tileset>
 <tileset firstgid="5085" name="Reader3" tilewidth="16" tileheight="16" tilecount="12" columns="4">
  <image source="Reader2.png" width="64" height="48"/>
  <tile id="0">
   <animation>
    <frame tileid="0" duration="150"/>
    <frame tileid="0" duration="150"/>
    <frame tileid="0" duration="150"/>
    <frame tileid="0" duration="150"/>
    <frame tileid="0" duration="150"/>
    <frame tileid="0" duration="150"/>
    <frame tileid="2" duration="150"/>
    <frame tileid="2" duration="150"/>
    <frame tileid="2" duration="150"/>
    <frame tileid="2" duration="150"/>
    <frame tileid="2" duration="150"/>
    <frame tileid="2" duration="150"/>
   </animation>
  </tile>
  <tile id="1">
   <animation>
    <frame tileid="1" duration="150"/>
    <frame tileid="1" duration="150"/>
    <frame tileid="1" duration="150"/>
    <frame tileid="1" duration="150"/>
    <frame tileid="1" duration="150"/>
    <frame tileid="1" duration="150"/>
    <frame tileid="3" duration="150"/>
    <frame tileid="3" duration="150"/>
    <frame tileid="3" duration="150"/>
    <frame tileid="3" duration="150"/>
    <frame tileid="3" duration="150"/>
    <frame tileid="3" duration="150"/>
   </animation>
  </tile>
  <tile id="4">
   <animation>
    <frame tileid="4" duration="150"/>
    <frame tileid="4" duration="150"/>
    <frame tileid="4" duration="150"/>
    <frame tileid="4" duration="150"/>
    <frame tileid="4" duration="150"/>
    <frame tileid="4" duration="150"/>
    <frame tileid="6" duration="150"/>
    <frame tileid="6" duration="150"/>
    <frame tileid="6" duration="150"/>
    <frame tileid="6" duration="150"/>
    <frame tileid="6" duration="150"/>
    <frame tileid="6" duration="150"/>
   </animation>
  </tile>
  <tile id="5">
   <animation>
    <frame tileid="5" duration="150"/>
    <frame tileid="5" duration="150"/>
    <frame tileid="5" duration="150"/>
    <frame tileid="5" duration="150"/>
    <frame tileid="5" duration="150"/>
    <frame tileid="5" duration="150"/>
    <frame tileid="7" duration="150"/>
    <frame tileid="7" duration="150"/>
    <frame tileid="7" duration="150"/>
    <frame tileid="7" duration="150"/>
    <frame tileid="7" duration="150"/>
    <frame tileid="7" duration="150"/>
   </animation>
  </tile>
  <tile id="8">
   <animation>
    <frame tileid="8" duration="150"/>
    <frame tileid="8" duration="150"/>
    <frame tileid="8" duration="150"/>
    <frame tileid="8" duration="150"/>
    <frame tileid="8" duration="150"/>
    <frame tileid="8" duration="150"/>
    <frame tileid="10" duration="150"/>
    <frame tileid="10" duration="150"/>
    <frame tileid="10" duration="150"/>
    <frame tileid="10" duration="150"/>
    <frame tileid="10" duration="150"/>
    <frame tileid="10" duration="150"/>
   </animation>
  </tile>
  <tile id="9">
   <animation>
    <frame tileid="9" duration="150"/>
    <frame tileid="9" duration="150"/>
    <frame tileid="9" duration="150"/>
    <frame tileid="9" duration="150"/>
    <frame tileid="9" duration="150"/>
    <frame tileid="9" duration="150"/>
    <frame tileid="11" duration="150"/>
    <frame tileid="11" duration="150"/>
    <frame tileid="11" duration="150"/>
    <frame tileid="11" duration="150"/>
    <frame tileid="11" duration="150"/>
    <frame tileid="11" duration="150"/>
   </animation>
  </tile>
 </tileset>
 <tileset firstgid="5097" name="Reader3" tilewidth="16" tileheight="16" tilecount="12" columns="4">
  <image source="Reader2_fit3.png" width="64" height="48"/>
  <tile id="0">
   <animation>
    <frame tileid="0" duration="150"/>
    <frame tileid="0" duration="150"/>
    <frame tileid="0" duration="150"/>
    <frame tileid="0" duration="150"/>
    <frame tileid="0" duration="150"/>
    <frame tileid="0" duration="150"/>
    <frame tileid="2" duration="150"/>
    <frame tileid="2" duration="150"/>
    <frame tileid="2" duration="150"/>
    <frame tileid="2" duration="150"/>
    <frame tileid="2" duration="150"/>
    <frame tileid="2" duration="150"/>
   </animation>
  </tile>
  <tile id="1">
   <animation>
    <frame tileid="1" duration="150"/>
    <frame tileid="1" duration="150"/>
    <frame tileid="1" duration="150"/>
    <frame tileid="1" duration="150"/>
    <frame tileid="1" duration="150"/>
    <frame tileid="1" duration="150"/>
    <frame tileid="3" duration="150"/>
    <frame tileid="3" duration="150"/>
    <frame tileid="3" duration="150"/>
    <frame tileid="3" duration="150"/>
    <frame tileid="3" duration="150"/>
    <frame tileid="3" duration="150"/>
   </animation>
  </tile>
  <tile id="4">
   <animation>
    <frame tileid="4" duration="150"/>
    <frame tileid="4" duration="150"/>
    <frame tileid="4" duration="150"/>
    <frame tileid="4" duration="150"/>
    <frame tileid="4" duration="150"/>
    <frame tileid="4" duration="150"/>
    <frame tileid="6" duration="150"/>
    <frame tileid="6" duration="150"/>
    <frame tileid="6" duration="150"/>
    <frame tileid="6" duration="150"/>
    <frame tileid="6" duration="150"/>
    <frame tileid="6" duration="150"/>
   </animation>
  </tile>
  <tile id="5">
   <animation>
    <frame tileid="5" duration="150"/>
    <frame tileid="5" duration="150"/>
    <frame tileid="5" duration="150"/>
    <frame tileid="5" duration="150"/>
    <frame tileid="5" duration="150"/>
    <frame tileid="5" duration="150"/>
    <frame tileid="7" duration="150"/>
    <frame tileid="7" duration="150"/>
    <frame tileid="7" duration="150"/>
    <frame tileid="7" duration="150"/>
    <frame tileid="7" duration="150"/>
    <frame tileid="7" duration="150"/>
   </animation>
  </tile>
  <tile id="8">
   <animation>
    <frame tileid="8" duration="150"/>
    <frame tileid="8" duration="150"/>
    <frame tileid="8" duration="150"/>
    <frame tileid="8" duration="150"/>
    <frame tileid="8" duration="150"/>
    <frame tileid="8" duration="150"/>
    <frame tileid="10" duration="150"/>
    <frame tileid="10" duration="150"/>
    <frame tileid="10" duration="150"/>
    <frame tileid="10" duration="150"/>
    <frame tileid="10" duration="150"/>
    <frame tileid="10" duration="150"/>
   </animation>
  </tile>
  <tile id="9">
   <animation>
    <frame tileid="9" duration="150"/>
    <frame tileid="9" duration="150"/>
    <frame tileid="9" duration="150"/>
    <frame tileid="9" duration="150"/>
    <frame tileid="9" duration="150"/>
    <frame tileid="9" duration="150"/>
    <frame tileid="11" duration="150"/>
    <frame tileid="11" duration="150"/>
    <frame tileid="11" duration="150"/>
    <frame tileid="11" duration="150"/>
    <frame tileid="11" duration="150"/>
    <frame tileid="11" duration="150"/>
   </animation>
  </tile>
 </tileset>
 <tileset firstgid="5109" name="Reader3" tilewidth="16" tileheight="16" tilecount="12" columns="4">
  <image source="Reader3.png" width="64" height="48"/>
  <tile id="0">
   <animation>
    <frame tileid="0" duration="150"/>
    <frame tileid="0" duration="150"/>
    <frame tileid="0" duration="150"/>
    <frame tileid="0" duration="150"/>
    <frame tileid="0" duration="150"/>
    <frame tileid="0" duration="150"/>
    <frame tileid="2" duration="150"/>
    <frame tileid="2" duration="150"/>
    <frame tileid="2" duration="150"/>
    <frame tileid="2" duration="150"/>
    <frame tileid="2" duration="150"/>
    <frame tileid="2" duration="150"/>
   </animation>
  </tile>
  <tile id="1">
   <animation>
    <frame tileid="1" duration="150"/>
    <frame tileid="1" duration="150"/>
    <frame tileid="1" duration="150"/>
    <frame tileid="1" duration="150"/>
    <frame tileid="1" duration="150"/>
    <frame tileid="1" duration="150"/>
    <frame tileid="3" duration="150"/>
    <frame tileid="3" duration="150"/>
    <frame tileid="3" duration="150"/>
    <frame tileid="3" duration="150"/>
    <frame tileid="3" duration="150"/>
    <frame tileid="3" duration="150"/>
   </animation>
  </tile>
  <tile id="4">
   <animation>
    <frame tileid="4" duration="150"/>
    <frame tileid="4" duration="150"/>
    <frame tileid="4" duration="150"/>
    <frame tileid="4" duration="150"/>
    <frame tileid="4" duration="150"/>
    <frame tileid="4" duration="150"/>
    <frame tileid="6" duration="150"/>
    <frame tileid="6" duration="150"/>
    <frame tileid="6" duration="150"/>
    <frame tileid="6" duration="150"/>
    <frame tileid="6" duration="150"/>
    <frame tileid="6" duration="150"/>
   </animation>
  </tile>
  <tile id="5">
   <animation>
    <frame tileid="5" duration="150"/>
    <frame tileid="5" duration="150"/>
    <frame tileid="5" duration="150"/>
    <frame tileid="5" duration="150"/>
    <frame tileid="5" duration="150"/>
    <frame tileid="5" duration="150"/>
    <frame tileid="7" duration="150"/>
    <frame tileid="7" duration="150"/>
    <frame tileid="7" duration="150"/>
    <frame tileid="7" duration="150"/>
    <frame tileid="7" duration="150"/>
    <frame tileid="7" duration="150"/>
   </animation>
  </tile>
  <tile id="8">
   <animation>
    <frame tileid="8" duration="150"/>
    <frame tileid="8" duration="150"/>
    <frame tileid="8" duration="150"/>
    <frame tileid="8" duration="150"/>
    <frame tileid="8" duration="150"/>
    <frame tileid="8" duration="150"/>
    <frame tileid="10" duration="150"/>
    <frame tileid="10" duration="150"/>
    <frame tileid="10" duration="150"/>
    <frame tileid="10" duration="150"/>
    <frame tileid="10" duration="150"/>
    <frame tileid="10" duration="150"/>
   </animation>
  </tile>
  <tile id="9">
   <animation>
    <frame tileid="9" duration="150"/>
    <frame tileid="9" duration="150"/>
    <frame tileid="9" duration="150"/>
    <frame tileid="9" duration="150"/>
    <frame tileid="9" duration="150"/>
    <frame tileid="9" duration="150"/>
    <frame tileid="11" duration="150"/>
    <frame tileid="11" duration="150"/>
    <frame tileid="11" duration="150"/>
    <frame tileid="11" duration="150"/>
    <frame tileid="11" duration="150"/>
    <frame tileid="11" duration="150"/>
   </animation>
  </tile>
 </tileset>
 <tileset firstgid="5121" name="Demon" tilewidth="16" tileheight="16" tilecount="500" columns="25">
  <image source="Demon_without_shadow.png" width="400" height="320"/>
  <tile id="1">
   <animation>
    <frame tileid="1" duration="150"/>
    <frame tileid="6" duration="150"/>
    <frame tileid="11" duration="150"/>
    <frame tileid="16" duration="150"/>
    <frame tileid="21" duration="150"/>
    <frame tileid="126" duration="150"/>
    <frame tileid="131" duration="150"/>
    <frame tileid="136" duration="150"/>
    <frame tileid="141" duration="150"/>
    <frame tileid="146" duration="150"/>
    <frame tileid="251" duration="150"/>
    <frame tileid="256" duration="150"/>
    <frame tileid="261" duration="150"/>
    <frame tileid="266" duration="150"/>
    <frame tileid="271" duration="150"/>
    <frame tileid="376" duration="150"/>
    <frame tileid="381" duration="150"/>
    <frame tileid="386" duration="150"/>
    <frame tileid="418" duration="150"/>
    <frame tileid="418" duration="150"/>
    <frame tileid="418" duration="150"/>
    <frame tileid="418" duration="150"/>
    <frame tileid="418" duration="150"/>
    <frame tileid="418" duration="150"/>
   </animation>
  </tile>
  <tile id="2">
   <animation>
    <frame tileid="2" duration="150"/>
    <frame tileid="7" duration="150"/>
    <frame tileid="12" duration="150"/>
    <frame tileid="17" duration="150"/>
    <frame tileid="22" duration="150"/>
    <frame tileid="127" duration="150"/>
    <frame tileid="132" duration="150"/>
    <frame tileid="137" duration="150"/>
    <frame tileid="142" duration="150"/>
    <frame tileid="147" duration="150"/>
    <frame tileid="252" duration="150"/>
    <frame tileid="257" duration="150"/>
    <frame tileid="262" duration="150"/>
    <frame tileid="267" duration="150"/>
    <frame tileid="272" duration="150"/>
    <frame tileid="377" duration="150"/>
    <frame tileid="382" duration="150"/>
    <frame tileid="387" duration="150"/>
    <frame tileid="419" duration="150"/>
    <frame tileid="419" duration="150"/>
    <frame tileid="419" duration="150"/>
    <frame tileid="419" duration="150"/>
    <frame tileid="419" duration="150"/>
    <frame tileid="421" duration="150"/>
   </animation>
  </tile>
  <tile id="3">
   <animation>
    <frame tileid="3" duration="150"/>
    <frame tileid="8" duration="150"/>
    <frame tileid="13" duration="150"/>
    <frame tileid="18" duration="150"/>
    <frame tileid="23" duration="150"/>
    <frame tileid="128" duration="150"/>
    <frame tileid="133" duration="150"/>
    <frame tileid="138" duration="150"/>
    <frame tileid="143" duration="150"/>
    <frame tileid="148" duration="150"/>
    <frame tileid="253" duration="150"/>
    <frame tileid="258" duration="150"/>
    <frame tileid="263" duration="150"/>
    <frame tileid="268" duration="150"/>
    <frame tileid="273" duration="150"/>
    <frame tileid="378" duration="150"/>
    <frame tileid="383" duration="150"/>
    <frame tileid="388" duration="150"/>
    <frame tileid="421" duration="150"/>
    <frame tileid="421" duration="150"/>
    <frame tileid="421" duration="150"/>
    <frame tileid="421" duration="150"/>
    <frame tileid="421" duration="150"/>
    <frame tileid="421" duration="150"/>
   </animation>
  </tile>
  <tile id="26">
   <animation>
    <frame tileid="26" duration="150"/>
    <frame tileid="31" duration="150"/>
    <frame tileid="36" duration="150"/>
    <frame tileid="41" duration="150"/>
    <frame tileid="46" duration="150"/>
    <frame tileid="151" duration="150"/>
    <frame tileid="156" duration="150"/>
    <frame tileid="161" duration="150"/>
    <frame tileid="166" duration="150"/>
    <frame tileid="171" duration="150"/>
    <frame tileid="276" duration="150"/>
    <frame tileid="281" duration="150"/>
    <frame tileid="286" duration="150"/>
    <frame tileid="291" duration="150"/>
    <frame tileid="296" duration="150"/>
    <frame tileid="401" duration="150"/>
    <frame tileid="406" duration="150"/>
    <frame tileid="411" duration="150"/>
    <frame tileid="397" duration="150"/>
    <frame tileid="397" duration="150"/>
    <frame tileid="397" duration="150"/>
    <frame tileid="397" duration="150"/>
    <frame tileid="397" duration="150"/>
    <frame tileid="397" duration="150"/>
   </animation>
  </tile>
  <tile id="27">
   <animation>
    <frame tileid="27" duration="150"/>
    <frame tileid="32" duration="150"/>
    <frame tileid="37" duration="150"/>
    <frame tileid="42" duration="150"/>
    <frame tileid="47" duration="150"/>
    <frame tileid="152" duration="150"/>
    <frame tileid="157" duration="150"/>
    <frame tileid="162" duration="150"/>
    <frame tileid="167" duration="150"/>
    <frame tileid="172" duration="150"/>
    <frame tileid="277" duration="150"/>
    <frame tileid="282" duration="150"/>
    <frame tileid="287" duration="150"/>
    <frame tileid="292" duration="150"/>
    <frame tileid="297" duration="150"/>
    <frame tileid="402" duration="150"/>
    <frame tileid="407" duration="150"/>
    <frame tileid="412" duration="150"/>
    <frame tileid="396" duration="150"/>
    <frame tileid="396" duration="150"/>
    <frame tileid="396" duration="150"/>
    <frame tileid="396" duration="150"/>
    <frame tileid="396" duration="150"/>
    <frame tileid="396" duration="150"/>
   </animation>
  </tile>
  <tile id="28">
   <animation>
    <frame tileid="28" duration="150"/>
    <frame tileid="33" duration="150"/>
    <frame tileid="38" duration="150"/>
    <frame tileid="43" duration="150"/>
    <frame tileid="48" duration="150"/>
    <frame tileid="153" duration="150"/>
    <frame tileid="158" duration="150"/>
    <frame tileid="163" duration="150"/>
    <frame tileid="168" duration="150"/>
    <frame tileid="173" duration="150"/>
    <frame tileid="278" duration="150"/>
    <frame tileid="283" duration="150"/>
    <frame tileid="288" duration="150"/>
    <frame tileid="293" duration="150"/>
    <frame tileid="298" duration="150"/>
    <frame tileid="403" duration="150"/>
    <frame tileid="408" duration="150"/>
    <frame tileid="413" duration="150"/>
    <frame tileid="421" duration="150"/>
    <frame tileid="421" duration="150"/>
    <frame tileid="421" duration="150"/>
    <frame tileid="421" duration="150"/>
    <frame tileid="421" duration="150"/>
    <frame tileid="421" duration="150"/>
   </animation>
  </tile>
  <tile id="50">
   <animation>
    <frame tileid="50" duration="150"/>
    <frame tileid="55" duration="150"/>
    <frame tileid="60" duration="150"/>
    <frame tileid="65" duration="150"/>
    <frame tileid="70" duration="150"/>
    <frame tileid="175" duration="150"/>
    <frame tileid="180" duration="150"/>
    <frame tileid="185" duration="150"/>
    <frame tileid="190" duration="150"/>
    <frame tileid="195" duration="150"/>
    <frame tileid="300" duration="150"/>
    <frame tileid="305" duration="150"/>
    <frame tileid="310" duration="150"/>
    <frame tileid="315" duration="150"/>
    <frame tileid="320" duration="150"/>
    <frame tileid="425" duration="150"/>
    <frame tileid="430" duration="150"/>
    <frame tileid="435" duration="150"/>
    <frame tileid="421" duration="150"/>
    <frame tileid="421" duration="150"/>
    <frame tileid="421" duration="150"/>
    <frame tileid="421" duration="150"/>
    <frame tileid="421" duration="150"/>
    <frame tileid="421" duration="150"/>
   </animation>
  </tile>
  <tile id="51">
   <animation>
    <frame tileid="51" duration="150"/>
    <frame tileid="56" duration="150"/>
    <frame tileid="61" duration="150"/>
    <frame tileid="66" duration="150"/>
    <frame tileid="71" duration="150"/>
    <frame tileid="176" duration="150"/>
    <frame tileid="181" duration="150"/>
    <frame tileid="186" duration="150"/>
    <frame tileid="191" duration="150"/>
    <frame tileid="196" duration="150"/>
    <frame tileid="301" duration="150"/>
    <frame tileid="306" duration="150"/>
    <frame tileid="311" duration="150"/>
    <frame tileid="316" duration="150"/>
    <frame tileid="321" duration="150"/>
    <frame tileid="426" duration="150"/>
    <frame tileid="431" duration="150"/>
    <frame tileid="436" duration="150"/>
    <frame tileid="421" duration="150"/>
    <frame tileid="421" duration="150"/>
    <frame tileid="421" duration="150"/>
    <frame tileid="421" duration="150"/>
    <frame tileid="421" duration="150"/>
    <frame tileid="421" duration="150"/>
   </animation>
  </tile>
  <tile id="52">
   <animation>
    <frame tileid="52" duration="150"/>
    <frame tileid="57" duration="150"/>
    <frame tileid="62" duration="150"/>
    <frame tileid="67" duration="150"/>
    <frame tileid="72" duration="150"/>
    <frame tileid="177" duration="150"/>
    <frame tileid="182" duration="150"/>
    <frame tileid="187" duration="150"/>
    <frame tileid="192" duration="150"/>
    <frame tileid="197" duration="150"/>
    <frame tileid="302" duration="150"/>
    <frame tileid="307" duration="150"/>
    <frame tileid="312" duration="150"/>
    <frame tileid="317" duration="150"/>
    <frame tileid="322" duration="150"/>
    <frame tileid="427" duration="150"/>
    <frame tileid="432" duration="150"/>
    <frame tileid="437" duration="150"/>
    <frame tileid="420" duration="150"/>
    <frame tileid="420" duration="150"/>
    <frame tileid="420" duration="150"/>
    <frame tileid="420" duration="150"/>
    <frame tileid="420" duration="150"/>
    <frame tileid="420" duration="150"/>
   </animation>
  </tile>
  <tile id="53">
   <animation>
    <frame tileid="53" duration="150"/>
    <frame tileid="58" duration="150"/>
    <frame tileid="63" duration="150"/>
    <frame tileid="68" duration="150"/>
    <frame tileid="73" duration="150"/>
    <frame tileid="178" duration="150"/>
    <frame tileid="183" duration="150"/>
    <frame tileid="188" duration="150"/>
    <frame tileid="193" duration="150"/>
    <frame tileid="198" duration="150"/>
    <frame tileid="303" duration="150"/>
    <frame tileid="308" duration="150"/>
    <frame tileid="313" duration="150"/>
    <frame tileid="318" duration="150"/>
    <frame tileid="323" duration="150"/>
    <frame tileid="428" duration="150"/>
    <frame tileid="433" duration="150"/>
    <frame tileid="438" duration="150"/>
    <frame tileid="446" duration="150"/>
    <frame tileid="446" duration="150"/>
    <frame tileid="446" duration="150"/>
    <frame tileid="446" duration="150"/>
    <frame tileid="446" duration="150"/>
    <frame tileid="446" duration="150"/>
   </animation>
  </tile>
  <tile id="54">
   <animation>
    <frame tileid="54" duration="150"/>
    <frame tileid="59" duration="150"/>
    <frame tileid="64" duration="150"/>
    <frame tileid="69" duration="150"/>
    <frame tileid="74" duration="150"/>
    <frame tileid="179" duration="150"/>
    <frame tileid="184" duration="150"/>
    <frame tileid="189" duration="150"/>
    <frame tileid="194" duration="150"/>
    <frame tileid="199" duration="150"/>
    <frame tileid="304" duration="150"/>
    <frame tileid="309" duration="150"/>
    <frame tileid="314" duration="150"/>
    <frame tileid="319" duration="150"/>
    <frame tileid="324" duration="150"/>
    <frame tileid="429" duration="150"/>
    <frame tileid="434" duration="150"/>
    <frame tileid="439" duration="150"/>
    <frame tileid="396" duration="150"/>
    <frame tileid="396" duration="150"/>
    <frame tileid="396" duration="150"/>
    <frame tileid="396" duration="150"/>
    <frame tileid="396" duration="150"/>
    <frame tileid="396" duration="150"/>
   </animation>
  </tile>
  <tile id="75">
   <animation>
    <frame tileid="75" duration="150"/>
    <frame tileid="80" duration="150"/>
    <frame tileid="85" duration="150"/>
    <frame tileid="90" duration="150"/>
    <frame tileid="95" duration="150"/>
    <frame tileid="200" duration="150"/>
    <frame tileid="205" duration="150"/>
    <frame tileid="210" duration="150"/>
    <frame tileid="215" duration="150"/>
    <frame tileid="220" duration="150"/>
    <frame tileid="325" duration="150"/>
    <frame tileid="330" duration="150"/>
    <frame tileid="335" duration="150"/>
    <frame tileid="340" duration="150"/>
    <frame tileid="345" duration="150"/>
    <frame tileid="450" duration="150"/>
    <frame tileid="455" duration="150"/>
    <frame tileid="460" duration="150"/>
    <frame tileid="447" duration="150"/>
    <frame tileid="447" duration="150"/>
    <frame tileid="447" duration="150"/>
    <frame tileid="447" duration="150"/>
    <frame tileid="447" duration="150"/>
    <frame tileid="447" duration="150"/>
   </animation>
  </tile>
  <tile id="76">
   <animation>
    <frame tileid="76" duration="150"/>
    <frame tileid="81" duration="150"/>
    <frame tileid="86" duration="150"/>
    <frame tileid="91" duration="150"/>
    <frame tileid="96" duration="150"/>
    <frame tileid="201" duration="150"/>
    <frame tileid="206" duration="150"/>
    <frame tileid="211" duration="150"/>
    <frame tileid="216" duration="150"/>
    <frame tileid="221" duration="150"/>
    <frame tileid="326" duration="150"/>
    <frame tileid="331" duration="150"/>
    <frame tileid="336" duration="150"/>
    <frame tileid="341" duration="150"/>
    <frame tileid="346" duration="150"/>
    <frame tileid="451" duration="150"/>
    <frame tileid="456" duration="150"/>
    <frame tileid="461" duration="150"/>
    <frame tileid="398" duration="150"/>
    <frame tileid="398" duration="150"/>
    <frame tileid="398" duration="150"/>
    <frame tileid="398" duration="150"/>
    <frame tileid="398" duration="150"/>
    <frame tileid="398" duration="150"/>
   </animation>
  </tile>
  <tile id="77">
   <animation>
    <frame tileid="77" duration="150"/>
    <frame tileid="82" duration="150"/>
    <frame tileid="87" duration="150"/>
    <frame tileid="92" duration="150"/>
    <frame tileid="97" duration="150"/>
    <frame tileid="202" duration="150"/>
    <frame tileid="207" duration="150"/>
    <frame tileid="212" duration="150"/>
    <frame tileid="217" duration="150"/>
    <frame tileid="222" duration="150"/>
    <frame tileid="327" duration="150"/>
    <frame tileid="332" duration="150"/>
    <frame tileid="337" duration="150"/>
    <frame tileid="342" duration="150"/>
    <frame tileid="347" duration="150"/>
    <frame tileid="452" duration="150"/>
    <frame tileid="457" duration="150"/>
    <frame tileid="462" duration="150"/>
    <frame tileid="420" duration="150"/>
    <frame tileid="420" duration="150"/>
    <frame tileid="420" duration="150"/>
    <frame tileid="420" duration="150"/>
    <frame tileid="420" duration="150"/>
    <frame tileid="420" duration="150"/>
   </animation>
  </tile>
  <tile id="78">
   <animation>
    <frame tileid="78" duration="150"/>
    <frame tileid="83" duration="150"/>
    <frame tileid="88" duration="150"/>
    <frame tileid="93" duration="150"/>
    <frame tileid="98" duration="150"/>
    <frame tileid="203" duration="150"/>
    <frame tileid="208" duration="150"/>
    <frame tileid="213" duration="150"/>
    <frame tileid="218" duration="150"/>
    <frame tileid="223" duration="150"/>
    <frame tileid="328" duration="150"/>
    <frame tileid="333" duration="150"/>
    <frame tileid="338" duration="150"/>
    <frame tileid="343" duration="150"/>
    <frame tileid="348" duration="150"/>
    <frame tileid="453" duration="150"/>
    <frame tileid="458" duration="150"/>
    <frame tileid="463" duration="150"/>
    <frame tileid="422" duration="150"/>
    <frame tileid="422" duration="150"/>
    <frame tileid="422" duration="150"/>
    <frame tileid="422" duration="150"/>
    <frame tileid="422" duration="150"/>
    <frame tileid="422" duration="150"/>
   </animation>
  </tile>
  <tile id="101">
   <animation>
    <frame tileid="101" duration="150"/>
    <frame tileid="106" duration="150"/>
    <frame tileid="111" duration="150"/>
    <frame tileid="116" duration="150"/>
    <frame tileid="121" duration="150"/>
    <frame tileid="226" duration="150"/>
    <frame tileid="231" duration="150"/>
    <frame tileid="236" duration="150"/>
    <frame tileid="241" duration="150"/>
    <frame tileid="246" duration="150"/>
    <frame tileid="351" duration="150"/>
    <frame tileid="356" duration="150"/>
    <frame tileid="361" duration="150"/>
    <frame tileid="366" duration="150"/>
    <frame tileid="371" duration="150"/>
    <frame tileid="476" duration="150"/>
    <frame tileid="481" duration="150"/>
    <frame tileid="486" duration="150"/>
    <frame tileid="397" duration="150"/>
    <frame tileid="397" duration="150"/>
    <frame tileid="397" duration="150"/>
    <frame tileid="397" duration="150"/>
    <frame tileid="397" duration="150"/>
    <frame tileid="397" duration="150"/>
   </animation>
  </tile>
  <tile id="102">
   <animation>
    <frame tileid="102" duration="150"/>
    <frame tileid="107" duration="150"/>
    <frame tileid="112" duration="150"/>
    <frame tileid="117" duration="150"/>
    <frame tileid="122" duration="150"/>
    <frame tileid="227" duration="150"/>
    <frame tileid="232" duration="150"/>
    <frame tileid="237" duration="150"/>
    <frame tileid="242" duration="150"/>
    <frame tileid="247" duration="150"/>
    <frame tileid="352" duration="150"/>
    <frame tileid="357" duration="150"/>
    <frame tileid="362" duration="150"/>
    <frame tileid="367" duration="150"/>
    <frame tileid="372" duration="150"/>
    <frame tileid="477" duration="150"/>
    <frame tileid="482" duration="150"/>
    <frame tileid="487" duration="150"/>
    <frame tileid="395" duration="150"/>
    <frame tileid="420" duration="150"/>
    <frame tileid="420" duration="150"/>
    <frame tileid="420" duration="150"/>
    <frame tileid="420" duration="150"/>
    <frame tileid="420" duration="150"/>
   </animation>
  </tile>
 </tileset>
 <tileset firstgid="5621" name="Dragon_child" tilewidth="16" tileheight="16" tilecount="144" columns="48">
  <image source="Dragon_child.png" width="768" height="48"/>
  <tile id="0">
   <animation>
    <frame tileid="0" duration="150"/>
    <frame tileid="4" duration="150"/>
    <frame tileid="8" duration="150"/>
    <frame tileid="12" duration="150"/>
    <frame tileid="16" duration="150"/>
    <frame tileid="20" duration="150"/>
    <frame tileid="24" duration="150"/>
    <frame tileid="28" duration="150"/>
    <frame tileid="32" duration="150"/>
    <frame tileid="36" duration="150"/>
    <frame tileid="40" duration="150"/>
    <frame tileid="44" duration="150"/>
   </animation>
  </tile>
  <tile id="1">
   <animation>
    <frame tileid="1" duration="150"/>
    <frame tileid="5" duration="150"/>
    <frame tileid="9" duration="150"/>
    <frame tileid="13" duration="150"/>
    <frame tileid="17" duration="150"/>
    <frame tileid="21" duration="150"/>
    <frame tileid="25" duration="150"/>
    <frame tileid="29" duration="150"/>
    <frame tileid="33" duration="150"/>
    <frame tileid="37" duration="150"/>
    <frame tileid="41" duration="150"/>
    <frame tileid="45" duration="150"/>
   </animation>
  </tile>
  <tile id="2">
   <animation>
    <frame tileid="2" duration="150"/>
    <frame tileid="6" duration="150"/>
    <frame tileid="10" duration="150"/>
    <frame tileid="14" duration="150"/>
    <frame tileid="18" duration="150"/>
    <frame tileid="22" duration="150"/>
    <frame tileid="26" duration="150"/>
    <frame tileid="30" duration="150"/>
    <frame tileid="34" duration="150"/>
    <frame tileid="38" duration="150"/>
    <frame tileid="42" duration="150"/>
    <frame tileid="46" duration="150"/>
   </animation>
  </tile>
  <tile id="3">
   <animation>
    <frame tileid="3" duration="150"/>
    <frame tileid="7" duration="150"/>
    <frame tileid="11" duration="150"/>
    <frame tileid="15" duration="150"/>
    <frame tileid="19" duration="150"/>
    <frame tileid="23" duration="150"/>
    <frame tileid="27" duration="150"/>
    <frame tileid="31" duration="150"/>
    <frame tileid="35" duration="150"/>
    <frame tileid="39" duration="150"/>
    <frame tileid="43" duration="150"/>
    <frame tileid="47" duration="150"/>
   </animation>
  </tile>
  <tile id="48">
   <animation>
    <frame tileid="48" duration="150"/>
    <frame tileid="52" duration="150"/>
    <frame tileid="56" duration="150"/>
    <frame tileid="60" duration="150"/>
    <frame tileid="64" duration="150"/>
    <frame tileid="68" duration="150"/>
    <frame tileid="72" duration="150"/>
    <frame tileid="76" duration="150"/>
    <frame tileid="80" duration="150"/>
    <frame tileid="84" duration="150"/>
    <frame tileid="88" duration="150"/>
    <frame tileid="92" duration="150"/>
   </animation>
  </tile>
  <tile id="49">
   <animation>
    <frame tileid="49" duration="150"/>
    <frame tileid="53" duration="150"/>
    <frame tileid="57" duration="150"/>
    <frame tileid="61" duration="150"/>
    <frame tileid="65" duration="150"/>
    <frame tileid="69" duration="150"/>
    <frame tileid="73" duration="150"/>
    <frame tileid="77" duration="150"/>
    <frame tileid="81" duration="150"/>
    <frame tileid="85" duration="150"/>
    <frame tileid="89" duration="150"/>
    <frame tileid="93" duration="150"/>
   </animation>
  </tile>
  <tile id="50">
   <animation>
    <frame tileid="50" duration="150"/>
    <frame tileid="54" duration="150"/>
    <frame tileid="58" duration="150"/>
    <frame tileid="62" duration="150"/>
    <frame tileid="66" duration="150"/>
    <frame tileid="70" duration="150"/>
    <frame tileid="74" duration="150"/>
    <frame tileid="78" duration="150"/>
    <frame tileid="82" duration="150"/>
    <frame tileid="86" duration="150"/>
    <frame tileid="90" duration="150"/>
    <frame tileid="94" duration="150"/>
   </animation>
  </tile>
  <tile id="51">
   <animation>
    <frame tileid="51" duration="150"/>
    <frame tileid="55" duration="150"/>
    <frame tileid="59" duration="150"/>
    <frame tileid="63" duration="150"/>
    <frame tileid="67" duration="150"/>
    <frame tileid="71" duration="150"/>
    <frame tileid="75" duration="150"/>
    <frame tileid="79" duration="150"/>
    <frame tileid="83" duration="150"/>
    <frame tileid="87" duration="150"/>
    <frame tileid="91" duration="150"/>
    <frame tileid="95" duration="150"/>
   </animation>
  </tile>
  <tile id="96">
   <animation>
    <frame tileid="96" duration="150"/>
    <frame tileid="100" duration="150"/>
    <frame tileid="104" duration="150"/>
    <frame tileid="108" duration="150"/>
    <frame tileid="112" duration="150"/>
    <frame tileid="116" duration="150"/>
    <frame tileid="120" duration="150"/>
    <frame tileid="124" duration="150"/>
    <frame tileid="128" duration="150"/>
    <frame tileid="132" duration="150"/>
    <frame tileid="136" duration="150"/>
    <frame tileid="140" duration="150"/>
   </animation>
  </tile>
  <tile id="97">
   <animation>
    <frame tileid="97" duration="150"/>
    <frame tileid="101" duration="150"/>
    <frame tileid="105" duration="150"/>
    <frame tileid="109" duration="150"/>
    <frame tileid="113" duration="150"/>
    <frame tileid="117" duration="150"/>
    <frame tileid="121" duration="150"/>
    <frame tileid="125" duration="150"/>
    <frame tileid="129" duration="150"/>
    <frame tileid="133" duration="150"/>
    <frame tileid="137" duration="150"/>
    <frame tileid="141" duration="150"/>
   </animation>
  </tile>
  <tile id="98">
   <animation>
    <frame tileid="98" duration="150"/>
    <frame tileid="102" duration="150"/>
    <frame tileid="106" duration="150"/>
    <frame tileid="110" duration="150"/>
    <frame tileid="114" duration="150"/>
    <frame tileid="118" duration="150"/>
    <frame tileid="122" duration="150"/>
    <frame tileid="126" duration="150"/>
    <frame tileid="130" duration="150"/>
    <frame tileid="134" duration="150"/>
    <frame tileid="138" duration="150"/>
    <frame tileid="142" duration="150"/>
   </animation>
  </tile>
  <tile id="99">
   <animation>
    <frame tileid="99" duration="150"/>
    <frame tileid="103" duration="150"/>
    <frame tileid="107" duration="150"/>
    <frame tileid="111" duration="150"/>
    <frame tileid="115" duration="150"/>
    <frame tileid="119" duration="150"/>
    <frame tileid="123" duration="150"/>
    <frame tileid="127" duration="150"/>
    <frame tileid="131" duration="150"/>
    <frame tileid="135" duration="150"/>
    <frame tileid="139" duration="150"/>
    <frame tileid="143" duration="150"/>
   </animation>
  </tile>
 </tileset>
 <tileset firstgid="5765" name="Dragon_child" tilewidth="16" tileheight="16" tilecount="144" columns="48">
  <image source="Dragon_child_without_shadow.png" width="768" height="48"/>
  <tile id="0">
   <animation>
    <frame tileid="0" duration="150"/>
    <frame tileid="4" duration="150"/>
    <frame tileid="8" duration="150"/>
    <frame tileid="12" duration="150"/>
    <frame tileid="16" duration="150"/>
    <frame tileid="20" duration="150"/>
    <frame tileid="24" duration="150"/>
    <frame tileid="28" duration="150"/>
    <frame tileid="32" duration="150"/>
    <frame tileid="36" duration="150"/>
    <frame tileid="40" duration="150"/>
    <frame tileid="44" duration="150"/>
   </animation>
  </tile>
  <tile id="1">
   <animation>
    <frame tileid="1" duration="150"/>
    <frame tileid="5" duration="150"/>
    <frame tileid="9" duration="150"/>
    <frame tileid="13" duration="150"/>
    <frame tileid="17" duration="150"/>
    <frame tileid="21" duration="150"/>
    <frame tileid="25" duration="150"/>
    <frame tileid="29" duration="150"/>
    <frame tileid="33" duration="150"/>
    <frame tileid="37" duration="150"/>
    <frame tileid="41" duration="150"/>
    <frame tileid="45" duration="150"/>
   </animation>
  </tile>
  <tile id="2">
   <animation>
    <frame tileid="2" duration="150"/>
    <frame tileid="6" duration="150"/>
    <frame tileid="10" duration="150"/>
    <frame tileid="14" duration="150"/>
    <frame tileid="18" duration="150"/>
    <frame tileid="22" duration="150"/>
    <frame tileid="26" duration="150"/>
    <frame tileid="30" duration="150"/>
    <frame tileid="34" duration="150"/>
    <frame tileid="38" duration="150"/>
    <frame tileid="42" duration="150"/>
    <frame tileid="46" duration="150"/>
   </animation>
  </tile>
  <tile id="3">
   <animation>
    <frame tileid="3" duration="150"/>
    <frame tileid="7" duration="150"/>
    <frame tileid="11" duration="150"/>
    <frame tileid="15" duration="150"/>
    <frame tileid="19" duration="150"/>
    <frame tileid="23" duration="150"/>
    <frame tileid="27" duration="150"/>
    <frame tileid="31" duration="150"/>
    <frame tileid="35" duration="150"/>
    <frame tileid="39" duration="150"/>
    <frame tileid="43" duration="150"/>
    <frame tileid="47" duration="150"/>
   </animation>
  </tile>
  <tile id="48">
   <animation>
    <frame tileid="48" duration="150"/>
    <frame tileid="52" duration="150"/>
    <frame tileid="56" duration="150"/>
    <frame tileid="60" duration="150"/>
    <frame tileid="64" duration="150"/>
    <frame tileid="68" duration="150"/>
    <frame tileid="72" duration="150"/>
    <frame tileid="76" duration="150"/>
    <frame tileid="80" duration="150"/>
    <frame tileid="84" duration="150"/>
    <frame tileid="88" duration="150"/>
    <frame tileid="92" duration="150"/>
   </animation>
  </tile>
  <tile id="49">
   <animation>
    <frame tileid="49" duration="150"/>
    <frame tileid="53" duration="150"/>
    <frame tileid="57" duration="150"/>
    <frame tileid="61" duration="150"/>
    <frame tileid="65" duration="150"/>
    <frame tileid="69" duration="150"/>
    <frame tileid="73" duration="150"/>
    <frame tileid="77" duration="150"/>
    <frame tileid="81" duration="150"/>
    <frame tileid="85" duration="150"/>
    <frame tileid="89" duration="150"/>
    <frame tileid="93" duration="150"/>
   </animation>
  </tile>
  <tile id="50">
   <animation>
    <frame tileid="50" duration="150"/>
    <frame tileid="54" duration="150"/>
    <frame tileid="58" duration="150"/>
    <frame tileid="62" duration="150"/>
    <frame tileid="66" duration="150"/>
    <frame tileid="70" duration="150"/>
    <frame tileid="74" duration="150"/>
    <frame tileid="78" duration="150"/>
    <frame tileid="82" duration="150"/>
    <frame tileid="86" duration="150"/>
    <frame tileid="90" duration="150"/>
    <frame tileid="94" duration="150"/>
   </animation>
  </tile>
  <tile id="51">
   <animation>
    <frame tileid="51" duration="150"/>
    <frame tileid="55" duration="150"/>
    <frame tileid="59" duration="150"/>
    <frame tileid="63" duration="150"/>
    <frame tileid="67" duration="150"/>
    <frame tileid="71" duration="150"/>
    <frame tileid="75" duration="150"/>
    <frame tileid="79" duration="150"/>
    <frame tileid="83" duration="150"/>
    <frame tileid="87" duration="150"/>
    <frame tileid="91" duration="150"/>
    <frame tileid="95" duration="150"/>
   </animation>
  </tile>
  <tile id="96">
   <animation>
    <frame tileid="96" duration="150"/>
    <frame tileid="100" duration="150"/>
    <frame tileid="104" duration="150"/>
    <frame tileid="108" duration="150"/>
    <frame tileid="112" duration="150"/>
    <frame tileid="116" duration="150"/>
    <frame tileid="120" duration="150"/>
    <frame tileid="124" duration="150"/>
    <frame tileid="128" duration="150"/>
    <frame tileid="132" duration="150"/>
    <frame tileid="136" duration="150"/>
    <frame tileid="140" duration="150"/>
   </animation>
  </tile>
  <tile id="97">
   <animation>
    <frame tileid="97" duration="150"/>
    <frame tileid="101" duration="150"/>
    <frame tileid="105" duration="150"/>
    <frame tileid="109" duration="150"/>
    <frame tileid="113" duration="150"/>
    <frame tileid="117" duration="150"/>
    <frame tileid="121" duration="150"/>
    <frame tileid="125" duration="150"/>
    <frame tileid="129" duration="150"/>
    <frame tileid="133" duration="150"/>
    <frame tileid="137" duration="150"/>
    <frame tileid="141" duration="150"/>
   </animation>
  </tile>
  <tile id="98">
   <animation>
    <frame tileid="98" duration="150"/>
    <frame tileid="102" duration="150"/>
    <frame tileid="106" duration="150"/>
    <frame tileid="110" duration="150"/>
    <frame tileid="114" duration="150"/>
    <frame tileid="118" duration="150"/>
    <frame tileid="122" duration="150"/>
    <frame tileid="126" duration="150"/>
    <frame tileid="130" duration="150"/>
    <frame tileid="134" duration="150"/>
    <frame tileid="138" duration="150"/>
    <frame tileid="142" duration="150"/>
   </animation>
  </tile>
  <tile id="99">
   <animation>
    <frame tileid="99" duration="150"/>
    <frame tileid="103" duration="150"/>
    <frame tileid="107" duration="150"/>
    <frame tileid="111" duration="150"/>
    <frame tileid="115" duration="150"/>
    <frame tileid="119" duration="150"/>
    <frame tileid="123" duration="150"/>
    <frame tileid="127" duration="150"/>
    <frame tileid="131" duration="150"/>
    <frame tileid="135" duration="150"/>
    <frame tileid="139" duration="150"/>
    <frame tileid="143" duration="150"/>
   </animation>
  </tile>
 </tileset>
 <tileset firstgid="5909" name="Dragon_child_shadow" tilewidth="16" tileheight="16" tilecount="8" columns="4">
  <image source="Dragon_child_shadow.png" width="64" height="32"/>
 </tileset>
 <tileset firstgid="5917" name="Mage1" tilewidth="16" tileheight="16" tilecount="144" columns="48">
  <image source="Mage1_fit2.png" width="768" height="48"/>
  <tile id="0">
   <animation>
    <frame tileid="0" duration="150"/>
    <frame tileid="2" duration="150"/>
    <frame tileid="4" duration="150"/>
    <frame tileid="6" duration="150"/>
    <frame tileid="8" duration="150"/>
    <frame tileid="10" duration="150"/>
    <frame tileid="12" duration="150"/>
    <frame tileid="14" duration="150"/>
    <frame tileid="16" duration="150"/>
    <frame tileid="18" duration="150"/>
    <frame tileid="20" duration="150"/>
    <frame tileid="22" duration="150"/>
    <frame tileid="24" duration="150"/>
    <frame tileid="26" duration="150"/>
    <frame tileid="28" duration="150"/>
    <frame tileid="30" duration="150"/>
    <frame tileid="32" duration="150"/>
    <frame tileid="34" duration="150"/>
    <frame tileid="36" duration="150"/>
    <frame tileid="38" duration="150"/>
    <frame tileid="40" duration="150"/>
    <frame tileid="42" duration="150"/>
    <frame tileid="44" duration="150"/>
    <frame tileid="46" duration="150"/>
   </animation>
  </tile>
  <tile id="1">
   <animation>
    <frame tileid="1" duration="150"/>
    <frame tileid="3" duration="150"/>
    <frame tileid="5" duration="150"/>
    <frame tileid="7" duration="150"/>
    <frame tileid="9" duration="150"/>
    <frame tileid="11" duration="150"/>
    <frame tileid="13" duration="150"/>
    <frame tileid="15" duration="150"/>
    <frame tileid="17" duration="150"/>
    <frame tileid="19" duration="150"/>
    <frame tileid="21" duration="150"/>
    <frame tileid="23" duration="150"/>
    <frame tileid="25" duration="150"/>
    <frame tileid="27" duration="150"/>
    <frame tileid="29" duration="150"/>
    <frame tileid="31" duration="150"/>
    <frame tileid="33" duration="150"/>
    <frame tileid="35" duration="150"/>
    <frame tileid="37" duration="150"/>
    <frame tileid="39" duration="150"/>
    <frame tileid="41" duration="150"/>
    <frame tileid="43" duration="150"/>
    <frame tileid="45" duration="150"/>
    <frame tileid="47" duration="150"/>
   </animation>
  </tile>
  <tile id="48">
   <animation>
    <frame tileid="48" duration="150"/>
    <frame tileid="50" duration="150"/>
    <frame tileid="52" duration="150"/>
    <frame tileid="54" duration="150"/>
    <frame tileid="56" duration="150"/>
    <frame tileid="58" duration="150"/>
    <frame tileid="60" duration="150"/>
    <frame tileid="62" duration="150"/>
    <frame tileid="64" duration="150"/>
    <frame tileid="66" duration="150"/>
    <frame tileid="68" duration="150"/>
    <frame tileid="70" duration="150"/>
    <frame tileid="72" duration="150"/>
    <frame tileid="74" duration="150"/>
    <frame tileid="76" duration="150"/>
    <frame tileid="78" duration="150"/>
    <frame tileid="80" duration="150"/>
    <frame tileid="82" duration="150"/>
    <frame tileid="84" duration="150"/>
    <frame tileid="86" duration="150"/>
    <frame tileid="88" duration="150"/>
    <frame tileid="90" duration="150"/>
    <frame tileid="92" duration="150"/>
    <frame tileid="94" duration="150"/>
   </animation>
  </tile>
  <tile id="49">
   <animation>
    <frame tileid="49" duration="150"/>
    <frame tileid="51" duration="150"/>
    <frame tileid="53" duration="150"/>
    <frame tileid="55" duration="150"/>
    <frame tileid="57" duration="150"/>
    <frame tileid="59" duration="150"/>
    <frame tileid="61" duration="150"/>
    <frame tileid="63" duration="150"/>
    <frame tileid="65" duration="150"/>
    <frame tileid="67" duration="150"/>
    <frame tileid="69" duration="150"/>
    <frame tileid="71" duration="150"/>
    <frame tileid="73" duration="150"/>
    <frame tileid="75" duration="150"/>
    <frame tileid="77" duration="150"/>
    <frame tileid="79" duration="150"/>
    <frame tileid="81" duration="150"/>
    <frame tileid="83" duration="150"/>
    <frame tileid="85" duration="150"/>
    <frame tileid="87" duration="150"/>
    <frame tileid="89" duration="150"/>
    <frame tileid="91" duration="150"/>
    <frame tileid="93" duration="150"/>
    <frame tileid="95" duration="150"/>
   </animation>
  </tile>
  <tile id="96">
   <animation>
    <frame tileid="96" duration="150"/>
    <frame tileid="98" duration="150"/>
    <frame tileid="100" duration="150"/>
    <frame tileid="102" duration="150"/>
    <frame tileid="104" duration="150"/>
    <frame tileid="106" duration="150"/>
    <frame tileid="108" duration="150"/>
    <frame tileid="110" duration="150"/>
    <frame tileid="112" duration="150"/>
    <frame tileid="114" duration="150"/>
    <frame tileid="116" duration="150"/>
    <frame tileid="118" duration="150"/>
    <frame tileid="120" duration="150"/>
    <frame tileid="122" duration="150"/>
    <frame tileid="124" duration="150"/>
    <frame tileid="126" duration="150"/>
    <frame tileid="128" duration="150"/>
    <frame tileid="130" duration="150"/>
    <frame tileid="132" duration="150"/>
    <frame tileid="134" duration="150"/>
    <frame tileid="136" duration="150"/>
    <frame tileid="138" duration="150"/>
    <frame tileid="140" duration="150"/>
    <frame tileid="142" duration="150"/>
   </animation>
  </tile>
  <tile id="97">
   <animation>
    <frame tileid="97" duration="150"/>
    <frame tileid="99" duration="150"/>
    <frame tileid="101" duration="150"/>
    <frame tileid="103" duration="150"/>
    <frame tileid="105" duration="150"/>
    <frame tileid="107" duration="150"/>
    <frame tileid="109" duration="150"/>
    <frame tileid="111" duration="150"/>
    <frame tileid="113" duration="150"/>
    <frame tileid="115" duration="150"/>
    <frame tileid="117" duration="150"/>
    <frame tileid="119" duration="150"/>
    <frame tileid="121" duration="150"/>
    <frame tileid="123" duration="150"/>
    <frame tileid="125" duration="150"/>
    <frame tileid="127" duration="150"/>
    <frame tileid="129" duration="150"/>
    <frame tileid="131" duration="150"/>
    <frame tileid="133" duration="150"/>
    <frame tileid="135" duration="150"/>
    <frame tileid="137" duration="150"/>
    <frame tileid="139" duration="150"/>
    <frame tileid="141" duration="150"/>
    <frame tileid="143" duration="150"/>
   </animation>
  </tile>
 </tileset>
 <tileset firstgid="6061" name="Mage1" tilewidth="16" tileheight="16" tilecount="144" columns="48">
  <image source="Mage1.png" width="768" height="48"/>
  <tile id="0">
   <animation>
    <frame tileid="0" duration="150"/>
    <frame tileid="2" duration="150"/>
    <frame tileid="4" duration="150"/>
    <frame tileid="6" duration="150"/>
    <frame tileid="8" duration="150"/>
    <frame tileid="10" duration="150"/>
    <frame tileid="12" duration="150"/>
    <frame tileid="14" duration="150"/>
    <frame tileid="16" duration="150"/>
    <frame tileid="18" duration="150"/>
    <frame tileid="20" duration="150"/>
    <frame tileid="22" duration="150"/>
    <frame tileid="24" duration="150"/>
    <frame tileid="26" duration="150"/>
    <frame tileid="28" duration="150"/>
    <frame tileid="30" duration="150"/>
    <frame tileid="32" duration="150"/>
    <frame tileid="34" duration="150"/>
    <frame tileid="36" duration="150"/>
    <frame tileid="38" duration="150"/>
    <frame tileid="40" duration="150"/>
    <frame tileid="42" duration="150"/>
    <frame tileid="44" duration="150"/>
    <frame tileid="46" duration="150"/>
   </animation>
  </tile>
  <tile id="1">
   <animation>
    <frame tileid="1" duration="150"/>
    <frame tileid="3" duration="150"/>
    <frame tileid="5" duration="150"/>
    <frame tileid="7" duration="150"/>
    <frame tileid="9" duration="150"/>
    <frame tileid="11" duration="150"/>
    <frame tileid="13" duration="150"/>
    <frame tileid="15" duration="150"/>
    <frame tileid="17" duration="150"/>
    <frame tileid="19" duration="150"/>
    <frame tileid="21" duration="150"/>
    <frame tileid="23" duration="150"/>
    <frame tileid="25" duration="150"/>
    <frame tileid="27" duration="150"/>
    <frame tileid="29" duration="150"/>
    <frame tileid="31" duration="150"/>
    <frame tileid="33" duration="150"/>
    <frame tileid="35" duration="150"/>
    <frame tileid="37" duration="150"/>
    <frame tileid="39" duration="150"/>
    <frame tileid="41" duration="150"/>
    <frame tileid="43" duration="150"/>
    <frame tileid="45" duration="150"/>
    <frame tileid="47" duration="150"/>
   </animation>
  </tile>
  <tile id="48">
   <animation>
    <frame tileid="48" duration="150"/>
    <frame tileid="50" duration="150"/>
    <frame tileid="52" duration="150"/>
    <frame tileid="54" duration="150"/>
    <frame tileid="56" duration="150"/>
    <frame tileid="58" duration="150"/>
    <frame tileid="60" duration="150"/>
    <frame tileid="62" duration="150"/>
    <frame tileid="64" duration="150"/>
    <frame tileid="66" duration="150"/>
    <frame tileid="68" duration="150"/>
    <frame tileid="70" duration="150"/>
    <frame tileid="72" duration="150"/>
    <frame tileid="74" duration="150"/>
    <frame tileid="76" duration="150"/>
    <frame tileid="78" duration="150"/>
    <frame tileid="80" duration="150"/>
    <frame tileid="82" duration="150"/>
    <frame tileid="84" duration="150"/>
    <frame tileid="86" duration="150"/>
    <frame tileid="88" duration="150"/>
    <frame tileid="90" duration="150"/>
    <frame tileid="92" duration="150"/>
    <frame tileid="94" duration="150"/>
   </animation>
  </tile>
  <tile id="49">
   <animation>
    <frame tileid="49" duration="150"/>
    <frame tileid="51" duration="150"/>
    <frame tileid="53" duration="150"/>
    <frame tileid="55" duration="150"/>
    <frame tileid="57" duration="150"/>
    <frame tileid="59" duration="150"/>
    <frame tileid="61" duration="150"/>
    <frame tileid="63" duration="150"/>
    <frame tileid="65" duration="150"/>
    <frame tileid="67" duration="150"/>
    <frame tileid="69" duration="150"/>
    <frame tileid="71" duration="150"/>
    <frame tileid="73" duration="150"/>
    <frame tileid="75" duration="150"/>
    <frame tileid="77" duration="150"/>
    <frame tileid="79" duration="150"/>
    <frame tileid="81" duration="150"/>
    <frame tileid="83" duration="150"/>
    <frame tileid="85" duration="150"/>
    <frame tileid="87" duration="150"/>
    <frame tileid="89" duration="150"/>
    <frame tileid="91" duration="150"/>
    <frame tileid="93" duration="150"/>
    <frame tileid="95" duration="150"/>
   </animation>
  </tile>
  <tile id="96">
   <animation>
    <frame tileid="96" duration="150"/>
    <frame tileid="98" duration="150"/>
    <frame tileid="100" duration="150"/>
    <frame tileid="102" duration="150"/>
    <frame tileid="104" duration="150"/>
    <frame tileid="106" duration="150"/>
    <frame tileid="108" duration="150"/>
    <frame tileid="110" duration="150"/>
    <frame tileid="112" duration="150"/>
    <frame tileid="114" duration="150"/>
    <frame tileid="116" duration="150"/>
    <frame tileid="118" duration="150"/>
    <frame tileid="120" duration="150"/>
    <frame tileid="122" duration="150"/>
    <frame tileid="124" duration="150"/>
    <frame tileid="126" duration="150"/>
    <frame tileid="128" duration="150"/>
    <frame tileid="130" duration="150"/>
    <frame tileid="132" duration="150"/>
    <frame tileid="134" duration="150"/>
    <frame tileid="136" duration="150"/>
    <frame tileid="138" duration="150"/>
    <frame tileid="140" duration="150"/>
    <frame tileid="142" duration="150"/>
   </animation>
  </tile>
  <tile id="97">
   <animation>
    <frame tileid="97" duration="150"/>
    <frame tileid="99" duration="150"/>
    <frame tileid="101" duration="150"/>
    <frame tileid="103" duration="150"/>
    <frame tileid="105" duration="150"/>
    <frame tileid="107" duration="150"/>
    <frame tileid="109" duration="150"/>
    <frame tileid="111" duration="150"/>
    <frame tileid="113" duration="150"/>
    <frame tileid="115" duration="150"/>
    <frame tileid="117" duration="150"/>
    <frame tileid="119" duration="150"/>
    <frame tileid="121" duration="150"/>
    <frame tileid="123" duration="150"/>
    <frame tileid="125" duration="150"/>
    <frame tileid="127" duration="150"/>
    <frame tileid="129" duration="150"/>
    <frame tileid="131" duration="150"/>
    <frame tileid="133" duration="150"/>
    <frame tileid="135" duration="150"/>
    <frame tileid="137" duration="150"/>
    <frame tileid="139" duration="150"/>
    <frame tileid="141" duration="150"/>
    <frame tileid="143" duration="150"/>
   </animation>
  </tile>
 </tileset>
 <tileset firstgid="6205" name="Mage1" tilewidth="16" tileheight="16" tilecount="144" columns="48">
  <image source="Mage2.png" width="768" height="48"/>
  <tile id="0">
   <animation>
    <frame tileid="0" duration="150"/>
    <frame tileid="2" duration="150"/>
    <frame tileid="4" duration="150"/>
    <frame tileid="6" duration="150"/>
    <frame tileid="8" duration="150"/>
    <frame tileid="10" duration="150"/>
    <frame tileid="12" duration="150"/>
    <frame tileid="14" duration="150"/>
    <frame tileid="16" duration="150"/>
    <frame tileid="18" duration="150"/>
    <frame tileid="20" duration="150"/>
    <frame tileid="22" duration="150"/>
    <frame tileid="24" duration="150"/>
    <frame tileid="26" duration="150"/>
    <frame tileid="28" duration="150"/>
    <frame tileid="30" duration="150"/>
    <frame tileid="32" duration="150"/>
    <frame tileid="34" duration="150"/>
    <frame tileid="36" duration="150"/>
    <frame tileid="38" duration="150"/>
    <frame tileid="40" duration="150"/>
    <frame tileid="42" duration="150"/>
    <frame tileid="44" duration="150"/>
    <frame tileid="46" duration="150"/>
   </animation>
  </tile>
  <tile id="1">
   <animation>
    <frame tileid="1" duration="150"/>
    <frame tileid="3" duration="150"/>
    <frame tileid="5" duration="150"/>
    <frame tileid="7" duration="150"/>
    <frame tileid="9" duration="150"/>
    <frame tileid="11" duration="150"/>
    <frame tileid="13" duration="150"/>
    <frame tileid="15" duration="150"/>
    <frame tileid="17" duration="150"/>
    <frame tileid="19" duration="150"/>
    <frame tileid="21" duration="150"/>
    <frame tileid="23" duration="150"/>
    <frame tileid="25" duration="150"/>
    <frame tileid="27" duration="150"/>
    <frame tileid="29" duration="150"/>
    <frame tileid="31" duration="150"/>
    <frame tileid="33" duration="150"/>
    <frame tileid="35" duration="150"/>
    <frame tileid="37" duration="150"/>
    <frame tileid="39" duration="150"/>
    <frame tileid="41" duration="150"/>
    <frame tileid="43" duration="150"/>
    <frame tileid="45" duration="150"/>
    <frame tileid="47" duration="150"/>
   </animation>
  </tile>
  <tile id="48">
   <animation>
    <frame tileid="48" duration="150"/>
    <frame tileid="50" duration="150"/>
    <frame tileid="52" duration="150"/>
    <frame tileid="54" duration="150"/>
    <frame tileid="56" duration="150"/>
    <frame tileid="58" duration="150"/>
    <frame tileid="60" duration="150"/>
    <frame tileid="62" duration="150"/>
    <frame tileid="64" duration="150"/>
    <frame tileid="66" duration="150"/>
    <frame tileid="68" duration="150"/>
    <frame tileid="70" duration="150"/>
    <frame tileid="72" duration="150"/>
    <frame tileid="74" duration="150"/>
    <frame tileid="76" duration="150"/>
    <frame tileid="78" duration="150"/>
    <frame tileid="80" duration="150"/>
    <frame tileid="82" duration="150"/>
    <frame tileid="84" duration="150"/>
    <frame tileid="86" duration="150"/>
    <frame tileid="88" duration="150"/>
    <frame tileid="90" duration="150"/>
    <frame tileid="92" duration="150"/>
    <frame tileid="94" duration="150"/>
   </animation>
  </tile>
  <tile id="49">
   <animation>
    <frame tileid="49" duration="150"/>
    <frame tileid="51" duration="150"/>
    <frame tileid="53" duration="150"/>
    <frame tileid="55" duration="150"/>
    <frame tileid="57" duration="150"/>
    <frame tileid="59" duration="150"/>
    <frame tileid="61" duration="150"/>
    <frame tileid="63" duration="150"/>
    <frame tileid="65" duration="150"/>
    <frame tileid="67" duration="150"/>
    <frame tileid="69" duration="150"/>
    <frame tileid="71" duration="150"/>
    <frame tileid="73" duration="150"/>
    <frame tileid="75" duration="150"/>
    <frame tileid="77" duration="150"/>
    <frame tileid="79" duration="150"/>
    <frame tileid="81" duration="150"/>
    <frame tileid="83" duration="150"/>
    <frame tileid="85" duration="150"/>
    <frame tileid="87" duration="150"/>
    <frame tileid="89" duration="150"/>
    <frame tileid="91" duration="150"/>
    <frame tileid="93" duration="150"/>
    <frame tileid="95" duration="150"/>
   </animation>
  </tile>
  <tile id="96">
   <animation>
    <frame tileid="96" duration="150"/>
    <frame tileid="98" duration="150"/>
    <frame tileid="100" duration="150"/>
    <frame tileid="102" duration="150"/>
    <frame tileid="104" duration="150"/>
    <frame tileid="106" duration="150"/>
    <frame tileid="108" duration="150"/>
    <frame tileid="110" duration="150"/>
    <frame tileid="112" duration="150"/>
    <frame tileid="114" duration="150"/>
    <frame tileid="116" duration="150"/>
    <frame tileid="118" duration="150"/>
    <frame tileid="120" duration="150"/>
    <frame tileid="122" duration="150"/>
    <frame tileid="124" duration="150"/>
    <frame tileid="126" duration="150"/>
    <frame tileid="128" duration="150"/>
    <frame tileid="130" duration="150"/>
    <frame tileid="132" duration="150"/>
    <frame tileid="134" duration="150"/>
    <frame tileid="136" duration="150"/>
    <frame tileid="138" duration="150"/>
    <frame tileid="140" duration="150"/>
    <frame tileid="142" duration="150"/>
   </animation>
  </tile>
  <tile id="97">
   <animation>
    <frame tileid="97" duration="150"/>
    <frame tileid="99" duration="150"/>
    <frame tileid="101" duration="150"/>
    <frame tileid="103" duration="150"/>
    <frame tileid="105" duration="150"/>
    <frame tileid="107" duration="150"/>
    <frame tileid="109" duration="150"/>
    <frame tileid="111" duration="150"/>
    <frame tileid="113" duration="150"/>
    <frame tileid="115" duration="150"/>
    <frame tileid="117" duration="150"/>
    <frame tileid="119" duration="150"/>
    <frame tileid="121" duration="150"/>
    <frame tileid="123" duration="150"/>
    <frame tileid="125" duration="150"/>
    <frame tileid="127" duration="150"/>
    <frame tileid="129" duration="150"/>
    <frame tileid="131" duration="150"/>
    <frame tileid="133" duration="150"/>
    <frame tileid="135" duration="150"/>
    <frame tileid="137" duration="150"/>
    <frame tileid="139" duration="150"/>
    <frame tileid="141" duration="150"/>
    <frame tileid="143" duration="150"/>
   </animation>
  </tile>
 </tileset>
 <tileset firstgid="6349" name="Mage1" tilewidth="16" tileheight="16" tilecount="144" columns="48">
  <image source="Mage2_without_shadow.png" width="768" height="48"/>
  <tile id="0">
   <animation>
    <frame tileid="0" duration="150"/>
    <frame tileid="2" duration="150"/>
    <frame tileid="4" duration="150"/>
    <frame tileid="6" duration="150"/>
    <frame tileid="8" duration="150"/>
    <frame tileid="10" duration="150"/>
    <frame tileid="12" duration="150"/>
    <frame tileid="14" duration="150"/>
    <frame tileid="16" duration="150"/>
    <frame tileid="18" duration="150"/>
    <frame tileid="20" duration="150"/>
    <frame tileid="22" duration="150"/>
    <frame tileid="24" duration="150"/>
    <frame tileid="26" duration="150"/>
    <frame tileid="28" duration="150"/>
    <frame tileid="30" duration="150"/>
    <frame tileid="32" duration="150"/>
    <frame tileid="34" duration="150"/>
    <frame tileid="36" duration="150"/>
    <frame tileid="38" duration="150"/>
    <frame tileid="40" duration="150"/>
    <frame tileid="42" duration="150"/>
    <frame tileid="44" duration="150"/>
    <frame tileid="46" duration="150"/>
   </animation>
  </tile>
  <tile id="1">
   <animation>
    <frame tileid="1" duration="150"/>
    <frame tileid="3" duration="150"/>
    <frame tileid="5" duration="150"/>
    <frame tileid="7" duration="150"/>
    <frame tileid="9" duration="150"/>
    <frame tileid="11" duration="150"/>
    <frame tileid="13" duration="150"/>
    <frame tileid="15" duration="150"/>
    <frame tileid="17" duration="150"/>
    <frame tileid="19" duration="150"/>
    <frame tileid="21" duration="150"/>
    <frame tileid="23" duration="150"/>
    <frame tileid="25" duration="150"/>
    <frame tileid="27" duration="150"/>
    <frame tileid="29" duration="150"/>
    <frame tileid="31" duration="150"/>
    <frame tileid="33" duration="150"/>
    <frame tileid="35" duration="150"/>
    <frame tileid="37" duration="150"/>
    <frame tileid="39" duration="150"/>
    <frame tileid="41" duration="150"/>
    <frame tileid="43" duration="150"/>
    <frame tileid="45" duration="150"/>
    <frame tileid="47" duration="150"/>
   </animation>
  </tile>
  <tile id="48">
   <animation>
    <frame tileid="48" duration="150"/>
    <frame tileid="50" duration="150"/>
    <frame tileid="52" duration="150"/>
    <frame tileid="54" duration="150"/>
    <frame tileid="56" duration="150"/>
    <frame tileid="58" duration="150"/>
    <frame tileid="60" duration="150"/>
    <frame tileid="62" duration="150"/>
    <frame tileid="64" duration="150"/>
    <frame tileid="66" duration="150"/>
    <frame tileid="68" duration="150"/>
    <frame tileid="70" duration="150"/>
    <frame tileid="72" duration="150"/>
    <frame tileid="74" duration="150"/>
    <frame tileid="76" duration="150"/>
    <frame tileid="78" duration="150"/>
    <frame tileid="80" duration="150"/>
    <frame tileid="82" duration="150"/>
    <frame tileid="84" duration="150"/>
    <frame tileid="86" duration="150"/>
    <frame tileid="88" duration="150"/>
    <frame tileid="90" duration="150"/>
    <frame tileid="92" duration="150"/>
    <frame tileid="94" duration="150"/>
   </animation>
  </tile>
  <tile id="49">
   <animation>
    <frame tileid="49" duration="150"/>
    <frame tileid="51" duration="150"/>
    <frame tileid="53" duration="150"/>
    <frame tileid="55" duration="150"/>
    <frame tileid="57" duration="150"/>
    <frame tileid="59" duration="150"/>
    <frame tileid="61" duration="150"/>
    <frame tileid="63" duration="150"/>
    <frame tileid="65" duration="150"/>
    <frame tileid="67" duration="150"/>
    <frame tileid="69" duration="150"/>
    <frame tileid="71" duration="150"/>
    <frame tileid="73" duration="150"/>
    <frame tileid="75" duration="150"/>
    <frame tileid="77" duration="150"/>
    <frame tileid="79" duration="150"/>
    <frame tileid="81" duration="150"/>
    <frame tileid="83" duration="150"/>
    <frame tileid="85" duration="150"/>
    <frame tileid="87" duration="150"/>
    <frame tileid="89" duration="150"/>
    <frame tileid="91" duration="150"/>
    <frame tileid="93" duration="150"/>
    <frame tileid="95" duration="150"/>
   </animation>
  </tile>
  <tile id="96">
   <animation>
    <frame tileid="96" duration="150"/>
    <frame tileid="98" duration="150"/>
    <frame tileid="100" duration="150"/>
    <frame tileid="102" duration="150"/>
    <frame tileid="104" duration="150"/>
    <frame tileid="106" duration="150"/>
    <frame tileid="108" duration="150"/>
    <frame tileid="110" duration="150"/>
    <frame tileid="112" duration="150"/>
    <frame tileid="114" duration="150"/>
    <frame tileid="116" duration="150"/>
    <frame tileid="118" duration="150"/>
    <frame tileid="120" duration="150"/>
    <frame tileid="122" duration="150"/>
    <frame tileid="124" duration="150"/>
    <frame tileid="126" duration="150"/>
    <frame tileid="128" duration="150"/>
    <frame tileid="130" duration="150"/>
    <frame tileid="132" duration="150"/>
    <frame tileid="134" duration="150"/>
    <frame tileid="136" duration="150"/>
    <frame tileid="138" duration="150"/>
    <frame tileid="140" duration="150"/>
    <frame tileid="142" duration="150"/>
   </animation>
  </tile>
  <tile id="97">
   <animation>
    <frame tileid="97" duration="150"/>
    <frame tileid="99" duration="150"/>
    <frame tileid="101" duration="150"/>
    <frame tileid="103" duration="150"/>
    <frame tileid="105" duration="150"/>
    <frame tileid="107" duration="150"/>
    <frame tileid="109" duration="150"/>
    <frame tileid="111" duration="150"/>
    <frame tileid="113" duration="150"/>
    <frame tileid="115" duration="150"/>
    <frame tileid="117" duration="150"/>
    <frame tileid="119" duration="150"/>
    <frame tileid="121" duration="150"/>
    <frame tileid="123" duration="150"/>
    <frame tileid="125" duration="150"/>
    <frame tileid="127" duration="150"/>
    <frame tileid="129" duration="150"/>
    <frame tileid="131" duration="150"/>
    <frame tileid="133" duration="150"/>
    <frame tileid="135" duration="150"/>
    <frame tileid="137" duration="150"/>
    <frame tileid="139" duration="150"/>
    <frame tileid="141" duration="150"/>
    <frame tileid="143" duration="150"/>
   </animation>
  </tile>
 </tileset>
 <tileset firstgid="6493" name="Mage1" tilewidth="16" tileheight="16" tilecount="144" columns="48">
  <image source="Mage1_without_shadow.png" width="768" height="48"/>
  <tile id="0">
   <animation>
    <frame tileid="0" duration="150"/>
    <frame tileid="2" duration="150"/>
    <frame tileid="4" duration="150"/>
    <frame tileid="6" duration="150"/>
    <frame tileid="8" duration="150"/>
    <frame tileid="10" duration="150"/>
    <frame tileid="12" duration="150"/>
    <frame tileid="14" duration="150"/>
    <frame tileid="16" duration="150"/>
    <frame tileid="18" duration="150"/>
    <frame tileid="20" duration="150"/>
    <frame tileid="22" duration="150"/>
    <frame tileid="24" duration="150"/>
    <frame tileid="26" duration="150"/>
    <frame tileid="28" duration="150"/>
    <frame tileid="30" duration="150"/>
    <frame tileid="32" duration="150"/>
    <frame tileid="34" duration="150"/>
    <frame tileid="36" duration="150"/>
    <frame tileid="38" duration="150"/>
    <frame tileid="40" duration="150"/>
    <frame tileid="42" duration="150"/>
    <frame tileid="44" duration="150"/>
    <frame tileid="46" duration="150"/>
   </animation>
  </tile>
  <tile id="1">
   <animation>
    <frame tileid="1" duration="150"/>
    <frame tileid="3" duration="150"/>
    <frame tileid="5" duration="150"/>
    <frame tileid="7" duration="150"/>
    <frame tileid="9" duration="150"/>
    <frame tileid="11" duration="150"/>
    <frame tileid="13" duration="150"/>
    <frame tileid="15" duration="150"/>
    <frame tileid="17" duration="150"/>
    <frame tileid="19" duration="150"/>
    <frame tileid="21" duration="150"/>
    <frame tileid="23" duration="150"/>
    <frame tileid="25" duration="150"/>
    <frame tileid="27" duration="150"/>
    <frame tileid="29" duration="150"/>
    <frame tileid="31" duration="150"/>
    <frame tileid="33" duration="150"/>
    <frame tileid="35" duration="150"/>
    <frame tileid="37" duration="150"/>
    <frame tileid="39" duration="150"/>
    <frame tileid="41" duration="150"/>
    <frame tileid="43" duration="150"/>
    <frame tileid="45" duration="150"/>
    <frame tileid="47" duration="150"/>
   </animation>
  </tile>
  <tile id="48">
   <animation>
    <frame tileid="48" duration="150"/>
    <frame tileid="50" duration="150"/>
    <frame tileid="52" duration="150"/>
    <frame tileid="54" duration="150"/>
    <frame tileid="56" duration="150"/>
    <frame tileid="58" duration="150"/>
    <frame tileid="60" duration="150"/>
    <frame tileid="62" duration="150"/>
    <frame tileid="64" duration="150"/>
    <frame tileid="66" duration="150"/>
    <frame tileid="68" duration="150"/>
    <frame tileid="70" duration="150"/>
    <frame tileid="72" duration="150"/>
    <frame tileid="74" duration="150"/>
    <frame tileid="76" duration="150"/>
    <frame tileid="78" duration="150"/>
    <frame tileid="80" duration="150"/>
    <frame tileid="82" duration="150"/>
    <frame tileid="84" duration="150"/>
    <frame tileid="86" duration="150"/>
    <frame tileid="88" duration="150"/>
    <frame tileid="90" duration="150"/>
    <frame tileid="92" duration="150"/>
    <frame tileid="94" duration="150"/>
   </animation>
  </tile>
  <tile id="49">
   <animation>
    <frame tileid="49" duration="150"/>
    <frame tileid="51" duration="150"/>
    <frame tileid="53" duration="150"/>
    <frame tileid="55" duration="150"/>
    <frame tileid="57" duration="150"/>
    <frame tileid="59" duration="150"/>
    <frame tileid="61" duration="150"/>
    <frame tileid="63" duration="150"/>
    <frame tileid="65" duration="150"/>
    <frame tileid="67" duration="150"/>
    <frame tileid="69" duration="150"/>
    <frame tileid="71" duration="150"/>
    <frame tileid="73" duration="150"/>
    <frame tileid="75" duration="150"/>
    <frame tileid="77" duration="150"/>
    <frame tileid="79" duration="150"/>
    <frame tileid="81" duration="150"/>
    <frame tileid="83" duration="150"/>
    <frame tileid="85" duration="150"/>
    <frame tileid="87" duration="150"/>
    <frame tileid="89" duration="150"/>
    <frame tileid="91" duration="150"/>
    <frame tileid="93" duration="150"/>
    <frame tileid="95" duration="150"/>
   </animation>
  </tile>
  <tile id="96">
   <animation>
    <frame tileid="96" duration="150"/>
    <frame tileid="98" duration="150"/>
    <frame tileid="100" duration="150"/>
    <frame tileid="102" duration="150"/>
    <frame tileid="104" duration="150"/>
    <frame tileid="106" duration="150"/>
    <frame tileid="108" duration="150"/>
    <frame tileid="110" duration="150"/>
    <frame tileid="112" duration="150"/>
    <frame tileid="114" duration="150"/>
    <frame tileid="116" duration="150"/>
    <frame tileid="118" duration="150"/>
    <frame tileid="120" duration="150"/>
    <frame tileid="122" duration="150"/>
    <frame tileid="124" duration="150"/>
    <frame tileid="126" duration="150"/>
    <frame tileid="128" duration="150"/>
    <frame tileid="130" duration="150"/>
    <frame tileid="132" duration="150"/>
    <frame tileid="134" duration="150"/>
    <frame tileid="136" duration="150"/>
    <frame tileid="138" duration="150"/>
    <frame tileid="140" duration="150"/>
    <frame tileid="142" duration="150"/>
   </animation>
  </tile>
  <tile id="97">
   <animation>
    <frame tileid="97" duration="150"/>
    <frame tileid="99" duration="150"/>
    <frame tileid="101" duration="150"/>
    <frame tileid="103" duration="150"/>
    <frame tileid="105" duration="150"/>
    <frame tileid="107" duration="150"/>
    <frame tileid="109" duration="150"/>
    <frame tileid="111" duration="150"/>
    <frame tileid="113" duration="150"/>
    <frame tileid="115" duration="150"/>
    <frame tileid="117" duration="150"/>
    <frame tileid="119" duration="150"/>
    <frame tileid="121" duration="150"/>
    <frame tileid="123" duration="150"/>
    <frame tileid="125" duration="150"/>
    <frame tileid="127" duration="150"/>
    <frame tileid="129" duration="150"/>
    <frame tileid="131" duration="150"/>
    <frame tileid="133" duration="150"/>
    <frame tileid="135" duration="150"/>
    <frame tileid="137" duration="150"/>
    <frame tileid="139" duration="150"/>
    <frame tileid="141" duration="150"/>
    <frame tileid="143" duration="150"/>
   </animation>
  </tile>
 </tileset>
 <tileset firstgid="6637" name="Mage1" tilewidth="16" tileheight="16" tilecount="144" columns="48">
  <image source="Mage1_fit2_without_shadow.png" width="768" height="48"/>
  <tile id="0">
   <animation>
    <frame tileid="0" duration="150"/>
    <frame tileid="2" duration="150"/>
    <frame tileid="4" duration="150"/>
    <frame tileid="6" duration="150"/>
    <frame tileid="8" duration="150"/>
    <frame tileid="10" duration="150"/>
    <frame tileid="12" duration="150"/>
    <frame tileid="14" duration="150"/>
    <frame tileid="16" duration="150"/>
    <frame tileid="18" duration="150"/>
    <frame tileid="20" duration="150"/>
    <frame tileid="22" duration="150"/>
    <frame tileid="24" duration="150"/>
    <frame tileid="26" duration="150"/>
    <frame tileid="28" duration="150"/>
    <frame tileid="30" duration="150"/>
    <frame tileid="32" duration="150"/>
    <frame tileid="34" duration="150"/>
    <frame tileid="36" duration="150"/>
    <frame tileid="38" duration="150"/>
    <frame tileid="40" duration="150"/>
    <frame tileid="42" duration="150"/>
    <frame tileid="44" duration="150"/>
    <frame tileid="46" duration="150"/>
   </animation>
  </tile>
  <tile id="1">
   <animation>
    <frame tileid="1" duration="150"/>
    <frame tileid="3" duration="150"/>
    <frame tileid="5" duration="150"/>
    <frame tileid="7" duration="150"/>
    <frame tileid="9" duration="150"/>
    <frame tileid="11" duration="150"/>
    <frame tileid="13" duration="150"/>
    <frame tileid="15" duration="150"/>
    <frame tileid="17" duration="150"/>
    <frame tileid="19" duration="150"/>
    <frame tileid="21" duration="150"/>
    <frame tileid="23" duration="150"/>
    <frame tileid="25" duration="150"/>
    <frame tileid="27" duration="150"/>
    <frame tileid="29" duration="150"/>
    <frame tileid="31" duration="150"/>
    <frame tileid="33" duration="150"/>
    <frame tileid="35" duration="150"/>
    <frame tileid="37" duration="150"/>
    <frame tileid="39" duration="150"/>
    <frame tileid="41" duration="150"/>
    <frame tileid="43" duration="150"/>
    <frame tileid="45" duration="150"/>
    <frame tileid="47" duration="150"/>
   </animation>
  </tile>
  <tile id="48">
   <animation>
    <frame tileid="48" duration="150"/>
    <frame tileid="50" duration="150"/>
    <frame tileid="52" duration="150"/>
    <frame tileid="54" duration="150"/>
    <frame tileid="56" duration="150"/>
    <frame tileid="58" duration="150"/>
    <frame tileid="60" duration="150"/>
    <frame tileid="62" duration="150"/>
    <frame tileid="64" duration="150"/>
    <frame tileid="66" duration="150"/>
    <frame tileid="68" duration="150"/>
    <frame tileid="70" duration="150"/>
    <frame tileid="72" duration="150"/>
    <frame tileid="74" duration="150"/>
    <frame tileid="76" duration="150"/>
    <frame tileid="78" duration="150"/>
    <frame tileid="80" duration="150"/>
    <frame tileid="82" duration="150"/>
    <frame tileid="84" duration="150"/>
    <frame tileid="86" duration="150"/>
    <frame tileid="88" duration="150"/>
    <frame tileid="90" duration="150"/>
    <frame tileid="92" duration="150"/>
    <frame tileid="94" duration="150"/>
   </animation>
  </tile>
  <tile id="49">
   <animation>
    <frame tileid="49" duration="150"/>
    <frame tileid="51" duration="150"/>
    <frame tileid="53" duration="150"/>
    <frame tileid="55" duration="150"/>
    <frame tileid="57" duration="150"/>
    <frame tileid="59" duration="150"/>
    <frame tileid="61" duration="150"/>
    <frame tileid="63" duration="150"/>
    <frame tileid="65" duration="150"/>
    <frame tileid="67" duration="150"/>
    <frame tileid="69" duration="150"/>
    <frame tileid="71" duration="150"/>
    <frame tileid="73" duration="150"/>
    <frame tileid="75" duration="150"/>
    <frame tileid="77" duration="150"/>
    <frame tileid="79" duration="150"/>
    <frame tileid="81" duration="150"/>
    <frame tileid="83" duration="150"/>
    <frame tileid="85" duration="150"/>
    <frame tileid="87" duration="150"/>
    <frame tileid="89" duration="150"/>
    <frame tileid="91" duration="150"/>
    <frame tileid="93" duration="150"/>
    <frame tileid="95" duration="150"/>
   </animation>
  </tile>
  <tile id="96">
   <animation>
    <frame tileid="96" duration="150"/>
    <frame tileid="98" duration="150"/>
    <frame tileid="100" duration="150"/>
    <frame tileid="102" duration="150"/>
    <frame tileid="104" duration="150"/>
    <frame tileid="106" duration="150"/>
    <frame tileid="108" duration="150"/>
    <frame tileid="110" duration="150"/>
    <frame tileid="112" duration="150"/>
    <frame tileid="114" duration="150"/>
    <frame tileid="116" duration="150"/>
    <frame tileid="118" duration="150"/>
    <frame tileid="120" duration="150"/>
    <frame tileid="122" duration="150"/>
    <frame tileid="124" duration="150"/>
    <frame tileid="126" duration="150"/>
    <frame tileid="128" duration="150"/>
    <frame tileid="130" duration="150"/>
    <frame tileid="132" duration="150"/>
    <frame tileid="134" duration="150"/>
    <frame tileid="136" duration="150"/>
    <frame tileid="138" duration="150"/>
    <frame tileid="140" duration="150"/>
    <frame tileid="142" duration="150"/>
   </animation>
  </tile>
  <tile id="97">
   <animation>
    <frame tileid="97" duration="150"/>
    <frame tileid="99" duration="150"/>
    <frame tileid="101" duration="150"/>
    <frame tileid="103" duration="150"/>
    <frame tileid="105" duration="150"/>
    <frame tileid="107" duration="150"/>
    <frame tileid="109" duration="150"/>
    <frame tileid="111" duration="150"/>
    <frame tileid="113" duration="150"/>
    <frame tileid="115" duration="150"/>
    <frame tileid="117" duration="150"/>
    <frame tileid="119" duration="150"/>
    <frame tileid="121" duration="150"/>
    <frame tileid="123" duration="150"/>
    <frame tileid="125" duration="150"/>
    <frame tileid="127" duration="150"/>
    <frame tileid="129" duration="150"/>
    <frame tileid="131" duration="150"/>
    <frame tileid="133" duration="150"/>
    <frame tileid="135" duration="150"/>
    <frame tileid="137" duration="150"/>
    <frame tileid="139" duration="150"/>
    <frame tileid="141" duration="150"/>
    <frame tileid="143" duration="150"/>
   </animation>
  </tile>
 </tileset>
 <tileset firstgid="6781" name="Mage2_fit2" tilewidth="16" tileheight="16" tilecount="216" columns="72">
  <image source="Mage2_fit2.png" width="1152" height="48"/>
  <tile id="0">
   <animation>
    <frame tileid="0" duration="150"/>
    <frame tileid="3" duration="150"/>
    <frame tileid="6" duration="150"/>
    <frame tileid="9" duration="150"/>
    <frame tileid="12" duration="150"/>
    <frame tileid="15" duration="150"/>
    <frame tileid="18" duration="150"/>
    <frame tileid="21" duration="150"/>
    <frame tileid="24" duration="150"/>
    <frame tileid="27" duration="150"/>
    <frame tileid="30" duration="150"/>
    <frame tileid="33" duration="150"/>
    <frame tileid="36" duration="150"/>
    <frame tileid="39" duration="150"/>
    <frame tileid="42" duration="150"/>
    <frame tileid="45" duration="150"/>
    <frame tileid="48" duration="150"/>
    <frame tileid="51" duration="150"/>
    <frame tileid="54" duration="150"/>
    <frame tileid="57" duration="150"/>
    <frame tileid="60" duration="150"/>
    <frame tileid="63" duration="150"/>
    <frame tileid="66" duration="150"/>
    <frame tileid="69" duration="150"/>
   </animation>
  </tile>
  <tile id="1">
   <animation>
    <frame tileid="1" duration="150"/>
    <frame tileid="4" duration="150"/>
    <frame tileid="7" duration="150"/>
    <frame tileid="10" duration="150"/>
    <frame tileid="13" duration="150"/>
    <frame tileid="16" duration="150"/>
    <frame tileid="19" duration="150"/>
    <frame tileid="22" duration="150"/>
    <frame tileid="25" duration="150"/>
    <frame tileid="28" duration="150"/>
    <frame tileid="31" duration="150"/>
    <frame tileid="34" duration="150"/>
    <frame tileid="37" duration="150"/>
    <frame tileid="40" duration="150"/>
    <frame tileid="43" duration="150"/>
    <frame tileid="46" duration="150"/>
    <frame tileid="49" duration="150"/>
    <frame tileid="52" duration="150"/>
    <frame tileid="55" duration="150"/>
    <frame tileid="58" duration="150"/>
    <frame tileid="61" duration="150"/>
    <frame tileid="64" duration="150"/>
    <frame tileid="67" duration="150"/>
    <frame tileid="70" duration="150"/>
   </animation>
  </tile>
  <tile id="2">
   <animation>
    <frame tileid="2" duration="150"/>
    <frame tileid="5" duration="150"/>
    <frame tileid="8" duration="150"/>
    <frame tileid="11" duration="150"/>
    <frame tileid="14" duration="150"/>
    <frame tileid="17" duration="150"/>
    <frame tileid="20" duration="150"/>
    <frame tileid="23" duration="150"/>
    <frame tileid="26" duration="150"/>
    <frame tileid="29" duration="150"/>
    <frame tileid="32" duration="150"/>
    <frame tileid="35" duration="150"/>
    <frame tileid="38" duration="150"/>
    <frame tileid="41" duration="150"/>
    <frame tileid="44" duration="150"/>
    <frame tileid="47" duration="150"/>
    <frame tileid="50" duration="150"/>
    <frame tileid="53" duration="150"/>
    <frame tileid="56" duration="150"/>
    <frame tileid="59" duration="150"/>
    <frame tileid="62" duration="150"/>
    <frame tileid="65" duration="150"/>
    <frame tileid="68" duration="150"/>
    <frame tileid="71" duration="150"/>
   </animation>
  </tile>
  <tile id="72">
   <animation>
    <frame tileid="72" duration="150"/>
    <frame tileid="75" duration="150"/>
    <frame tileid="78" duration="150"/>
    <frame tileid="81" duration="150"/>
    <frame tileid="84" duration="150"/>
    <frame tileid="87" duration="150"/>
    <frame tileid="90" duration="150"/>
    <frame tileid="93" duration="150"/>
    <frame tileid="96" duration="150"/>
    <frame tileid="99" duration="150"/>
    <frame tileid="102" duration="150"/>
    <frame tileid="105" duration="150"/>
    <frame tileid="108" duration="150"/>
    <frame tileid="111" duration="150"/>
    <frame tileid="114" duration="150"/>
    <frame tileid="117" duration="150"/>
    <frame tileid="120" duration="150"/>
    <frame tileid="123" duration="150"/>
    <frame tileid="126" duration="150"/>
    <frame tileid="129" duration="150"/>
    <frame tileid="132" duration="150"/>
    <frame tileid="135" duration="150"/>
    <frame tileid="138" duration="150"/>
    <frame tileid="141" duration="150"/>
   </animation>
  </tile>
  <tile id="73">
   <animation>
    <frame tileid="73" duration="150"/>
    <frame tileid="76" duration="150"/>
    <frame tileid="79" duration="150"/>
    <frame tileid="82" duration="150"/>
    <frame tileid="85" duration="150"/>
    <frame tileid="88" duration="150"/>
    <frame tileid="91" duration="150"/>
    <frame tileid="94" duration="150"/>
    <frame tileid="97" duration="150"/>
    <frame tileid="100" duration="150"/>
    <frame tileid="103" duration="150"/>
    <frame tileid="106" duration="150"/>
    <frame tileid="109" duration="150"/>
    <frame tileid="112" duration="150"/>
    <frame tileid="115" duration="150"/>
    <frame tileid="118" duration="150"/>
    <frame tileid="121" duration="150"/>
    <frame tileid="124" duration="150"/>
    <frame tileid="127" duration="150"/>
    <frame tileid="130" duration="150"/>
    <frame tileid="133" duration="150"/>
    <frame tileid="136" duration="150"/>
    <frame tileid="139" duration="150"/>
    <frame tileid="142" duration="150"/>
   </animation>
  </tile>
  <tile id="74">
   <animation>
    <frame tileid="74" duration="150"/>
    <frame tileid="77" duration="150"/>
    <frame tileid="80" duration="150"/>
    <frame tileid="83" duration="150"/>
    <frame tileid="86" duration="150"/>
    <frame tileid="89" duration="150"/>
    <frame tileid="92" duration="150"/>
    <frame tileid="95" duration="150"/>
    <frame tileid="98" duration="150"/>
    <frame tileid="101" duration="150"/>
    <frame tileid="104" duration="150"/>
    <frame tileid="107" duration="150"/>
    <frame tileid="110" duration="150"/>
    <frame tileid="113" duration="150"/>
    <frame tileid="116" duration="150"/>
    <frame tileid="119" duration="150"/>
    <frame tileid="122" duration="150"/>
    <frame tileid="125" duration="150"/>
    <frame tileid="128" duration="150"/>
    <frame tileid="131" duration="150"/>
    <frame tileid="134" duration="150"/>
    <frame tileid="137" duration="150"/>
    <frame tileid="140" duration="150"/>
    <frame tileid="143" duration="150"/>
   </animation>
  </tile>
  <tile id="144">
   <animation>
    <frame tileid="144" duration="150"/>
    <frame tileid="147" duration="150"/>
    <frame tileid="150" duration="150"/>
    <frame tileid="153" duration="150"/>
    <frame tileid="156" duration="150"/>
    <frame tileid="159" duration="150"/>
    <frame tileid="162" duration="150"/>
    <frame tileid="165" duration="150"/>
    <frame tileid="168" duration="150"/>
    <frame tileid="171" duration="150"/>
    <frame tileid="174" duration="150"/>
    <frame tileid="177" duration="150"/>
    <frame tileid="180" duration="150"/>
    <frame tileid="183" duration="150"/>
    <frame tileid="186" duration="150"/>
    <frame tileid="189" duration="150"/>
    <frame tileid="192" duration="150"/>
    <frame tileid="195" duration="150"/>
    <frame tileid="198" duration="150"/>
    <frame tileid="201" duration="150"/>
    <frame tileid="204" duration="150"/>
    <frame tileid="207" duration="150"/>
    <frame tileid="210" duration="150"/>
    <frame tileid="213" duration="150"/>
   </animation>
  </tile>
  <tile id="145">
   <animation>
    <frame tileid="145" duration="150"/>
    <frame tileid="148" duration="150"/>
    <frame tileid="151" duration="150"/>
    <frame tileid="154" duration="150"/>
    <frame tileid="157" duration="150"/>
    <frame tileid="160" duration="150"/>
    <frame tileid="163" duration="150"/>
    <frame tileid="166" duration="150"/>
    <frame tileid="169" duration="150"/>
    <frame tileid="172" duration="150"/>
    <frame tileid="175" duration="150"/>
    <frame tileid="178" duration="150"/>
    <frame tileid="181" duration="150"/>
    <frame tileid="184" duration="150"/>
    <frame tileid="187" duration="150"/>
    <frame tileid="190" duration="150"/>
    <frame tileid="193" duration="150"/>
    <frame tileid="196" duration="150"/>
    <frame tileid="199" duration="150"/>
    <frame tileid="202" duration="150"/>
    <frame tileid="205" duration="150"/>
    <frame tileid="208" duration="150"/>
    <frame tileid="211" duration="150"/>
    <frame tileid="214" duration="150"/>
   </animation>
  </tile>
  <tile id="146">
   <animation>
    <frame tileid="146" duration="150"/>
    <frame tileid="149" duration="150"/>
    <frame tileid="152" duration="150"/>
    <frame tileid="155" duration="150"/>
    <frame tileid="158" duration="150"/>
    <frame tileid="161" duration="150"/>
    <frame tileid="164" duration="150"/>
    <frame tileid="167" duration="150"/>
    <frame tileid="170" duration="150"/>
    <frame tileid="173" duration="150"/>
    <frame tileid="176" duration="150"/>
    <frame tileid="179" duration="150"/>
    <frame tileid="182" duration="150"/>
    <frame tileid="185" duration="150"/>
    <frame tileid="188" duration="150"/>
    <frame tileid="191" duration="150"/>
    <frame tileid="194" duration="150"/>
    <frame tileid="197" duration="150"/>
    <frame tileid="200" duration="150"/>
    <frame tileid="203" duration="150"/>
    <frame tileid="206" duration="150"/>
    <frame tileid="209" duration="150"/>
    <frame tileid="212" duration="150"/>
    <frame tileid="215" duration="150"/>
   </animation>
  </tile>
 </tileset>
 <tileset firstgid="6997" name="Mage2_fit2" tilewidth="16" tileheight="16" tilecount="216" columns="72">
  <image source="Mage2_fit2_without_shadow.png" width="1152" height="48"/>
  <tile id="0">
   <animation>
    <frame tileid="0" duration="150"/>
    <frame tileid="3" duration="150"/>
    <frame tileid="6" duration="150"/>
    <frame tileid="9" duration="150"/>
    <frame tileid="12" duration="150"/>
    <frame tileid="15" duration="150"/>
    <frame tileid="18" duration="150"/>
    <frame tileid="21" duration="150"/>
    <frame tileid="24" duration="150"/>
    <frame tileid="27" duration="150"/>
    <frame tileid="30" duration="150"/>
    <frame tileid="33" duration="150"/>
    <frame tileid="36" duration="150"/>
    <frame tileid="39" duration="150"/>
    <frame tileid="42" duration="150"/>
    <frame tileid="45" duration="150"/>
    <frame tileid="48" duration="150"/>
    <frame tileid="51" duration="150"/>
    <frame tileid="54" duration="150"/>
    <frame tileid="57" duration="150"/>
    <frame tileid="60" duration="150"/>
    <frame tileid="63" duration="150"/>
    <frame tileid="66" duration="150"/>
    <frame tileid="69" duration="150"/>
   </animation>
  </tile>
  <tile id="1">
   <animation>
    <frame tileid="1" duration="150"/>
    <frame tileid="4" duration="150"/>
    <frame tileid="7" duration="150"/>
    <frame tileid="10" duration="150"/>
    <frame tileid="13" duration="150"/>
    <frame tileid="16" duration="150"/>
    <frame tileid="19" duration="150"/>
    <frame tileid="22" duration="150"/>
    <frame tileid="25" duration="150"/>
    <frame tileid="28" duration="150"/>
    <frame tileid="31" duration="150"/>
    <frame tileid="34" duration="150"/>
    <frame tileid="37" duration="150"/>
    <frame tileid="40" duration="150"/>
    <frame tileid="43" duration="150"/>
    <frame tileid="46" duration="150"/>
    <frame tileid="49" duration="150"/>
    <frame tileid="52" duration="150"/>
    <frame tileid="55" duration="150"/>
    <frame tileid="58" duration="150"/>
    <frame tileid="61" duration="150"/>
    <frame tileid="64" duration="150"/>
    <frame tileid="67" duration="150"/>
    <frame tileid="70" duration="150"/>
   </animation>
  </tile>
  <tile id="2">
   <animation>
    <frame tileid="2" duration="150"/>
    <frame tileid="5" duration="150"/>
    <frame tileid="8" duration="150"/>
    <frame tileid="11" duration="150"/>
    <frame tileid="14" duration="150"/>
    <frame tileid="17" duration="150"/>
    <frame tileid="20" duration="150"/>
    <frame tileid="23" duration="150"/>
    <frame tileid="26" duration="150"/>
    <frame tileid="29" duration="150"/>
    <frame tileid="32" duration="150"/>
    <frame tileid="35" duration="150"/>
    <frame tileid="38" duration="150"/>
    <frame tileid="41" duration="150"/>
    <frame tileid="44" duration="150"/>
    <frame tileid="47" duration="150"/>
    <frame tileid="50" duration="150"/>
    <frame tileid="53" duration="150"/>
    <frame tileid="56" duration="150"/>
    <frame tileid="59" duration="150"/>
    <frame tileid="62" duration="150"/>
    <frame tileid="65" duration="150"/>
    <frame tileid="68" duration="150"/>
    <frame tileid="71" duration="150"/>
   </animation>
  </tile>
  <tile id="72">
   <animation>
    <frame tileid="72" duration="150"/>
    <frame tileid="75" duration="150"/>
    <frame tileid="78" duration="150"/>
    <frame tileid="81" duration="150"/>
    <frame tileid="84" duration="150"/>
    <frame tileid="87" duration="150"/>
    <frame tileid="90" duration="150"/>
    <frame tileid="93" duration="150"/>
    <frame tileid="96" duration="150"/>
    <frame tileid="99" duration="150"/>
    <frame tileid="102" duration="150"/>
    <frame tileid="105" duration="150"/>
    <frame tileid="108" duration="150"/>
    <frame tileid="111" duration="150"/>
    <frame tileid="114" duration="150"/>
    <frame tileid="117" duration="150"/>
    <frame tileid="120" duration="150"/>
    <frame tileid="123" duration="150"/>
    <frame tileid="126" duration="150"/>
    <frame tileid="129" duration="150"/>
    <frame tileid="132" duration="150"/>
    <frame tileid="135" duration="150"/>
    <frame tileid="138" duration="150"/>
    <frame tileid="141" duration="150"/>
   </animation>
  </tile>
  <tile id="73">
   <animation>
    <frame tileid="73" duration="150"/>
    <frame tileid="76" duration="150"/>
    <frame tileid="79" duration="150"/>
    <frame tileid="82" duration="150"/>
    <frame tileid="85" duration="150"/>
    <frame tileid="88" duration="150"/>
    <frame tileid="91" duration="150"/>
    <frame tileid="94" duration="150"/>
    <frame tileid="97" duration="150"/>
    <frame tileid="100" duration="150"/>
    <frame tileid="103" duration="150"/>
    <frame tileid="106" duration="150"/>
    <frame tileid="109" duration="150"/>
    <frame tileid="112" duration="150"/>
    <frame tileid="115" duration="150"/>
    <frame tileid="118" duration="150"/>
    <frame tileid="121" duration="150"/>
    <frame tileid="124" duration="150"/>
    <frame tileid="127" duration="150"/>
    <frame tileid="130" duration="150"/>
    <frame tileid="133" duration="150"/>
    <frame tileid="136" duration="150"/>
    <frame tileid="139" duration="150"/>
    <frame tileid="142" duration="150"/>
   </animation>
  </tile>
  <tile id="74">
   <animation>
    <frame tileid="74" duration="150"/>
    <frame tileid="77" duration="150"/>
    <frame tileid="80" duration="150"/>
    <frame tileid="83" duration="150"/>
    <frame tileid="86" duration="150"/>
    <frame tileid="89" duration="150"/>
    <frame tileid="92" duration="150"/>
    <frame tileid="95" duration="150"/>
    <frame tileid="98" duration="150"/>
    <frame tileid="101" duration="150"/>
    <frame tileid="104" duration="150"/>
    <frame tileid="107" duration="150"/>
    <frame tileid="110" duration="150"/>
    <frame tileid="113" duration="150"/>
    <frame tileid="116" duration="150"/>
    <frame tileid="119" duration="150"/>
    <frame tileid="122" duration="150"/>
    <frame tileid="125" duration="150"/>
    <frame tileid="128" duration="150"/>
    <frame tileid="131" duration="150"/>
    <frame tileid="134" duration="150"/>
    <frame tileid="137" duration="150"/>
    <frame tileid="140" duration="150"/>
    <frame tileid="143" duration="150"/>
   </animation>
  </tile>
  <tile id="144">
   <animation>
    <frame tileid="144" duration="150"/>
    <frame tileid="147" duration="150"/>
    <frame tileid="150" duration="150"/>
    <frame tileid="153" duration="150"/>
    <frame tileid="156" duration="150"/>
    <frame tileid="159" duration="150"/>
    <frame tileid="162" duration="150"/>
    <frame tileid="165" duration="150"/>
    <frame tileid="168" duration="150"/>
    <frame tileid="171" duration="150"/>
    <frame tileid="174" duration="150"/>
    <frame tileid="177" duration="150"/>
    <frame tileid="180" duration="150"/>
    <frame tileid="183" duration="150"/>
    <frame tileid="186" duration="150"/>
    <frame tileid="189" duration="150"/>
    <frame tileid="192" duration="150"/>
    <frame tileid="195" duration="150"/>
    <frame tileid="198" duration="150"/>
    <frame tileid="201" duration="150"/>
    <frame tileid="204" duration="150"/>
    <frame tileid="207" duration="150"/>
    <frame tileid="210" duration="150"/>
    <frame tileid="213" duration="150"/>
   </animation>
  </tile>
  <tile id="145">
   <animation>
    <frame tileid="145" duration="150"/>
    <frame tileid="148" duration="150"/>
    <frame tileid="151" duration="150"/>
    <frame tileid="154" duration="150"/>
    <frame tileid="157" duration="150"/>
    <frame tileid="160" duration="150"/>
    <frame tileid="163" duration="150"/>
    <frame tileid="166" duration="150"/>
    <frame tileid="169" duration="150"/>
    <frame tileid="172" duration="150"/>
    <frame tileid="175" duration="150"/>
    <frame tileid="178" duration="150"/>
    <frame tileid="181" duration="150"/>
    <frame tileid="184" duration="150"/>
    <frame tileid="187" duration="150"/>
    <frame tileid="190" duration="150"/>
    <frame tileid="193" duration="150"/>
    <frame tileid="196" duration="150"/>
    <frame tileid="199" duration="150"/>
    <frame tileid="202" duration="150"/>
    <frame tileid="205" duration="150"/>
    <frame tileid="208" duration="150"/>
    <frame tileid="211" duration="150"/>
    <frame tileid="214" duration="150"/>
   </animation>
  </tile>
  <tile id="146">
   <animation>
    <frame tileid="146" duration="150"/>
    <frame tileid="149" duration="150"/>
    <frame tileid="152" duration="150"/>
    <frame tileid="155" duration="150"/>
    <frame tileid="158" duration="150"/>
    <frame tileid="161" duration="150"/>
    <frame tileid="164" duration="150"/>
    <frame tileid="167" duration="150"/>
    <frame tileid="170" duration="150"/>
    <frame tileid="173" duration="150"/>
    <frame tileid="176" duration="150"/>
    <frame tileid="179" duration="150"/>
    <frame tileid="182" duration="150"/>
    <frame tileid="185" duration="150"/>
    <frame tileid="188" duration="150"/>
    <frame tileid="191" duration="150"/>
    <frame tileid="194" duration="150"/>
    <frame tileid="197" duration="150"/>
    <frame tileid="200" duration="150"/>
    <frame tileid="203" duration="150"/>
    <frame tileid="206" duration="150"/>
    <frame tileid="209" duration="150"/>
    <frame tileid="212" duration="150"/>
    <frame tileid="215" duration="150"/>
   </animation>
  </tile>
 </tileset>
 <tileset firstgid="7213" name="Mages_shadow" tilewidth="16" tileheight="16" tilecount="12" columns="4">
  <image source="Mages_shadow.png" width="64" height="48"/>
 </tileset>
 <layer id="1" name="Characters_had_no_shadow" width="16" height="24">
  <data encoding="csv">
   <chunk x="-16" y="-16" width="16" height="16">
0,0,0,0,0,0,0,0,0,0,0,0,0,0,0,0,
0,0,0,0,0,0,0,0,0,0,0,0,0,0,0,0,
0,0,0,0,0,0,0,0,0,0,0,0,0,0,0,0,
0,0,0,0,0,0,0,0,0,0,0,0,0,0,0,0,
0,0,0,0,0,0,0,0,0,0,0,0,0,0,0,0,
0,0,0,0,0,0,0,0,0,0,0,0,0,0,0,0,
0,0,0,0,0,0,0,0,0,0,0,0,0,0,0,0,
0,0,0,0,0,0,0,0,0,0,0,0,0,0,0,0,
0,0,0,0,0,0,0,0,0,0,0,0,0,0,0,0,
0,0,0,0,0,0,0,0,0,0,0,0,0,0,0,0,
0,0,0,0,0,0,0,0,0,0,0,0,0,0,0,0,
0,0,0,0,0,0,0,0,0,0,0,0,0,0,0,0,
0,0,0,0,0,0,0,0,0,0,0,0,0,0,0,0,
0,0,0,0,0,0,0,0,0,0,0,0,0,0,0,0,
0,0,0,0,0,0,0,0,0,0,0,0,0,0,0,0,
0,0,0,0,0,0,0,0,0,0,0,0,1,2,97,98
</chunk>
   <chunk x="0" y="-16" width="16" height="16">
0,0,0,0,0,0,0,0,0,0,0,0,0,0,0,0,
0,0,0,0,0,0,0,0,0,0,0,0,0,0,0,0,
0,0,0,0,0,0,0,0,0,0,0,0,0,0,0,0,
0,0,0,0,0,0,0,0,0,0,0,0,0,0,0,0,
0,0,0,0,0,0,0,0,0,0,0,0,0,0,0,0,
0,0,0,0,0,0,0,0,0,0,0,0,0,0,0,0,
0,0,0,0,0,0,0,0,0,0,0,0,0,0,0,0,
0,0,0,0,0,0,0,0,0,0,0,0,0,0,0,0,
0,0,0,0,0,0,0,0,0,0,0,0,0,0,0,0,
0,0,0,0,0,0,0,0,0,0,0,0,0,0,0,0,
0,0,0,0,0,0,0,0,0,0,0,0,0,0,0,0,
0,0,0,0,0,0,0,0,0,0,0,0,0,0,0,0,
0,0,0,0,0,0,0,0,0,0,0,0,0,0,0,0,
0,0,0,0,0,0,0,0,0,0,0,0,0,0,0,0,
0,0,0,0,0,0,0,0,0,0,0,0,0,0,0,0,
193,194,289,290,385,386,481,482,577,578,673,674,0,5109,5110,5025
</chunk>
   <chunk x="16" y="-16" width="16" height="16">
0,0,0,0,0,0,0,0,0,0,0,0,0,0,0,0,
0,0,0,0,0,0,0,0,0,0,0,0,0,0,0,0,
0,0,0,0,0,0,0,0,0,0,0,0,0,0,0,0,
0,0,0,0,0,0,0,0,0,0,0,0,0,0,0,0,
0,0,0,0,0,0,0,0,0,0,0,0,0,0,0,0,
0,0,0,0,0,0,0,0,0,0,0,0,0,0,0,0,
0,0,0,0,0,0,0,0,0,0,0,0,0,0,0,0,
0,0,0,0,0,0,0,0,0,0,0,0,0,0,0,0,
0,0,0,0,0,0,0,0,0,0,0,0,0,0,0,0,
0,0,0,0,0,0,0,0,0,0,0,0,0,0,0,0,
0,0,0,0,0,0,0,0,0,0,0,0,0,0,0,0,
0,0,0,0,0,0,0,0,0,0,0,0,0,0,0,0,
0,0,0,0,0,0,0,0,0,0,0,0,0,0,0,0,
0,0,0,0,0,0,0,0,0,0,0,0,0,0,0,0,
0,0,0,0,0,0,0,0,0,0,0,0,0,0,0,0,
5026,5001,5002,5037,5038,5049,5050,0,0,0,0,0,0,0,0,0
</chunk>
   <chunk x="-16" y="0" width="16" height="16">
0,0,0,0,0,0,0,0,0,0,0,0,13,14,109,110,
0,0,0,0,0,0,0,0,0,0,0,0,769,770,865,866,
0,0,0,0,0,0,0,0,0,0,0,0,781,782,877,878,
0,0,0,0,0,0,0,0,0,0,0,0,1537,1538,1539,1540,
0,0,0,0,0,0,0,0,0,0,0,0,1585,1586,1587,1588,
0,0,0,0,0,0,0,0,0,0,0,0,1633,1634,1635,1636,
0,0,0,0,0,0,0,0,0,0,0,0,1681,1682,1683,1684,
0,0,0,0,0,0,0,0,0,0,0,0,1729,1730,1731,1732,
0,0,0,0,0,0,0,0,0,0,0,0,1777,1778,1779,1780,
0,0,0,0,0,0,0,0,0,0,0,0,1825,1826,1827,1828,
0,0,0,0,0,0,0,0,0,0,0,0,0,0,0,0,
0,0,0,0,0,0,0,0,0,0,0,0,0,0,0,0,
0,0,0,0,0,0,0,0,0,0,0,0,0,0,0,0,
0,0,0,0,0,0,0,0,0,0,0,0,0,0,0,0,
0,0,0,0,0,0,0,0,0,0,0,0,0,0,0,0,
0,0,0,0,0,0,0,0,0,0,0,0,0,0,0,0
</chunk>
   <chunk x="0" y="0" width="16" height="16">
205,206,301,302,397,398,493,494,589,590,685,686,0,5113,5114,5029,
961,962,1057,1058,1153,1154,1249,1250,1345,1346,1441,1442,0,5117,5118,5033,
973,974,1069,1070,1165,1166,1261,1262,1357,1358,1453,1454,0,5085,5086,5061,
1541,1542,1543,1544,0,0,0,0,0,0,0,0,0,5089,5090,5065,
1589,1590,1591,1592,0,2881,2882,2883,2884,2885,2886,2887,0,5093,5094,5069,
1637,1638,1639,1640,0,2923,2924,2925,2926,2927,2928,2929,0,4461,4462,4569,
1685,1686,1687,1688,0,2965,2966,2967,2968,2969,2970,2971,0,4497,4498,4605,
1733,1734,1735,1736,0,3007,3008,3009,3010,3011,3012,3013,0,4533,4534,4641,
1781,1782,1783,1784,0,3049,3050,3051,3052,3053,3054,3055,0,0,0,0,
1829,1830,1831,1832,0,3091,3092,3093,3094,3095,3096,3097,0,0,0,0,
0,0,0,0,0,0,0,0,0,0,0,0,0,0,0,0,
0,0,0,0,0,0,0,0,0,0,0,0,0,0,0,0,
0,0,0,0,0,0,0,0,0,0,0,0,0,0,0,0,
0,0,0,0,0,0,0,0,0,0,0,0,0,0,0,0,
0,0,0,0,0,0,0,0,0,0,0,0,0,0,0,0,
0,0,0,0,0,0,0,0,0,0,0,0,0,0,0,0
</chunk>
   <chunk x="16" y="0" width="16" height="16">
5030,5005,5006,5041,5042,5053,5054,0,0,0,0,0,0,0,0,0,
5034,5009,5010,5045,5046,5057,5058,0,0,0,0,0,0,0,0,0,
5062,5013,5014,5097,5098,5073,5074,0,0,0,0,0,0,0,0,0,
5066,5017,5018,5101,5102,5077,5078,0,0,0,0,0,0,0,0,0,
5070,5021,5022,5105,5106,5081,5082,0,0,0,0,0,0,0,0,0,
4570,0,0,4893,4894,4785,4786,0,0,0,0,0,0,0,0,0,
4606,4677,4678,4929,4930,4821,4822,0,0,0,0,0,0,0,0,0,
4642,4713,4714,4965,4966,4857,4858,0,0,0,0,0,0,0,0,0,
0,0,0,0,0,0,0,0,0,0,0,0,0,0,0,0,
0,0,0,0,0,0,0,0,0,0,0,0,0,0,0,0,
0,0,0,0,0,0,0,0,0,0,0,0,0,0,0,0,
0,0,0,0,0,0,0,0,0,0,0,0,0,0,0,0,
0,0,0,0,0,0,0,0,0,0,0,0,0,0,0,0,
0,0,0,0,0,0,0,0,0,0,0,0,0,0,0,0,
0,0,0,0,0,0,0,0,0,0,0,0,0,0,0,0,
0,0,0,0,0,0,0,0,0,0,0,0,0,0,0,0
</chunk>
  </data>
 </layer>
 <layer id="3" name="Characters_full" width="16" height="24">
  <data encoding="csv">
   <chunk x="-16" y="0" width="16" height="16">
0,0,0,0,0,0,0,0,0,0,0,0,0,0,0,0,
0,0,0,0,0,0,0,0,0,0,0,0,0,0,0,0,
0,0,0,0,0,0,0,0,0,0,0,0,0,0,0,0,
0,0,0,0,0,0,0,0,0,0,0,0,0,0,0,0,
0,0,0,0,0,0,0,0,0,0,0,0,0,0,0,0,
0,0,0,0,0,0,0,0,0,0,0,0,0,0,0,0,
0,0,0,0,0,0,0,0,0,0,0,0,0,0,0,0,
0,0,0,0,0,0,0,0,0,0,0,0,0,0,0,0,
0,0,0,0,0,0,0,0,0,0,0,0,0,0,0,0,
0,0,0,0,0,0,0,0,0,0,0,0,0,0,0,0,
0,0,0,0,0,0,0,0,0,0,0,0,3889,3890,3891,3892,
0,0,0,0,0,0,0,0,0,0,0,0,3914,3915,3916,3917,
0,0,0,0,0,0,0,0,0,0,0,0,3939,3940,3941,3942,
0,0,0,0,0,0,0,0,0,0,0,0,3964,3965,3966,3967,
0,0,0,0,0,0,0,0,0,0,0,0,3989,3990,3991,3992,
0,0,0,0,0,0,0,0,0,0,0,0,0,0,0,0
</chunk>
   <chunk x="0" y="0" width="16" height="16">
0,0,0,0,0,0,0,0,0,0,0,0,0,0,0,0,
0,0,0,0,0,0,0,0,0,0,0,0,0,0,0,0,
0,0,0,0,0,0,0,0,0,0,0,0,0,0,0,0,
0,0,0,0,0,0,0,0,0,0,0,0,0,0,0,0,
0,0,0,0,0,0,0,0,0,0,0,0,0,0,0,0,
0,0,0,0,0,0,0,0,0,0,0,0,0,0,0,0,
0,0,0,0,0,0,0,0,0,0,0,0,0,0,0,0,
0,0,0,0,0,0,0,0,0,0,0,0,0,0,0,0,
0,0,0,0,0,0,0,0,0,0,0,0,5621,5622,5623,5624,
0,0,0,0,0,0,0,0,0,0,0,0,5669,5670,5671,5672,
3893,0,0,0,0,0,0,0,0,0,0,0,5717,5718,5719,5720,
3918,0,0,0,0,0,0,0,0,0,0,0,0,0,0,0,
3943,6061,6062,5917,5918,6205,6206,6781,6782,6783,0,0,0,0,0,0,
3968,6109,6110,5965,5966,6253,6254,6853,6854,6855,0,0,0,0,0,0,
3993,6157,6158,6013,6014,6301,6302,6925,6926,6927,0,0,0,0,0,0,
0,0,0,0,0,0,0,0,0,0,0,0,0,0,0,0
</chunk>
  </data>
 </layer>
 <layer id="4" name="Shadow" width="16" height="24">
  <data encoding="csv">
   <chunk x="-16" y="0" width="16" height="16">
0,0,0,0,0,0,0,0,0,0,0,0,0,0,0,0,
0,0,0,0,0,0,0,0,0,0,0,0,0,0,0,0,
0,0,0,0,0,0,0,0,0,0,0,0,0,0,0,0,
0,0,0,0,0,0,0,0,0,0,0,0,0,0,0,0,
0,0,0,0,0,0,0,0,0,0,0,0,0,0,0,0,
0,0,0,0,0,0,0,0,0,0,0,0,0,0,0,0,
0,0,0,0,0,0,0,0,0,0,0,0,0,0,0,0,
0,0,0,0,0,0,0,0,0,0,0,0,0,0,0,0,
0,0,0,0,0,0,0,0,0,0,0,0,0,0,0,0,
0,0,0,0,0,0,0,0,0,0,0,0,0,0,0,0,
0,0,0,0,0,0,0,0,0,0,0,0,0,0,0,0,
0,0,0,0,0,0,0,0,0,0,0,0,0,0,0,0,
0,0,0,0,0,0,0,0,0,0,0,0,0,0,0,0,
0,0,0,0,0,0,0,0,0,0,0,0,4389,4390,4391,4392,
0,0,0,0,0,0,0,0,0,0,0,0,4401,4402,4403,4404,
0,0,0,0,0,0,0,0,0,0,0,0,0,0,0,0
</chunk>
   <chunk x="0" y="0" width="16" height="16">
0,0,0,0,0,0,0,0,0,0,0,0,0,0,0,0,
0,0,0,0,0,0,0,0,0,0,0,0,0,0,0,0,
0,0,0,0,0,0,0,0,0,0,0,0,0,0,0,0,
0,0,0,0,0,0,0,0,0,0,0,0,0,0,0,0,
0,0,0,0,0,0,0,0,0,0,0,0,0,0,0,0,
0,0,0,0,0,0,0,0,0,0,0,0,0,0,0,0,
0,0,0,0,0,0,0,0,0,0,0,0,0,0,0,0,
0,0,0,0,0,0,0,0,0,0,0,0,0,0,0,0,
0,0,0,0,0,0,0,0,0,0,0,0,0,0,0,0,
0,0,0,0,0,0,0,0,0,0,0,0,5909,5910,5911,5912,
0,0,0,0,0,0,0,0,0,0,0,0,5913,5914,5915,5916,
0,0,0,0,0,0,0,0,0,0,0,0,0,0,0,0,
0,0,0,0,0,0,0,0,0,0,0,0,0,0,0,0,
0,7215,7216,0,0,7213,7214,0,0,0,0,0,0,0,0,0,
0,7219,7220,7221,7222,7217,7218,0,7223,0,0,0,0,0,0,0,
0,0,0,0,0,0,0,0,0,0,0,0,0,0,0,0
</chunk>
  </data>
 </layer>
 <layer id="2" name="Characters_without_shadow" width="16" height="24">
  <data encoding="csv">
   <chunk x="-16" y="0" width="16" height="16">
0,0,0,0,0,0,0,0,0,0,0,0,0,0,0,0,
0,0,0,0,0,0,0,0,0,0,0,0,0,0,0,0,
0,0,0,0,0,0,0,0,0,0,0,0,0,0,0,0,
0,0,0,0,0,0,0,0,0,0,0,0,0,0,0,0,
0,0,0,0,0,0,0,0,0,0,0,0,0,0,0,0,
0,0,0,0,0,0,0,0,0,0,0,0,0,0,0,0,
0,0,0,0,0,0,0,0,0,0,0,0,0,0,0,0,
0,0,0,0,0,0,0,0,0,0,0,0,0,0,0,0,
0,0,0,0,0,0,0,0,0,0,0,0,0,0,0,0,
0,0,0,0,0,0,0,0,0,0,0,0,0,0,0,0,
0,0,0,0,0,0,0,0,0,0,0,0,5121,5122,5123,5124,
0,0,0,0,0,0,0,0,0,0,0,0,5146,5147,5148,5149,
0,0,0,0,0,0,0,0,0,0,0,0,5171,5172,5173,5174,
0,0,0,0,0,0,0,0,0,0,0,0,5196,5197,5198,5199,
0,0,0,0,0,0,0,0,0,0,0,0,5221,5222,5223,5224,
0,0,0,0,0,0,0,0,0,0,0,0,0,0,0,0
</chunk>
   <chunk x="0" y="0" width="16" height="16">
0,0,0,0,0,0,0,0,0,0,0,0,0,0,0,0,
0,0,0,0,0,0,0,0,0,0,0,0,0,0,0,0,
0,0,0,0,0,0,0,0,0,0,0,0,0,0,0,0,
0,0,0,0,0,0,0,0,0,0,0,0,0,0,0,0,
0,0,0,0,0,0,0,0,0,0,0,0,0,0,0,0,
0,0,0,0,0,0,0,0,0,0,0,0,0,0,0,0,
0,0,0,0,0,0,0,0,0,0,0,0,0,0,0,0,
0,0,0,0,0,0,0,0,0,0,0,0,0,0,0,0,
0,0,0,0,0,0,0,0,0,0,0,0,5765,5766,5767,5768,
0,0,0,0,0,0,0,0,0,0,0,0,5813,5814,5815,5816,
5125,0,0,0,0,0,0,0,0,0,0,0,5861,5862,5863,5864,
5150,0,0,0,0,0,0,0,0,0,0,0,0,0,0,0,
5175,6493,6494,6637,6638,6349,6350,6997,6998,6999,0,0,0,0,0,0,
5200,6541,6542,6685,6686,6397,6398,7069,7070,7071,0,0,0,0,0,0,
5225,6589,6590,6733,6734,6445,6446,7141,7142,7143,0,0,0,0,0,0,
0,0,0,0,0,0,0,0,0,0,0,0,0,0,0,0
</chunk>
  </data>
 </layer>
</map>
