<?xml version="1.0" encoding="UTF-8"?>
<map version="1.10" tiledversion="1.10.2" orientation="orthogonal" renderorder="right-down" width="16" height="24" tilewidth="16" tileheight="16" infinite="1" nextlayerid="7" nextobjectid="1">
 <tileset firstgid="1" name="Interior_walls" tilewidth="16" tileheight="16" tilecount="375" columns="15">
  <image source="Interior_walls.png" width="240" height="400"/>
 </tileset>
 <tileset firstgid="376" name="Pupils_together_floor2" tilewidth="16" tileheight="16" tilecount="1008" columns="42">
  <image source="Pupils_together_floor2.png" width="672" height="384"/>
  <tile id="1">
   <animation>
    <frame tileid="1" duration="150"/>
    <frame tileid="8" duration="150"/>
    <frame tileid="15" duration="150"/>
    <frame tileid="22" duration="150"/>
    <frame tileid="29" duration="150"/>
    <frame tileid="36" duration="150"/>
    <frame tileid="253" duration="150"/>
    <frame tileid="260" duration="150"/>
    <frame tileid="267" duration="150"/>
    <frame tileid="274" duration="150"/>
    <frame tileid="281" duration="150"/>
    <frame tileid="288" duration="150"/>
    <frame tileid="505" duration="150"/>
    <frame tileid="512" duration="150"/>
    <frame tileid="519" duration="150"/>
    <frame tileid="526" duration="150"/>
    <frame tileid="533" duration="150"/>
    <frame tileid="540" duration="150"/>
    <frame tileid="757" duration="150"/>
    <frame tileid="764" duration="150"/>
    <frame tileid="771" duration="150"/>
    <frame tileid="778" duration="150"/>
    <frame tileid="785" duration="150"/>
    <frame tileid="792" duration="150"/>
   </animation>
  </tile>
  <tile id="2">
   <animation>
    <frame tileid="2" duration="150"/>
    <frame tileid="9" duration="150"/>
    <frame tileid="16" duration="150"/>
    <frame tileid="23" duration="150"/>
    <frame tileid="30" duration="150"/>
    <frame tileid="37" duration="150"/>
    <frame tileid="254" duration="150"/>
    <frame tileid="261" duration="150"/>
    <frame tileid="268" duration="150"/>
    <frame tileid="275" duration="150"/>
    <frame tileid="282" duration="150"/>
    <frame tileid="289" duration="150"/>
    <frame tileid="506" duration="150"/>
    <frame tileid="513" duration="150"/>
    <frame tileid="520" duration="150"/>
    <frame tileid="527" duration="150"/>
    <frame tileid="534" duration="150"/>
    <frame tileid="541" duration="150"/>
    <frame tileid="758" duration="150"/>
    <frame tileid="765" duration="150"/>
    <frame tileid="772" duration="150"/>
    <frame tileid="779" duration="150"/>
    <frame tileid="786" duration="150"/>
    <frame tileid="793" duration="150"/>
   </animation>
  </tile>
  <tile id="4">
   <animation>
    <frame tileid="4" duration="150"/>
    <frame tileid="11" duration="150"/>
    <frame tileid="18" duration="150"/>
    <frame tileid="25" duration="150"/>
    <frame tileid="32" duration="150"/>
    <frame tileid="39" duration="150"/>
    <frame tileid="256" duration="150"/>
    <frame tileid="263" duration="150"/>
    <frame tileid="270" duration="150"/>
    <frame tileid="277" duration="150"/>
    <frame tileid="284" duration="150"/>
    <frame tileid="291" duration="150"/>
    <frame tileid="508" duration="150"/>
    <frame tileid="515" duration="150"/>
    <frame tileid="522" duration="150"/>
    <frame tileid="529" duration="150"/>
    <frame tileid="536" duration="150"/>
    <frame tileid="543" duration="150"/>
    <frame tileid="760" duration="150"/>
    <frame tileid="767" duration="150"/>
    <frame tileid="774" duration="150"/>
    <frame tileid="781" duration="150"/>
    <frame tileid="788" duration="150"/>
    <frame tileid="795" duration="150"/>
   </animation>
  </tile>
  <tile id="5">
   <animation>
    <frame tileid="5" duration="150"/>
    <frame tileid="12" duration="150"/>
    <frame tileid="19" duration="150"/>
    <frame tileid="26" duration="150"/>
    <frame tileid="33" duration="150"/>
    <frame tileid="40" duration="150"/>
    <frame tileid="257" duration="150"/>
    <frame tileid="264" duration="150"/>
    <frame tileid="271" duration="150"/>
    <frame tileid="278" duration="150"/>
    <frame tileid="285" duration="150"/>
    <frame tileid="292" duration="150"/>
    <frame tileid="509" duration="150"/>
    <frame tileid="516" duration="150"/>
    <frame tileid="523" duration="150"/>
    <frame tileid="530" duration="150"/>
    <frame tileid="537" duration="150"/>
    <frame tileid="544" duration="150"/>
    <frame tileid="761" duration="150"/>
    <frame tileid="768" duration="150"/>
    <frame tileid="775" duration="150"/>
    <frame tileid="782" duration="150"/>
    <frame tileid="789" duration="150"/>
    <frame tileid="796" duration="150"/>
   </animation>
  </tile>
  <tile id="42">
   <animation>
    <frame tileid="42" duration="150"/>
    <frame tileid="49" duration="150"/>
    <frame tileid="56" duration="150"/>
    <frame tileid="63" duration="150"/>
    <frame tileid="70" duration="150"/>
    <frame tileid="77" duration="150"/>
    <frame tileid="294" duration="150"/>
    <frame tileid="301" duration="150"/>
    <frame tileid="308" duration="150"/>
    <frame tileid="315" duration="150"/>
    <frame tileid="322" duration="150"/>
    <frame tileid="329" duration="150"/>
    <frame tileid="546" duration="150"/>
    <frame tileid="553" duration="150"/>
    <frame tileid="560" duration="150"/>
    <frame tileid="567" duration="150"/>
    <frame tileid="574" duration="150"/>
    <frame tileid="581" duration="150"/>
    <frame tileid="798" duration="150"/>
    <frame tileid="805" duration="150"/>
    <frame tileid="812" duration="150"/>
    <frame tileid="819" duration="150"/>
    <frame tileid="826" duration="150"/>
    <frame tileid="833" duration="150"/>
   </animation>
  </tile>
  <tile id="43">
   <animation>
    <frame tileid="43" duration="150"/>
    <frame tileid="50" duration="150"/>
    <frame tileid="57" duration="150"/>
    <frame tileid="64" duration="150"/>
    <frame tileid="71" duration="150"/>
    <frame tileid="78" duration="150"/>
    <frame tileid="295" duration="150"/>
    <frame tileid="302" duration="150"/>
    <frame tileid="309" duration="150"/>
    <frame tileid="316" duration="150"/>
    <frame tileid="323" duration="150"/>
    <frame tileid="330" duration="150"/>
    <frame tileid="547" duration="150"/>
    <frame tileid="554" duration="150"/>
    <frame tileid="561" duration="150"/>
    <frame tileid="568" duration="150"/>
    <frame tileid="575" duration="150"/>
    <frame tileid="582" duration="150"/>
    <frame tileid="799" duration="150"/>
    <frame tileid="806" duration="150"/>
    <frame tileid="813" duration="150"/>
    <frame tileid="820" duration="150"/>
    <frame tileid="827" duration="150"/>
    <frame tileid="834" duration="150"/>
   </animation>
  </tile>
  <tile id="44">
   <animation>
    <frame tileid="44" duration="150"/>
    <frame tileid="51" duration="150"/>
    <frame tileid="58" duration="150"/>
    <frame tileid="65" duration="150"/>
    <frame tileid="72" duration="150"/>
    <frame tileid="79" duration="150"/>
    <frame tileid="296" duration="150"/>
    <frame tileid="303" duration="150"/>
    <frame tileid="310" duration="150"/>
    <frame tileid="317" duration="150"/>
    <frame tileid="324" duration="150"/>
    <frame tileid="331" duration="150"/>
    <frame tileid="548" duration="150"/>
    <frame tileid="555" duration="150"/>
    <frame tileid="562" duration="150"/>
    <frame tileid="569" duration="150"/>
    <frame tileid="576" duration="150"/>
    <frame tileid="583" duration="150"/>
    <frame tileid="800" duration="150"/>
    <frame tileid="807" duration="150"/>
    <frame tileid="814" duration="150"/>
    <frame tileid="821" duration="150"/>
    <frame tileid="828" duration="150"/>
    <frame tileid="835" duration="150"/>
   </animation>
  </tile>
  <tile id="46">
   <animation>
    <frame tileid="46" duration="150"/>
    <frame tileid="53" duration="150"/>
    <frame tileid="60" duration="150"/>
    <frame tileid="67" duration="150"/>
    <frame tileid="74" duration="150"/>
    <frame tileid="81" duration="150"/>
    <frame tileid="298" duration="150"/>
    <frame tileid="305" duration="150"/>
    <frame tileid="312" duration="150"/>
    <frame tileid="319" duration="150"/>
    <frame tileid="326" duration="150"/>
    <frame tileid="333" duration="150"/>
    <frame tileid="550" duration="150"/>
    <frame tileid="557" duration="150"/>
    <frame tileid="564" duration="150"/>
    <frame tileid="571" duration="150"/>
    <frame tileid="578" duration="150"/>
    <frame tileid="585" duration="150"/>
    <frame tileid="802" duration="150"/>
    <frame tileid="809" duration="150"/>
    <frame tileid="816" duration="150"/>
    <frame tileid="823" duration="150"/>
    <frame tileid="830" duration="150"/>
    <frame tileid="837" duration="150"/>
   </animation>
  </tile>
  <tile id="47">
   <animation>
    <frame tileid="47" duration="150"/>
    <frame tileid="54" duration="150"/>
    <frame tileid="61" duration="150"/>
    <frame tileid="68" duration="150"/>
    <frame tileid="75" duration="150"/>
    <frame tileid="82" duration="150"/>
    <frame tileid="299" duration="150"/>
    <frame tileid="306" duration="150"/>
    <frame tileid="313" duration="150"/>
    <frame tileid="320" duration="150"/>
    <frame tileid="327" duration="150"/>
    <frame tileid="334" duration="150"/>
    <frame tileid="551" duration="150"/>
    <frame tileid="558" duration="150"/>
    <frame tileid="565" duration="150"/>
    <frame tileid="572" duration="150"/>
    <frame tileid="579" duration="150"/>
    <frame tileid="586" duration="150"/>
    <frame tileid="803" duration="150"/>
    <frame tileid="810" duration="150"/>
    <frame tileid="817" duration="150"/>
    <frame tileid="824" duration="150"/>
    <frame tileid="831" duration="150"/>
    <frame tileid="838" duration="150"/>
   </animation>
  </tile>
  <tile id="84">
   <animation>
    <frame tileid="84" duration="150"/>
    <frame tileid="91" duration="150"/>
    <frame tileid="98" duration="150"/>
    <frame tileid="105" duration="150"/>
    <frame tileid="112" duration="150"/>
    <frame tileid="119" duration="150"/>
    <frame tileid="336" duration="150"/>
    <frame tileid="343" duration="150"/>
    <frame tileid="350" duration="150"/>
    <frame tileid="357" duration="150"/>
    <frame tileid="364" duration="150"/>
    <frame tileid="371" duration="150"/>
    <frame tileid="588" duration="150"/>
    <frame tileid="595" duration="150"/>
    <frame tileid="602" duration="150"/>
    <frame tileid="609" duration="150"/>
    <frame tileid="616" duration="150"/>
    <frame tileid="623" duration="150"/>
    <frame tileid="840" duration="150"/>
    <frame tileid="847" duration="150"/>
    <frame tileid="854" duration="150"/>
    <frame tileid="861" duration="150"/>
    <frame tileid="868" duration="150"/>
    <frame tileid="875" duration="150"/>
   </animation>
  </tile>
  <tile id="85">
   <animation>
    <frame tileid="85" duration="150"/>
    <frame tileid="92" duration="150"/>
    <frame tileid="99" duration="150"/>
    <frame tileid="106" duration="150"/>
    <frame tileid="113" duration="150"/>
    <frame tileid="120" duration="150"/>
    <frame tileid="337" duration="150"/>
    <frame tileid="344" duration="150"/>
    <frame tileid="351" duration="150"/>
    <frame tileid="358" duration="150"/>
    <frame tileid="365" duration="150"/>
    <frame tileid="372" duration="150"/>
    <frame tileid="589" duration="150"/>
    <frame tileid="596" duration="150"/>
    <frame tileid="603" duration="150"/>
    <frame tileid="610" duration="150"/>
    <frame tileid="617" duration="150"/>
    <frame tileid="624" duration="150"/>
    <frame tileid="841" duration="150"/>
    <frame tileid="848" duration="150"/>
    <frame tileid="855" duration="150"/>
    <frame tileid="862" duration="150"/>
    <frame tileid="869" duration="150"/>
    <frame tileid="876" duration="150"/>
   </animation>
  </tile>
  <tile id="89">
   <animation>
    <frame tileid="89" duration="150"/>
    <frame tileid="96" duration="150"/>
    <frame tileid="103" duration="150"/>
    <frame tileid="110" duration="150"/>
    <frame tileid="117" duration="150"/>
    <frame tileid="124" duration="150"/>
    <frame tileid="341" duration="150"/>
    <frame tileid="348" duration="150"/>
    <frame tileid="355" duration="150"/>
    <frame tileid="362" duration="150"/>
    <frame tileid="369" duration="150"/>
    <frame tileid="376" duration="150"/>
    <frame tileid="593" duration="150"/>
    <frame tileid="600" duration="150"/>
    <frame tileid="607" duration="150"/>
    <frame tileid="614" duration="150"/>
    <frame tileid="621" duration="150"/>
    <frame tileid="628" duration="150"/>
    <frame tileid="845" duration="150"/>
    <frame tileid="852" duration="150"/>
    <frame tileid="859" duration="150"/>
    <frame tileid="866" duration="150"/>
    <frame tileid="873" duration="150"/>
    <frame tileid="880" duration="150"/>
   </animation>
  </tile>
  <tile id="90">
   <animation>
    <frame tileid="90" duration="150"/>
    <frame tileid="97" duration="150"/>
    <frame tileid="104" duration="150"/>
    <frame tileid="111" duration="150"/>
    <frame tileid="118" duration="150"/>
    <frame tileid="125" duration="150"/>
    <frame tileid="342" duration="150"/>
    <frame tileid="349" duration="150"/>
    <frame tileid="356" duration="150"/>
    <frame tileid="363" duration="150"/>
    <frame tileid="370" duration="150"/>
    <frame tileid="377" duration="150"/>
    <frame tileid="594" duration="150"/>
    <frame tileid="601" duration="150"/>
    <frame tileid="608" duration="150"/>
    <frame tileid="615" duration="150"/>
    <frame tileid="622" duration="150"/>
    <frame tileid="629" duration="150"/>
    <frame tileid="846" duration="150"/>
    <frame tileid="853" duration="150"/>
    <frame tileid="860" duration="150"/>
    <frame tileid="867" duration="150"/>
    <frame tileid="874" duration="150"/>
    <frame tileid="881" duration="150"/>
   </animation>
  </tile>
  <tile id="126">
   <animation>
    <frame tileid="126" duration="150"/>
    <frame tileid="133" duration="150"/>
    <frame tileid="140" duration="150"/>
    <frame tileid="147" duration="150"/>
    <frame tileid="154" duration="150"/>
    <frame tileid="161" duration="150"/>
    <frame tileid="378" duration="150"/>
    <frame tileid="385" duration="150"/>
    <frame tileid="392" duration="150"/>
    <frame tileid="399" duration="150"/>
    <frame tileid="406" duration="150"/>
    <frame tileid="413" duration="150"/>
    <frame tileid="630" duration="150"/>
    <frame tileid="637" duration="150"/>
    <frame tileid="644" duration="150"/>
    <frame tileid="651" duration="150"/>
    <frame tileid="658" duration="150"/>
    <frame tileid="665" duration="150"/>
    <frame tileid="882" duration="150"/>
    <frame tileid="889" duration="150"/>
    <frame tileid="896" duration="150"/>
    <frame tileid="903" duration="150"/>
    <frame tileid="910" duration="150"/>
    <frame tileid="917" duration="150"/>
   </animation>
  </tile>
  <tile id="127">
   <animation>
    <frame tileid="127" duration="150"/>
    <frame tileid="134" duration="150"/>
    <frame tileid="141" duration="150"/>
    <frame tileid="148" duration="150"/>
    <frame tileid="155" duration="150"/>
    <frame tileid="162" duration="150"/>
    <frame tileid="379" duration="150"/>
    <frame tileid="386" duration="150"/>
    <frame tileid="393" duration="150"/>
    <frame tileid="400" duration="150"/>
    <frame tileid="407" duration="150"/>
    <frame tileid="414" duration="150"/>
    <frame tileid="631" duration="150"/>
    <frame tileid="638" duration="150"/>
    <frame tileid="645" duration="150"/>
    <frame tileid="652" duration="150"/>
    <frame tileid="659" duration="150"/>
    <frame tileid="666" duration="150"/>
    <frame tileid="883" duration="150"/>
    <frame tileid="890" duration="150"/>
    <frame tileid="897" duration="150"/>
    <frame tileid="904" duration="150"/>
    <frame tileid="911" duration="150"/>
    <frame tileid="918" duration="150"/>
   </animation>
  </tile>
  <tile id="128">
   <animation>
    <frame tileid="128" duration="150"/>
    <frame tileid="135" duration="150"/>
    <frame tileid="142" duration="150"/>
    <frame tileid="149" duration="150"/>
    <frame tileid="156" duration="150"/>
    <frame tileid="163" duration="150"/>
    <frame tileid="380" duration="150"/>
    <frame tileid="387" duration="150"/>
    <frame tileid="394" duration="150"/>
    <frame tileid="401" duration="150"/>
    <frame tileid="408" duration="150"/>
    <frame tileid="415" duration="150"/>
    <frame tileid="632" duration="150"/>
    <frame tileid="639" duration="150"/>
    <frame tileid="646" duration="150"/>
    <frame tileid="653" duration="150"/>
    <frame tileid="660" duration="150"/>
    <frame tileid="667" duration="150"/>
    <frame tileid="884" duration="150"/>
    <frame tileid="891" duration="150"/>
    <frame tileid="898" duration="150"/>
    <frame tileid="905" duration="150"/>
    <frame tileid="912" duration="150"/>
    <frame tileid="919" duration="150"/>
   </animation>
  </tile>
  <tile id="129">
   <animation>
    <frame tileid="129" duration="150"/>
    <frame tileid="136" duration="150"/>
    <frame tileid="143" duration="150"/>
    <frame tileid="150" duration="150"/>
    <frame tileid="157" duration="150"/>
    <frame tileid="164" duration="150"/>
    <frame tileid="381" duration="150"/>
    <frame tileid="388" duration="150"/>
    <frame tileid="395" duration="150"/>
    <frame tileid="402" duration="150"/>
    <frame tileid="409" duration="150"/>
    <frame tileid="416" duration="150"/>
    <frame tileid="633" duration="150"/>
    <frame tileid="640" duration="150"/>
    <frame tileid="647" duration="150"/>
    <frame tileid="654" duration="150"/>
    <frame tileid="661" duration="150"/>
    <frame tileid="668" duration="150"/>
    <frame tileid="885" duration="150"/>
    <frame tileid="892" duration="150"/>
    <frame tileid="899" duration="150"/>
    <frame tileid="906" duration="150"/>
    <frame tileid="913" duration="150"/>
    <frame tileid="920" duration="150"/>
   </animation>
  </tile>
  <tile id="130">
   <animation>
    <frame tileid="130" duration="150"/>
    <frame tileid="137" duration="150"/>
    <frame tileid="144" duration="150"/>
    <frame tileid="151" duration="150"/>
    <frame tileid="158" duration="150"/>
    <frame tileid="165" duration="150"/>
    <frame tileid="382" duration="150"/>
    <frame tileid="389" duration="150"/>
    <frame tileid="396" duration="150"/>
    <frame tileid="403" duration="150"/>
    <frame tileid="410" duration="150"/>
    <frame tileid="417" duration="150"/>
    <frame tileid="634" duration="150"/>
    <frame tileid="641" duration="150"/>
    <frame tileid="648" duration="150"/>
    <frame tileid="655" duration="150"/>
    <frame tileid="662" duration="150"/>
    <frame tileid="669" duration="150"/>
    <frame tileid="886" duration="150"/>
    <frame tileid="893" duration="150"/>
    <frame tileid="900" duration="150"/>
    <frame tileid="907" duration="150"/>
    <frame tileid="914" duration="150"/>
    <frame tileid="921" duration="150"/>
   </animation>
  </tile>
  <tile id="131">
   <animation>
    <frame tileid="131" duration="150"/>
    <frame tileid="138" duration="150"/>
    <frame tileid="145" duration="150"/>
    <frame tileid="152" duration="150"/>
    <frame tileid="159" duration="150"/>
    <frame tileid="166" duration="150"/>
    <frame tileid="383" duration="150"/>
    <frame tileid="390" duration="150"/>
    <frame tileid="397" duration="150"/>
    <frame tileid="404" duration="150"/>
    <frame tileid="411" duration="150"/>
    <frame tileid="418" duration="150"/>
    <frame tileid="635" duration="150"/>
    <frame tileid="642" duration="150"/>
    <frame tileid="649" duration="150"/>
    <frame tileid="656" duration="150"/>
    <frame tileid="663" duration="150"/>
    <frame tileid="670" duration="150"/>
    <frame tileid="887" duration="150"/>
    <frame tileid="894" duration="150"/>
    <frame tileid="901" duration="150"/>
    <frame tileid="908" duration="150"/>
    <frame tileid="915" duration="150"/>
    <frame tileid="922" duration="150"/>
   </animation>
  </tile>
  <tile id="132">
   <animation>
    <frame tileid="132" duration="150"/>
    <frame tileid="139" duration="150"/>
    <frame tileid="146" duration="150"/>
    <frame tileid="153" duration="150"/>
    <frame tileid="160" duration="150"/>
    <frame tileid="167" duration="150"/>
    <frame tileid="384" duration="150"/>
    <frame tileid="391" duration="150"/>
    <frame tileid="398" duration="150"/>
    <frame tileid="405" duration="150"/>
    <frame tileid="412" duration="150"/>
    <frame tileid="419" duration="150"/>
    <frame tileid="636" duration="150"/>
    <frame tileid="643" duration="150"/>
    <frame tileid="650" duration="150"/>
    <frame tileid="657" duration="150"/>
    <frame tileid="664" duration="150"/>
    <frame tileid="671" duration="150"/>
    <frame tileid="888" duration="150"/>
    <frame tileid="895" duration="150"/>
    <frame tileid="902" duration="150"/>
    <frame tileid="909" duration="150"/>
    <frame tileid="916" duration="150"/>
    <frame tileid="923" duration="150"/>
   </animation>
  </tile>
  <tile id="169">
   <animation>
    <frame tileid="169" duration="150"/>
    <frame tileid="176" duration="150"/>
    <frame tileid="183" duration="150"/>
    <frame tileid="190" duration="150"/>
    <frame tileid="197" duration="150"/>
    <frame tileid="204" duration="150"/>
    <frame tileid="421" duration="150"/>
    <frame tileid="428" duration="150"/>
    <frame tileid="435" duration="150"/>
    <frame tileid="442" duration="150"/>
    <frame tileid="449" duration="150"/>
    <frame tileid="456" duration="150"/>
    <frame tileid="673" duration="150"/>
    <frame tileid="680" duration="150"/>
    <frame tileid="687" duration="150"/>
    <frame tileid="694" duration="150"/>
    <frame tileid="701" duration="150"/>
    <frame tileid="708" duration="150"/>
    <frame tileid="925" duration="150"/>
    <frame tileid="932" duration="150"/>
    <frame tileid="939" duration="150"/>
    <frame tileid="946" duration="150"/>
    <frame tileid="953" duration="150"/>
    <frame tileid="960" duration="150"/>
   </animation>
  </tile>
  <tile id="170">
   <animation>
    <frame tileid="170" duration="150"/>
    <frame tileid="177" duration="150"/>
    <frame tileid="184" duration="150"/>
    <frame tileid="191" duration="150"/>
    <frame tileid="198" duration="150"/>
    <frame tileid="205" duration="150"/>
    <frame tileid="422" duration="150"/>
    <frame tileid="429" duration="150"/>
    <frame tileid="436" duration="150"/>
    <frame tileid="443" duration="150"/>
    <frame tileid="450" duration="150"/>
    <frame tileid="457" duration="150"/>
    <frame tileid="674" duration="150"/>
    <frame tileid="681" duration="150"/>
    <frame tileid="688" duration="150"/>
    <frame tileid="695" duration="150"/>
    <frame tileid="702" duration="150"/>
    <frame tileid="709" duration="150"/>
    <frame tileid="926" duration="150"/>
    <frame tileid="933" duration="150"/>
    <frame tileid="940" duration="150"/>
    <frame tileid="947" duration="150"/>
    <frame tileid="954" duration="150"/>
    <frame tileid="961" duration="150"/>
   </animation>
  </tile>
  <tile id="171">
   <animation>
    <frame tileid="171" duration="150"/>
    <frame tileid="178" duration="150"/>
    <frame tileid="185" duration="150"/>
    <frame tileid="192" duration="150"/>
    <frame tileid="199" duration="150"/>
    <frame tileid="206" duration="150"/>
    <frame tileid="423" duration="150"/>
    <frame tileid="430" duration="150"/>
    <frame tileid="437" duration="150"/>
    <frame tileid="444" duration="150"/>
    <frame tileid="451" duration="150"/>
    <frame tileid="458" duration="150"/>
    <frame tileid="675" duration="150"/>
    <frame tileid="682" duration="150"/>
    <frame tileid="689" duration="150"/>
    <frame tileid="696" duration="150"/>
    <frame tileid="703" duration="150"/>
    <frame tileid="710" duration="150"/>
    <frame tileid="927" duration="150"/>
    <frame tileid="934" duration="150"/>
    <frame tileid="941" duration="150"/>
    <frame tileid="948" duration="150"/>
    <frame tileid="955" duration="150"/>
    <frame tileid="962" duration="150"/>
   </animation>
  </tile>
  <tile id="172">
   <animation>
    <frame tileid="172" duration="150"/>
    <frame tileid="179" duration="150"/>
    <frame tileid="186" duration="150"/>
    <frame tileid="193" duration="150"/>
    <frame tileid="200" duration="150"/>
    <frame tileid="207" duration="150"/>
    <frame tileid="424" duration="150"/>
    <frame tileid="431" duration="150"/>
    <frame tileid="438" duration="150"/>
    <frame tileid="445" duration="150"/>
    <frame tileid="452" duration="150"/>
    <frame tileid="459" duration="150"/>
    <frame tileid="676" duration="150"/>
    <frame tileid="683" duration="150"/>
    <frame tileid="690" duration="150"/>
    <frame tileid="697" duration="150"/>
    <frame tileid="704" duration="150"/>
    <frame tileid="711" duration="150"/>
    <frame tileid="928" duration="150"/>
    <frame tileid="935" duration="150"/>
    <frame tileid="942" duration="150"/>
    <frame tileid="949" duration="150"/>
    <frame tileid="956" duration="150"/>
    <frame tileid="963" duration="150"/>
   </animation>
  </tile>
  <tile id="173">
   <animation>
    <frame tileid="173" duration="150"/>
    <frame tileid="180" duration="150"/>
    <frame tileid="187" duration="150"/>
    <frame tileid="194" duration="150"/>
    <frame tileid="201" duration="150"/>
    <frame tileid="208" duration="150"/>
    <frame tileid="425" duration="150"/>
    <frame tileid="432" duration="150"/>
    <frame tileid="439" duration="150"/>
    <frame tileid="446" duration="150"/>
    <frame tileid="453" duration="150"/>
    <frame tileid="460" duration="150"/>
    <frame tileid="677" duration="150"/>
    <frame tileid="684" duration="150"/>
    <frame tileid="691" duration="150"/>
    <frame tileid="698" duration="150"/>
    <frame tileid="705" duration="150"/>
    <frame tileid="712" duration="150"/>
    <frame tileid="929" duration="150"/>
    <frame tileid="936" duration="150"/>
    <frame tileid="943" duration="150"/>
    <frame tileid="950" duration="150"/>
    <frame tileid="957" duration="150"/>
    <frame tileid="964" duration="150"/>
   </animation>
  </tile>
  <tile id="213">
   <animation>
    <frame tileid="213" duration="150"/>
    <frame tileid="220" duration="150"/>
    <frame tileid="227" duration="150"/>
    <frame tileid="234" duration="150"/>
    <frame tileid="241" duration="150"/>
    <frame tileid="248" duration="150"/>
    <frame tileid="465" duration="150"/>
    <frame tileid="472" duration="150"/>
    <frame tileid="479" duration="150"/>
    <frame tileid="486" duration="150"/>
    <frame tileid="493" duration="150"/>
    <frame tileid="500" duration="150"/>
    <frame tileid="717" duration="150"/>
    <frame tileid="724" duration="150"/>
    <frame tileid="731" duration="150"/>
    <frame tileid="738" duration="150"/>
    <frame tileid="745" duration="150"/>
    <frame tileid="752" duration="150"/>
    <frame tileid="969" duration="150"/>
    <frame tileid="976" duration="150"/>
    <frame tileid="983" duration="150"/>
    <frame tileid="990" duration="150"/>
    <frame tileid="997" duration="150"/>
    <frame tileid="1004" duration="150"/>
   </animation>
  </tile>
 </tileset>
 <tileset firstgid="1384" name="Interior_objects" tilewidth="16" tileheight="16" tilecount="306" columns="18">
  <image source="Interior_objects.png" width="288" height="272"/>
 </tileset>
 <tileset firstgid="1690" name="Lightning" tilewidth="16" tileheight="16" tilecount="480" columns="20">
  <image source="Lightning.png" width="320" height="384"/>
  <tile id="2">
   <animation>
    <frame tileid="2" duration="150"/>
    <frame tileid="7" duration="150"/>
    <frame tileid="12" duration="150"/>
    <frame tileid="17" duration="150"/>
    <frame tileid="162" duration="150"/>
    <frame tileid="167" duration="150"/>
    <frame tileid="172" duration="150"/>
    <frame tileid="177" duration="150"/>
    <frame tileid="322" duration="150"/>
    <frame tileid="327" duration="150"/>
    <frame tileid="332" duration="150"/>
    <frame tileid="337" duration="150"/>
    <frame tileid="419" duration="150"/>
    <frame tileid="419" duration="150"/>
    <frame tileid="419" duration="150"/>
    <frame tileid="419" duration="150"/>
    <frame tileid="419" duration="150"/>
    <frame tileid="419" duration="150"/>
    <frame tileid="419" duration="150"/>
    <frame tileid="419" duration="150"/>
    <frame tileid="419" duration="150"/>
    <frame tileid="419" duration="150"/>
    <frame tileid="419" duration="150"/>
    <frame tileid="419" duration="150"/>
   </animation>
  </tile>
  <tile id="21">
   <animation>
    <frame tileid="21" duration="150"/>
    <frame tileid="26" duration="150"/>
    <frame tileid="31" duration="150"/>
    <frame tileid="36" duration="150"/>
    <frame tileid="181" duration="150"/>
    <frame tileid="186" duration="150"/>
    <frame tileid="191" duration="150"/>
    <frame tileid="196" duration="150"/>
    <frame tileid="341" duration="150"/>
    <frame tileid="346" duration="150"/>
    <frame tileid="351" duration="150"/>
    <frame tileid="356" duration="150"/>
    <frame tileid="419" duration="150"/>
    <frame tileid="419" duration="150"/>
    <frame tileid="419" duration="150"/>
    <frame tileid="419" duration="150"/>
    <frame tileid="419" duration="150"/>
    <frame tileid="419" duration="150"/>
    <frame tileid="419" duration="150"/>
    <frame tileid="419" duration="150"/>
    <frame tileid="419" duration="150"/>
    <frame tileid="419" duration="150"/>
    <frame tileid="419" duration="150"/>
    <frame tileid="419" duration="150"/>
   </animation>
  </tile>
  <tile id="22">
   <animation>
    <frame tileid="22" duration="150"/>
    <frame tileid="27" duration="150"/>
    <frame tileid="32" duration="150"/>
    <frame tileid="37" duration="150"/>
    <frame tileid="182" duration="150"/>
    <frame tileid="187" duration="150"/>
    <frame tileid="192" duration="150"/>
    <frame tileid="197" duration="150"/>
    <frame tileid="342" duration="150"/>
    <frame tileid="347" duration="150"/>
    <frame tileid="352" duration="150"/>
    <frame tileid="357" duration="150"/>
    <frame tileid="419" duration="150"/>
    <frame tileid="419" duration="150"/>
    <frame tileid="419" duration="150"/>
    <frame tileid="419" duration="150"/>
    <frame tileid="419" duration="150"/>
    <frame tileid="419" duration="150"/>
    <frame tileid="419" duration="150"/>
    <frame tileid="419" duration="150"/>
    <frame tileid="419" duration="150"/>
    <frame tileid="419" duration="150"/>
    <frame tileid="419" duration="150"/>
    <frame tileid="419" duration="150"/>
   </animation>
  </tile>
  <tile id="23">
   <animation>
    <frame tileid="23" duration="150"/>
    <frame tileid="28" duration="150"/>
    <frame tileid="33" duration="150"/>
    <frame tileid="38" duration="150"/>
    <frame tileid="183" duration="150"/>
    <frame tileid="188" duration="150"/>
    <frame tileid="193" duration="150"/>
    <frame tileid="198" duration="150"/>
    <frame tileid="343" duration="150"/>
    <frame tileid="348" duration="150"/>
    <frame tileid="353" duration="150"/>
    <frame tileid="358" duration="150"/>
    <frame tileid="419" duration="150"/>
    <frame tileid="419" duration="150"/>
    <frame tileid="419" duration="150"/>
    <frame tileid="419" duration="150"/>
    <frame tileid="419" duration="150"/>
    <frame tileid="419" duration="150"/>
    <frame tileid="419" duration="150"/>
    <frame tileid="419" duration="150"/>
    <frame tileid="419" duration="150"/>
    <frame tileid="419" duration="150"/>
    <frame tileid="419" duration="150"/>
    <frame tileid="419" duration="150"/>
   </animation>
  </tile>
  <tile id="42">
   <animation>
    <frame tileid="42" duration="150"/>
    <frame tileid="47" duration="150"/>
    <frame tileid="52" duration="150"/>
    <frame tileid="57" duration="150"/>
    <frame tileid="202" duration="150"/>
    <frame tileid="207" duration="150"/>
    <frame tileid="212" duration="150"/>
    <frame tileid="217" duration="150"/>
    <frame tileid="362" duration="150"/>
    <frame tileid="367" duration="150"/>
    <frame tileid="372" duration="150"/>
    <frame tileid="377" duration="150"/>
    <frame tileid="419" duration="150"/>
    <frame tileid="419" duration="150"/>
    <frame tileid="419" duration="150"/>
    <frame tileid="419" duration="150"/>
    <frame tileid="419" duration="150"/>
    <frame tileid="419" duration="150"/>
    <frame tileid="419" duration="150"/>
    <frame tileid="419" duration="150"/>
    <frame tileid="419" duration="150"/>
    <frame tileid="419" duration="150"/>
    <frame tileid="419" duration="150"/>
    <frame tileid="419" duration="150"/>
   </animation>
  </tile>
  <tile id="43">
   <animation>
    <frame tileid="43" duration="150"/>
    <frame tileid="48" duration="150"/>
    <frame tileid="53" duration="150"/>
    <frame tileid="58" duration="150"/>
    <frame tileid="203" duration="150"/>
    <frame tileid="208" duration="150"/>
    <frame tileid="213" duration="150"/>
    <frame tileid="218" duration="150"/>
    <frame tileid="363" duration="150"/>
    <frame tileid="368" duration="150"/>
    <frame tileid="373" duration="150"/>
    <frame tileid="378" duration="150"/>
    <frame tileid="419" duration="150"/>
    <frame tileid="419" duration="150"/>
    <frame tileid="419" duration="150"/>
    <frame tileid="419" duration="150"/>
    <frame tileid="419" duration="150"/>
    <frame tileid="419" duration="150"/>
    <frame tileid="419" duration="150"/>
    <frame tileid="419" duration="150"/>
    <frame tileid="419" duration="150"/>
    <frame tileid="419" duration="150"/>
    <frame tileid="419" duration="150"/>
    <frame tileid="419" duration="150"/>
   </animation>
  </tile>
  <tile id="44">
   <animation>
    <frame tileid="44" duration="150"/>
    <frame tileid="49" duration="150"/>
    <frame tileid="54" duration="150"/>
    <frame tileid="59" duration="150"/>
    <frame tileid="204" duration="150"/>
    <frame tileid="209" duration="150"/>
    <frame tileid="214" duration="150"/>
    <frame tileid="219" duration="150"/>
    <frame tileid="364" duration="150"/>
    <frame tileid="369" duration="150"/>
    <frame tileid="374" duration="150"/>
    <frame tileid="379" duration="150"/>
    <frame tileid="419" duration="150"/>
    <frame tileid="419" duration="150"/>
    <frame tileid="419" duration="150"/>
    <frame tileid="419" duration="150"/>
    <frame tileid="419" duration="150"/>
    <frame tileid="419" duration="150"/>
    <frame tileid="419" duration="150"/>
    <frame tileid="419" duration="150"/>
    <frame tileid="419" duration="150"/>
    <frame tileid="419" duration="150"/>
    <frame tileid="419" duration="150"/>
    <frame tileid="419" duration="150"/>
   </animation>
  </tile>
  <tile id="61">
   <animation>
    <frame tileid="61" duration="150"/>
    <frame tileid="66" duration="150"/>
    <frame tileid="71" duration="150"/>
    <frame tileid="76" duration="150"/>
    <frame tileid="221" duration="150"/>
    <frame tileid="226" duration="150"/>
    <frame tileid="231" duration="150"/>
    <frame tileid="236" duration="150"/>
    <frame tileid="381" duration="150"/>
    <frame tileid="386" duration="150"/>
    <frame tileid="391" duration="150"/>
    <frame tileid="396" duration="150"/>
    <frame tileid="419" duration="150"/>
    <frame tileid="419" duration="150"/>
    <frame tileid="419" duration="150"/>
    <frame tileid="419" duration="150"/>
    <frame tileid="419" duration="150"/>
    <frame tileid="419" duration="150"/>
    <frame tileid="419" duration="150"/>
    <frame tileid="419" duration="150"/>
    <frame tileid="419" duration="150"/>
    <frame tileid="419" duration="150"/>
    <frame tileid="419" duration="150"/>
    <frame tileid="419" duration="150"/>
   </animation>
  </tile>
  <tile id="62">
   <animation>
    <frame tileid="62" duration="150"/>
    <frame tileid="67" duration="150"/>
    <frame tileid="72" duration="150"/>
    <frame tileid="77" duration="150"/>
    <frame tileid="222" duration="150"/>
    <frame tileid="227" duration="150"/>
    <frame tileid="232" duration="150"/>
    <frame tileid="237" duration="150"/>
    <frame tileid="382" duration="150"/>
    <frame tileid="387" duration="150"/>
    <frame tileid="392" duration="150"/>
    <frame tileid="397" duration="150"/>
    <frame tileid="419" duration="150"/>
    <frame tileid="419" duration="150"/>
    <frame tileid="419" duration="150"/>
    <frame tileid="419" duration="150"/>
    <frame tileid="419" duration="150"/>
    <frame tileid="419" duration="150"/>
    <frame tileid="419" duration="150"/>
    <frame tileid="419" duration="150"/>
    <frame tileid="419" duration="150"/>
    <frame tileid="419" duration="150"/>
    <frame tileid="419" duration="150"/>
    <frame tileid="419" duration="150"/>
   </animation>
  </tile>
  <tile id="63">
   <animation>
    <frame tileid="63" duration="150"/>
    <frame tileid="68" duration="150"/>
    <frame tileid="73" duration="150"/>
    <frame tileid="78" duration="150"/>
    <frame tileid="223" duration="150"/>
    <frame tileid="228" duration="150"/>
    <frame tileid="233" duration="150"/>
    <frame tileid="238" duration="150"/>
    <frame tileid="383" duration="150"/>
    <frame tileid="388" duration="150"/>
    <frame tileid="393" duration="150"/>
    <frame tileid="398" duration="150"/>
    <frame tileid="419" duration="150"/>
    <frame tileid="419" duration="150"/>
    <frame tileid="419" duration="150"/>
    <frame tileid="419" duration="150"/>
    <frame tileid="419" duration="150"/>
    <frame tileid="419" duration="150"/>
    <frame tileid="419" duration="150"/>
    <frame tileid="419" duration="150"/>
    <frame tileid="419" duration="150"/>
    <frame tileid="419" duration="150"/>
    <frame tileid="419" duration="150"/>
    <frame tileid="419" duration="150"/>
   </animation>
  </tile>
  <tile id="64">
   <animation>
    <frame tileid="64" duration="150"/>
    <frame tileid="69" duration="150"/>
    <frame tileid="74" duration="150"/>
    <frame tileid="79" duration="150"/>
    <frame tileid="224" duration="150"/>
    <frame tileid="229" duration="150"/>
    <frame tileid="234" duration="150"/>
    <frame tileid="239" duration="150"/>
    <frame tileid="384" duration="150"/>
    <frame tileid="389" duration="150"/>
    <frame tileid="394" duration="150"/>
    <frame tileid="399" duration="150"/>
    <frame tileid="419" duration="150"/>
    <frame tileid="419" duration="150"/>
    <frame tileid="419" duration="150"/>
    <frame tileid="419" duration="150"/>
    <frame tileid="419" duration="150"/>
    <frame tileid="419" duration="150"/>
    <frame tileid="419" duration="150"/>
    <frame tileid="419" duration="150"/>
    <frame tileid="419" duration="150"/>
    <frame tileid="419" duration="150"/>
    <frame tileid="419" duration="150"/>
    <frame tileid="419" duration="150"/>
   </animation>
  </tile>
  <tile id="81">
   <animation>
    <frame tileid="81" duration="150"/>
    <frame tileid="86" duration="150"/>
    <frame tileid="91" duration="150"/>
    <frame tileid="96" duration="150"/>
    <frame tileid="241" duration="150"/>
    <frame tileid="246" duration="150"/>
    <frame tileid="251" duration="150"/>
    <frame tileid="256" duration="150"/>
    <frame tileid="401" duration="150"/>
    <frame tileid="406" duration="150"/>
    <frame tileid="411" duration="150"/>
    <frame tileid="416" duration="150"/>
    <frame tileid="419" duration="150"/>
    <frame tileid="419" duration="150"/>
    <frame tileid="419" duration="150"/>
    <frame tileid="419" duration="150"/>
    <frame tileid="419" duration="150"/>
    <frame tileid="419" duration="150"/>
    <frame tileid="419" duration="150"/>
    <frame tileid="419" duration="150"/>
    <frame tileid="419" duration="150"/>
    <frame tileid="419" duration="150"/>
    <frame tileid="419" duration="150"/>
    <frame tileid="419" duration="150"/>
   </animation>
  </tile>
  <tile id="82">
   <animation>
    <frame tileid="82" duration="150"/>
    <frame tileid="87" duration="150"/>
    <frame tileid="92" duration="150"/>
    <frame tileid="97" duration="150"/>
    <frame tileid="242" duration="150"/>
    <frame tileid="247" duration="150"/>
    <frame tileid="252" duration="150"/>
    <frame tileid="257" duration="150"/>
    <frame tileid="402" duration="150"/>
    <frame tileid="407" duration="150"/>
    <frame tileid="412" duration="150"/>
    <frame tileid="417" duration="150"/>
    <frame tileid="419" duration="150"/>
    <frame tileid="419" duration="150"/>
    <frame tileid="419" duration="150"/>
    <frame tileid="419" duration="150"/>
    <frame tileid="419" duration="150"/>
    <frame tileid="419" duration="150"/>
    <frame tileid="419" duration="150"/>
    <frame tileid="419" duration="150"/>
    <frame tileid="419" duration="150"/>
    <frame tileid="419" duration="150"/>
    <frame tileid="419" duration="150"/>
    <frame tileid="419" duration="150"/>
   </animation>
  </tile>
  <tile id="83">
   <animation>
    <frame tileid="83" duration="150"/>
    <frame tileid="88" duration="150"/>
    <frame tileid="93" duration="150"/>
    <frame tileid="98" duration="150"/>
    <frame tileid="243" duration="150"/>
    <frame tileid="248" duration="150"/>
    <frame tileid="253" duration="150"/>
    <frame tileid="258" duration="150"/>
    <frame tileid="403" duration="150"/>
    <frame tileid="408" duration="150"/>
    <frame tileid="413" duration="150"/>
    <frame tileid="418" duration="150"/>
    <frame tileid="419" duration="150"/>
    <frame tileid="419" duration="150"/>
    <frame tileid="419" duration="150"/>
    <frame tileid="419" duration="150"/>
    <frame tileid="419" duration="150"/>
    <frame tileid="419" duration="150"/>
    <frame tileid="419" duration="150"/>
    <frame tileid="419" duration="150"/>
    <frame tileid="419" duration="150"/>
    <frame tileid="419" duration="150"/>
    <frame tileid="419" duration="150"/>
    <frame tileid="419" duration="150"/>
   </animation>
  </tile>
  <tile id="101">
   <animation>
    <frame tileid="101" duration="150"/>
    <frame tileid="106" duration="150"/>
    <frame tileid="111" duration="150"/>
    <frame tileid="116" duration="150"/>
    <frame tileid="261" duration="150"/>
    <frame tileid="266" duration="150"/>
    <frame tileid="271" duration="150"/>
    <frame tileid="276" duration="150"/>
    <frame tileid="421" duration="150"/>
    <frame tileid="426" duration="150"/>
    <frame tileid="431" duration="150"/>
    <frame tileid="436" duration="150"/>
    <frame tileid="439" duration="150"/>
    <frame tileid="439" duration="150"/>
    <frame tileid="439" duration="150"/>
    <frame tileid="439" duration="150"/>
    <frame tileid="439" duration="150"/>
    <frame tileid="439" duration="150"/>
    <frame tileid="439" duration="150"/>
    <frame tileid="439" duration="150"/>
    <frame tileid="439" duration="150"/>
    <frame tileid="439" duration="150"/>
    <frame tileid="439" duration="150"/>
    <frame tileid="439" duration="150"/>
   </animation>
  </tile>
  <tile id="102">
   <animation>
    <frame tileid="102" duration="150"/>
    <frame tileid="107" duration="150"/>
    <frame tileid="112" duration="150"/>
    <frame tileid="117" duration="150"/>
    <frame tileid="262" duration="150"/>
    <frame tileid="267" duration="150"/>
    <frame tileid="272" duration="150"/>
    <frame tileid="277" duration="150"/>
    <frame tileid="422" duration="150"/>
    <frame tileid="427" duration="150"/>
    <frame tileid="432" duration="150"/>
    <frame tileid="437" duration="150"/>
    <frame tileid="439" duration="150"/>
    <frame tileid="439" duration="150"/>
    <frame tileid="439" duration="150"/>
    <frame tileid="439" duration="150"/>
    <frame tileid="439" duration="150"/>
    <frame tileid="439" duration="150"/>
    <frame tileid="439" duration="150"/>
    <frame tileid="439" duration="150"/>
    <frame tileid="439" duration="150"/>
    <frame tileid="439" duration="150"/>
    <frame tileid="439" duration="150"/>
    <frame tileid="439" duration="150"/>
   </animation>
  </tile>
  <tile id="103">
   <animation>
    <frame tileid="103" duration="150"/>
    <frame tileid="108" duration="150"/>
    <frame tileid="113" duration="150"/>
    <frame tileid="118" duration="150"/>
    <frame tileid="263" duration="150"/>
    <frame tileid="268" duration="150"/>
    <frame tileid="273" duration="150"/>
    <frame tileid="278" duration="150"/>
    <frame tileid="423" duration="150"/>
    <frame tileid="428" duration="150"/>
    <frame tileid="433" duration="150"/>
    <frame tileid="438" duration="150"/>
    <frame tileid="439" duration="150"/>
    <frame tileid="439" duration="150"/>
    <frame tileid="439" duration="150"/>
    <frame tileid="439" duration="150"/>
    <frame tileid="439" duration="150"/>
    <frame tileid="439" duration="150"/>
    <frame tileid="439" duration="150"/>
    <frame tileid="439" duration="150"/>
    <frame tileid="439" duration="150"/>
    <frame tileid="439" duration="150"/>
    <frame tileid="439" duration="150"/>
    <frame tileid="439" duration="150"/>
   </animation>
  </tile>
  <tile id="120">
   <animation>
    <frame tileid="120" duration="150"/>
    <frame tileid="125" duration="150"/>
    <frame tileid="130" duration="150"/>
    <frame tileid="135" duration="150"/>
    <frame tileid="280" duration="150"/>
    <frame tileid="285" duration="150"/>
    <frame tileid="290" duration="150"/>
    <frame tileid="295" duration="150"/>
    <frame tileid="440" duration="150"/>
    <frame tileid="445" duration="150"/>
    <frame tileid="450" duration="150"/>
    <frame tileid="455" duration="150"/>
    <frame tileid="419" duration="150"/>
    <frame tileid="419" duration="150"/>
    <frame tileid="419" duration="150"/>
    <frame tileid="419" duration="150"/>
    <frame tileid="419" duration="150"/>
    <frame tileid="419" duration="150"/>
    <frame tileid="419" duration="150"/>
    <frame tileid="419" duration="150"/>
    <frame tileid="419" duration="150"/>
    <frame tileid="419" duration="150"/>
    <frame tileid="419" duration="150"/>
    <frame tileid="419" duration="150"/>
   </animation>
  </tile>
  <tile id="121">
   <animation>
    <frame tileid="121" duration="150"/>
    <frame tileid="126" duration="150"/>
    <frame tileid="131" duration="150"/>
    <frame tileid="136" duration="150"/>
    <frame tileid="281" duration="150"/>
    <frame tileid="286" duration="150"/>
    <frame tileid="291" duration="150"/>
    <frame tileid="296" duration="150"/>
    <frame tileid="441" duration="150"/>
    <frame tileid="446" duration="150"/>
    <frame tileid="451" duration="150"/>
    <frame tileid="456" duration="150"/>
    <frame tileid="419" duration="150"/>
    <frame tileid="419" duration="150"/>
    <frame tileid="419" duration="150"/>
    <frame tileid="419" duration="150"/>
    <frame tileid="419" duration="150"/>
    <frame tileid="419" duration="150"/>
    <frame tileid="419" duration="150"/>
    <frame tileid="419" duration="150"/>
    <frame tileid="419" duration="150"/>
    <frame tileid="419" duration="150"/>
    <frame tileid="419" duration="150"/>
    <frame tileid="419" duration="150"/>
   </animation>
  </tile>
  <tile id="122">
   <animation>
    <frame tileid="122" duration="150"/>
    <frame tileid="127" duration="150"/>
    <frame tileid="132" duration="150"/>
    <frame tileid="137" duration="150"/>
    <frame tileid="282" duration="150"/>
    <frame tileid="287" duration="150"/>
    <frame tileid="292" duration="150"/>
    <frame tileid="297" duration="150"/>
    <frame tileid="442" duration="150"/>
    <frame tileid="447" duration="150"/>
    <frame tileid="452" duration="150"/>
    <frame tileid="457" duration="150"/>
    <frame tileid="459" duration="150"/>
    <frame tileid="459" duration="150"/>
    <frame tileid="459" duration="150"/>
    <frame tileid="459" duration="150"/>
    <frame tileid="459" duration="150"/>
    <frame tileid="459" duration="150"/>
    <frame tileid="459" duration="150"/>
    <frame tileid="459" duration="150"/>
    <frame tileid="459" duration="150"/>
    <frame tileid="459" duration="150"/>
    <frame tileid="459" duration="150"/>
    <frame tileid="459" duration="150"/>
   </animation>
  </tile>
  <tile id="123">
   <animation>
    <frame tileid="123" duration="150"/>
    <frame tileid="128" duration="150"/>
    <frame tileid="133" duration="150"/>
    <frame tileid="138" duration="150"/>
    <frame tileid="283" duration="150"/>
    <frame tileid="288" duration="150"/>
    <frame tileid="293" duration="150"/>
    <frame tileid="298" duration="150"/>
    <frame tileid="443" duration="150"/>
    <frame tileid="448" duration="150"/>
    <frame tileid="453" duration="150"/>
    <frame tileid="458" duration="150"/>
    <frame tileid="459" duration="150"/>
    <frame tileid="459" duration="150"/>
    <frame tileid="459" duration="150"/>
    <frame tileid="459" duration="150"/>
    <frame tileid="459" duration="150"/>
    <frame tileid="459" duration="150"/>
    <frame tileid="459" duration="150"/>
    <frame tileid="459" duration="150"/>
    <frame tileid="459" duration="150"/>
    <frame tileid="459" duration="150"/>
    <frame tileid="459" duration="150"/>
    <frame tileid="459" duration="150"/>
   </animation>
  </tile>
  <tile id="141">
   <animation>
    <frame tileid="141" duration="150"/>
    <frame tileid="146" duration="150"/>
    <frame tileid="151" duration="150"/>
    <frame tileid="156" duration="150"/>
    <frame tileid="301" duration="150"/>
    <frame tileid="306" duration="150"/>
    <frame tileid="311" duration="150"/>
    <frame tileid="316" duration="150"/>
    <frame tileid="461" duration="150"/>
    <frame tileid="466" duration="150"/>
    <frame tileid="471" duration="150"/>
    <frame tileid="476" duration="150"/>
    <frame tileid="479" duration="150"/>
    <frame tileid="479" duration="150"/>
    <frame tileid="479" duration="150"/>
    <frame tileid="479" duration="150"/>
    <frame tileid="479" duration="150"/>
    <frame tileid="479" duration="150"/>
    <frame tileid="479" duration="150"/>
    <frame tileid="479" duration="150"/>
    <frame tileid="479" duration="150"/>
    <frame tileid="479" duration="150"/>
    <frame tileid="479" duration="150"/>
    <frame tileid="479" duration="150"/>
   </animation>
  </tile>
  <tile id="142">
   <animation>
    <frame tileid="142" duration="150"/>
    <frame tileid="147" duration="150"/>
    <frame tileid="152" duration="150"/>
    <frame tileid="157" duration="150"/>
    <frame tileid="302" duration="150"/>
    <frame tileid="307" duration="150"/>
    <frame tileid="312" duration="150"/>
    <frame tileid="317" duration="150"/>
    <frame tileid="462" duration="150"/>
    <frame tileid="467" duration="150"/>
    <frame tileid="472" duration="150"/>
    <frame tileid="477" duration="150"/>
    <frame tileid="479" duration="150"/>
    <frame tileid="479" duration="150"/>
    <frame tileid="479" duration="150"/>
    <frame tileid="479" duration="150"/>
    <frame tileid="479" duration="150"/>
    <frame tileid="479" duration="150"/>
    <frame tileid="479" duration="150"/>
    <frame tileid="479" duration="150"/>
    <frame tileid="479" duration="150"/>
    <frame tileid="479" duration="150"/>
    <frame tileid="479" duration="150"/>
    <frame tileid="479" duration="150"/>
   </animation>
  </tile>
  <tile id="143">
   <animation>
    <frame tileid="143" duration="150"/>
    <frame tileid="148" duration="150"/>
    <frame tileid="153" duration="150"/>
    <frame tileid="158" duration="150"/>
    <frame tileid="303" duration="150"/>
    <frame tileid="308" duration="150"/>
    <frame tileid="313" duration="150"/>
    <frame tileid="318" duration="150"/>
    <frame tileid="463" duration="150"/>
    <frame tileid="468" duration="150"/>
    <frame tileid="473" duration="150"/>
    <frame tileid="478" duration="150"/>
    <frame tileid="479" duration="150"/>
    <frame tileid="479" duration="150"/>
    <frame tileid="479" duration="150"/>
    <frame tileid="479" duration="150"/>
    <frame tileid="479" duration="150"/>
    <frame tileid="479" duration="150"/>
    <frame tileid="479" duration="150"/>
    <frame tileid="479" duration="150"/>
    <frame tileid="479" duration="150"/>
    <frame tileid="479" duration="150"/>
    <frame tileid="479" duration="150"/>
    <frame tileid="479" duration="150"/>
   </animation>
  </tile>
 </tileset>
 <tileset firstgid="2170" name="Mage2_fit2" tilewidth="16" tileheight="16" tilecount="216" columns="72">
  <image source="Mage2_fit2.png" width="1152" height="48"/>
  <tile id="0">
   <animation>
    <frame tileid="0" duration="150"/>
    <frame tileid="3" duration="150"/>
    <frame tileid="6" duration="150"/>
    <frame tileid="9" duration="150"/>
    <frame tileid="12" duration="150"/>
    <frame tileid="15" duration="150"/>
    <frame tileid="18" duration="150"/>
    <frame tileid="21" duration="150"/>
    <frame tileid="24" duration="150"/>
    <frame tileid="27" duration="150"/>
    <frame tileid="30" duration="150"/>
    <frame tileid="33" duration="150"/>
    <frame tileid="36" duration="150"/>
    <frame tileid="39" duration="150"/>
    <frame tileid="42" duration="150"/>
    <frame tileid="45" duration="150"/>
    <frame tileid="48" duration="150"/>
    <frame tileid="51" duration="150"/>
    <frame tileid="54" duration="150"/>
    <frame tileid="57" duration="150"/>
    <frame tileid="60" duration="150"/>
    <frame tileid="63" duration="150"/>
    <frame tileid="66" duration="150"/>
    <frame tileid="69" duration="150"/>
   </animation>
  </tile>
  <tile id="1">
   <animation>
    <frame tileid="1" duration="150"/>
    <frame tileid="4" duration="150"/>
    <frame tileid="7" duration="150"/>
    <frame tileid="10" duration="150"/>
    <frame tileid="13" duration="150"/>
    <frame tileid="16" duration="150"/>
    <frame tileid="19" duration="150"/>
    <frame tileid="22" duration="150"/>
    <frame tileid="25" duration="150"/>
    <frame tileid="28" duration="150"/>
    <frame tileid="31" duration="150"/>
    <frame tileid="34" duration="150"/>
    <frame tileid="37" duration="150"/>
    <frame tileid="40" duration="150"/>
    <frame tileid="43" duration="150"/>
    <frame tileid="46" duration="150"/>
    <frame tileid="49" duration="150"/>
    <frame tileid="52" duration="150"/>
    <frame tileid="55" duration="150"/>
    <frame tileid="58" duration="150"/>
    <frame tileid="61" duration="150"/>
    <frame tileid="64" duration="150"/>
    <frame tileid="67" duration="150"/>
    <frame tileid="70" duration="150"/>
   </animation>
  </tile>
  <tile id="2">
   <animation>
    <frame tileid="2" duration="150"/>
    <frame tileid="5" duration="150"/>
    <frame tileid="8" duration="150"/>
    <frame tileid="11" duration="150"/>
    <frame tileid="14" duration="150"/>
    <frame tileid="17" duration="150"/>
    <frame tileid="20" duration="150"/>
    <frame tileid="23" duration="150"/>
    <frame tileid="26" duration="150"/>
    <frame tileid="29" duration="150"/>
    <frame tileid="32" duration="150"/>
    <frame tileid="35" duration="150"/>
    <frame tileid="38" duration="150"/>
    <frame tileid="41" duration="150"/>
    <frame tileid="44" duration="150"/>
    <frame tileid="47" duration="150"/>
    <frame tileid="50" duration="150"/>
    <frame tileid="53" duration="150"/>
    <frame tileid="56" duration="150"/>
    <frame tileid="59" duration="150"/>
    <frame tileid="62" duration="150"/>
    <frame tileid="65" duration="150"/>
    <frame tileid="68" duration="150"/>
    <frame tileid="71" duration="150"/>
   </animation>
  </tile>
  <tile id="72">
   <animation>
    <frame tileid="72" duration="150"/>
    <frame tileid="75" duration="150"/>
    <frame tileid="78" duration="150"/>
    <frame tileid="81" duration="150"/>
    <frame tileid="84" duration="150"/>
    <frame tileid="87" duration="150"/>
    <frame tileid="90" duration="150"/>
    <frame tileid="93" duration="150"/>
    <frame tileid="96" duration="150"/>
    <frame tileid="99" duration="150"/>
    <frame tileid="102" duration="150"/>
    <frame tileid="105" duration="150"/>
    <frame tileid="108" duration="150"/>
    <frame tileid="111" duration="150"/>
    <frame tileid="114" duration="150"/>
    <frame tileid="117" duration="150"/>
    <frame tileid="120" duration="150"/>
    <frame tileid="123" duration="150"/>
    <frame tileid="126" duration="150"/>
    <frame tileid="129" duration="150"/>
    <frame tileid="132" duration="150"/>
    <frame tileid="135" duration="150"/>
    <frame tileid="138" duration="150"/>
    <frame tileid="141" duration="150"/>
   </animation>
  </tile>
  <tile id="73">
   <animation>
    <frame tileid="73" duration="150"/>
    <frame tileid="76" duration="150"/>
    <frame tileid="79" duration="150"/>
    <frame tileid="82" duration="150"/>
    <frame tileid="85" duration="150"/>
    <frame tileid="88" duration="150"/>
    <frame tileid="91" duration="150"/>
    <frame tileid="94" duration="150"/>
    <frame tileid="97" duration="150"/>
    <frame tileid="100" duration="150"/>
    <frame tileid="103" duration="150"/>
    <frame tileid="106" duration="150"/>
    <frame tileid="109" duration="150"/>
    <frame tileid="112" duration="150"/>
    <frame tileid="115" duration="150"/>
    <frame tileid="118" duration="150"/>
    <frame tileid="121" duration="150"/>
    <frame tileid="124" duration="150"/>
    <frame tileid="127" duration="150"/>
    <frame tileid="130" duration="150"/>
    <frame tileid="133" duration="150"/>
    <frame tileid="136" duration="150"/>
    <frame tileid="139" duration="150"/>
    <frame tileid="142" duration="150"/>
   </animation>
  </tile>
  <tile id="74">
   <animation>
    <frame tileid="74" duration="150"/>
    <frame tileid="77" duration="150"/>
    <frame tileid="80" duration="150"/>
    <frame tileid="83" duration="150"/>
    <frame tileid="86" duration="150"/>
    <frame tileid="89" duration="150"/>
    <frame tileid="92" duration="150"/>
    <frame tileid="95" duration="150"/>
    <frame tileid="98" duration="150"/>
    <frame tileid="101" duration="150"/>
    <frame tileid="104" duration="150"/>
    <frame tileid="107" duration="150"/>
    <frame tileid="110" duration="150"/>
    <frame tileid="113" duration="150"/>
    <frame tileid="116" duration="150"/>
    <frame tileid="119" duration="150"/>
    <frame tileid="122" duration="150"/>
    <frame tileid="125" duration="150"/>
    <frame tileid="128" duration="150"/>
    <frame tileid="131" duration="150"/>
    <frame tileid="134" duration="150"/>
    <frame tileid="137" duration="150"/>
    <frame tileid="140" duration="150"/>
    <frame tileid="143" duration="150"/>
   </animation>
  </tile>
  <tile id="144">
   <animation>
    <frame tileid="144" duration="150"/>
    <frame tileid="147" duration="150"/>
    <frame tileid="150" duration="150"/>
    <frame tileid="153" duration="150"/>
    <frame tileid="156" duration="150"/>
    <frame tileid="159" duration="150"/>
    <frame tileid="162" duration="150"/>
    <frame tileid="165" duration="150"/>
    <frame tileid="168" duration="150"/>
    <frame tileid="171" duration="150"/>
    <frame tileid="174" duration="150"/>
    <frame tileid="177" duration="150"/>
    <frame tileid="180" duration="150"/>
    <frame tileid="183" duration="150"/>
    <frame tileid="186" duration="150"/>
    <frame tileid="189" duration="150"/>
    <frame tileid="192" duration="150"/>
    <frame tileid="195" duration="150"/>
    <frame tileid="198" duration="150"/>
    <frame tileid="201" duration="150"/>
    <frame tileid="204" duration="150"/>
    <frame tileid="207" duration="150"/>
    <frame tileid="210" duration="150"/>
    <frame tileid="213" duration="150"/>
   </animation>
  </tile>
  <tile id="145">
   <animation>
    <frame tileid="145" duration="150"/>
    <frame tileid="148" duration="150"/>
    <frame tileid="151" duration="150"/>
    <frame tileid="154" duration="150"/>
    <frame tileid="157" duration="150"/>
    <frame tileid="160" duration="150"/>
    <frame tileid="163" duration="150"/>
    <frame tileid="166" duration="150"/>
    <frame tileid="169" duration="150"/>
    <frame tileid="172" duration="150"/>
    <frame tileid="175" duration="150"/>
    <frame tileid="178" duration="150"/>
    <frame tileid="181" duration="150"/>
    <frame tileid="184" duration="150"/>
    <frame tileid="187" duration="150"/>
    <frame tileid="190" duration="150"/>
    <frame tileid="193" duration="150"/>
    <frame tileid="196" duration="150"/>
    <frame tileid="199" duration="150"/>
    <frame tileid="202" duration="150"/>
    <frame tileid="205" duration="150"/>
    <frame tileid="208" duration="150"/>
    <frame tileid="211" duration="150"/>
    <frame tileid="214" duration="150"/>
   </animation>
  </tile>
  <tile id="146">
   <animation>
    <frame tileid="146" duration="150"/>
    <frame tileid="149" duration="150"/>
    <frame tileid="152" duration="150"/>
    <frame tileid="155" duration="150"/>
    <frame tileid="158" duration="150"/>
    <frame tileid="161" duration="150"/>
    <frame tileid="164" duration="150"/>
    <frame tileid="167" duration="150"/>
    <frame tileid="170" duration="150"/>
    <frame tileid="173" duration="150"/>
    <frame tileid="176" duration="150"/>
    <frame tileid="179" duration="150"/>
    <frame tileid="182" duration="150"/>
    <frame tileid="185" duration="150"/>
    <frame tileid="188" duration="150"/>
    <frame tileid="191" duration="150"/>
    <frame tileid="194" duration="150"/>
    <frame tileid="197" duration="150"/>
    <frame tileid="200" duration="150"/>
    <frame tileid="203" duration="150"/>
    <frame tileid="206" duration="150"/>
    <frame tileid="209" duration="150"/>
    <frame tileid="212" duration="150"/>
    <frame tileid="215" duration="150"/>
   </animation>
  </tile>
 </tileset>
 <layer id="2" name="Floor" width="16" height="24">
  <data encoding="csv">
   <chunk x="-16" y="-16" width="16" height="16">
0,0,0,0,0,0,0,0,0,0,0,0,0,0,0,0,
0,0,0,0,0,0,0,0,0,0,0,0,0,0,0,0,
0,0,0,0,0,0,0,0,0,0,0,0,0,0,0,0,
0,0,0,0,0,0,0,0,0,0,0,0,0,0,0,0,
0,0,0,0,0,0,0,0,0,0,0,0,0,0,0,0,
0,0,0,0,0,0,0,0,0,0,0,0,0,0,0,0,
0,0,0,0,0,0,0,0,0,0,0,0,0,0,0,0,
0,0,0,0,0,0,0,0,0,0,0,0,0,0,0,0,
0,0,0,0,0,0,0,0,0,0,0,0,0,0,0,0,
0,0,0,0,0,0,0,0,0,0,0,0,0,0,0,0,
0,0,0,0,0,0,0,0,0,0,0,0,0,0,0,0,
0,0,0,0,0,0,0,0,0,0,0,0,0,0,0,0,
0,0,0,0,0,0,0,0,0,0,346,347,355,356,352,353,
0,0,0,0,0,0,0,0,0,0,361,362,370,371,367,368,
0,0,0,0,0,0,0,0,0,0,352,353,346,347,349,350,
0,0,0,0,0,0,0,0,0,0,367,368,361,362,364,365
</chunk>
   <chunk x="0" y="-16" width="16" height="16">
0,0,0,0,0,0,0,0,0,0,0,0,0,0,0,0,
0,0,0,0,0,0,0,0,0,0,0,0,0,0,0,0,
0,0,0,0,0,0,0,0,0,0,0,0,0,0,0,0,
0,0,0,0,0,0,0,0,0,0,0,0,0,0,0,0,
0,0,0,0,0,0,0,0,0,0,0,0,0,0,0,0,
0,0,0,0,0,0,0,0,0,0,0,0,0,0,0,0,
0,0,0,0,0,0,0,0,0,0,0,0,0,0,0,0,
0,0,0,0,0,0,0,0,0,0,0,0,0,0,0,0,
0,0,0,0,0,0,0,0,0,0,0,0,0,0,0,0,
0,0,0,0,0,0,0,0,0,0,0,0,0,0,0,0,
0,0,0,0,0,0,0,0,0,0,0,0,0,0,0,0,
0,0,0,0,0,0,0,0,0,0,0,0,0,0,0,0,
355,356,346,347,355,356,0,0,0,0,0,0,0,0,0,0,
370,371,361,362,370,371,0,0,0,0,0,0,0,0,0,0,
346,347,352,353,346,347,0,0,0,0,0,0,0,0,0,0,
361,362,367,368,361,362,0,0,0,0,0,0,0,0,0,0
</chunk>
   <chunk x="-16" y="0" width="16" height="16">
0,0,0,0,0,0,0,0,0,0,355,356,352,353,355,356,
0,0,0,0,0,0,0,0,0,0,370,371,367,368,370,371,
0,0,0,0,0,0,0,0,0,0,352,353,346,347,346,347,
0,0,0,0,0,0,0,0,0,0,367,368,361,362,361,362,
0,0,0,0,0,0,0,0,0,0,0,0,346,347,355,356,
0,0,0,0,0,0,0,0,0,0,0,0,361,362,370,371,
0,0,0,0,0,0,0,0,0,0,0,0,0,0,0,0,
0,0,0,0,0,0,0,0,0,0,0,0,0,0,0,0,
0,0,0,0,0,0,0,0,0,0,0,0,0,0,0,0,
0,0,0,0,0,0,0,0,0,0,0,0,0,0,0,0,
0,0,0,0,0,0,0,0,0,0,0,0,0,0,0,0,
0,0,0,0,0,0,0,0,0,0,0,0,0,0,0,0,
0,0,0,0,0,0,0,0,0,0,0,0,0,0,0,0,
0,0,0,0,0,0,0,0,0,0,0,0,0,0,0,0,
0,0,0,0,0,0,0,0,0,0,0,0,0,0,0,0,
0,0,0,0,0,0,0,0,0,0,0,0,0,0,0,0
</chunk>
   <chunk x="0" y="0" width="16" height="16">
352,353,355,356,352,353,0,0,0,0,0,0,0,0,0,0,
367,368,370,371,367,368,0,0,0,0,0,0,0,0,0,0,
346,347,352,353,346,347,0,0,0,0,0,0,0,0,0,0,
361,362,367,368,361,362,0,0,0,0,0,0,0,0,0,0,
352,353,355,356,0,0,0,0,0,0,0,0,0,0,0,0,
367,368,370,371,0,0,0,0,0,0,0,0,0,0,0,0,
0,0,0,0,0,0,0,0,0,0,0,0,0,0,0,0,
0,0,0,0,0,0,0,0,0,0,0,0,0,0,0,0,
0,0,0,0,0,0,0,0,0,0,0,0,0,0,0,0,
0,0,0,0,0,0,0,0,0,0,0,0,0,0,0,0,
0,0,0,0,0,0,0,0,0,0,0,0,0,0,0,0,
0,0,0,0,0,0,0,0,0,0,0,0,0,0,0,0,
0,0,0,0,0,0,0,0,0,0,0,0,0,0,0,0,
0,0,0,0,0,0,0,0,0,0,0,0,0,0,0,0,
0,0,0,0,0,0,0,0,0,0,0,0,0,0,0,0,
0,0,0,0,0,0,0,0,0,0,0,0,0,0,0,0
</chunk>
  </data>
 </layer>
 <layer id="4" name="Pentagram" width="16" height="24">
  <data encoding="csv">
   <chunk x="-16" y="-16" width="16" height="16">
0,0,0,0,0,0,0,0,0,0,0,0,0,0,0,0,
0,0,0,0,0,0,0,0,0,0,0,0,0,0,0,0,
0,0,0,0,0,0,0,0,0,0,0,0,0,0,0,0,
0,0,0,0,0,0,0,0,0,0,0,0,0,0,0,0,
0,0,0,0,0,0,0,0,0,0,0,0,0,0,0,0,
0,0,0,0,0,0,0,0,0,0,0,0,0,0,0,0,
0,0,0,0,0,0,0,0,0,0,0,0,0,0,0,0,
0,0,0,0,0,0,0,0,0,0,0,0,0,0,0,0,
0,0,0,0,0,0,0,0,0,0,0,0,0,0,0,0,
0,0,0,0,0,0,0,0,0,0,0,0,0,0,0,0,
0,0,0,0,0,0,0,0,0,0,0,0,0,0,0,0,
0,0,0,0,0,0,0,0,0,0,0,0,0,0,0,0,
0,0,0,0,0,0,0,0,0,0,0,0,0,0,0,0,
0,0,0,0,0,0,0,0,0,0,0,0,0,0,0,0,
0,0,0,0,0,0,0,0,0,0,0,0,0,0,0,0,
0,0,0,0,0,0,0,0,0,0,0,0,0,0,0,1519
</chunk>
   <chunk x="0" y="-16" width="16" height="16">
0,0,0,0,0,0,0,0,0,0,0,0,0,0,0,0,
0,0,0,0,0,0,0,0,0,0,0,0,0,0,0,0,
0,0,0,0,0,0,0,0,0,0,0,0,0,0,0,0,
0,0,0,0,0,0,0,0,0,0,0,0,0,0,0,0,
0,0,0,0,0,0,0,0,0,0,0,0,0,0,0,0,
0,0,0,0,0,0,0,0,0,0,0,0,0,0,0,0,
0,0,0,0,0,0,0,0,0,0,0,0,0,0,0,0,
0,0,0,0,0,0,0,0,0,0,0,0,0,0,0,0,
0,0,0,0,0,0,0,0,0,0,0,0,0,0,0,0,
0,0,0,0,0,0,0,0,0,0,0,0,0,0,0,0,
0,0,0,0,0,0,0,0,0,0,0,0,0,0,0,0,
0,0,0,0,0,0,0,0,0,0,0,0,0,0,0,0,
0,0,0,0,0,0,0,0,0,0,0,0,0,0,0,0,
0,0,0,0,0,0,0,0,0,0,0,0,0,0,0,0,
0,0,0,0,0,0,0,0,0,0,0,0,0,0,0,0,
1520,1521,0,0,0,0,0,0,0,0,0,0,0,0,0,0
</chunk>
   <chunk x="-16" y="0" width="16" height="16">
0,0,0,0,0,0,0,0,0,0,0,0,0,0,0,1537,
0,0,0,0,0,0,0,0,0,0,0,0,0,0,0,1555,
0,0,0,0,0,0,0,0,0,0,0,0,0,0,0,1573,
0,0,0,0,0,0,0,0,0,0,0,0,0,0,0,0,
0,0,0,0,0,0,0,0,0,0,0,0,0,0,0,0,
0,0,0,0,0,0,0,0,0,0,0,0,0,0,0,0,
0,0,0,0,0,0,0,0,0,0,0,0,0,0,0,0,
0,0,0,0,0,0,0,0,0,0,0,0,0,0,0,0,
0,0,0,0,0,0,0,0,0,0,0,0,0,0,0,0,
0,0,0,0,0,0,0,0,0,0,0,0,0,0,0,0,
0,0,0,0,0,0,0,0,0,0,0,0,0,0,0,0,
0,0,0,0,0,0,0,0,0,0,0,0,0,0,0,0,
0,0,0,0,0,0,0,0,0,0,0,0,0,0,0,0,
0,0,0,0,0,0,0,0,0,0,0,0,0,0,0,0,
0,0,0,0,0,0,0,0,0,0,0,0,0,0,0,0,
0,0,0,0,0,0,0,0,0,0,0,0,0,0,0,0
</chunk>
   <chunk x="0" y="0" width="16" height="16">
1538,1539,0,0,0,0,0,0,0,0,0,0,0,0,0,0,
1556,1557,0,0,0,0,0,0,0,0,0,0,0,0,0,0,
1574,1575,0,0,0,0,0,0,0,0,0,0,0,0,0,0,
0,0,0,0,0,0,0,0,0,0,0,0,0,0,0,0,
0,0,0,0,0,0,0,0,0,0,0,0,0,0,0,0,
0,0,0,0,0,0,0,0,0,0,0,0,0,0,0,0,
0,0,0,0,0,0,0,0,0,0,0,0,0,0,0,0,
0,0,0,0,0,0,0,0,0,0,0,0,0,0,0,0,
0,0,0,0,0,0,0,0,0,0,0,0,0,0,0,0,
0,0,0,0,0,0,0,0,0,0,0,0,0,0,0,0,
0,0,0,0,0,0,0,0,0,0,0,0,0,0,0,0,
0,0,0,0,0,0,0,0,0,0,0,0,0,0,0,0,
0,0,0,0,0,0,0,0,0,0,0,0,0,0,0,0,
0,0,0,0,0,0,0,0,0,0,0,0,0,0,0,0,
0,0,0,0,0,0,0,0,0,0,0,0,0,0,0,0,
0,0,0,0,0,0,0,0,0,0,0,0,0,0,0,0
</chunk>
  </data>
 </layer>
 <layer id="1" name="Walls" width="16" height="24">
  <data encoding="csv">
   <chunk x="-16" y="-16" width="16" height="16">
0,0,0,0,0,0,0,0,0,0,0,0,0,0,0,0,
0,0,0,0,0,0,0,0,0,0,0,0,0,0,0,0,
0,0,0,0,0,0,0,0,0,0,0,0,0,0,0,0,
0,0,0,0,0,0,0,0,0,0,0,0,0,0,0,0,
0,0,0,0,0,0,0,0,0,0,0,0,0,0,0,0,
0,0,0,0,0,0,0,0,0,0,0,0,0,0,0,0,
0,0,0,0,0,0,0,0,0,0,0,0,0,0,0,0,
0,0,0,0,0,0,0,0,0,0,0,0,0,0,0,0,
0,0,0,0,0,0,0,0,0,0,0,0,0,0,0,0,
0,0,0,0,0,0,0,0,0,0,212,212,212,212,212,212,
0,0,0,0,0,0,0,0,0,0,212,1,2,13,4,15,
0,0,0,0,0,0,0,0,0,0,212,16,17,28,19,30,
0,0,0,0,0,0,0,0,0,0,212,31,32,43,34,45,
0,0,0,0,0,0,0,0,0,0,212,46,47,58,49,60,
0,0,0,0,0,0,0,0,0,0,212,61,62,73,64,75,
0,0,0,0,0,0,0,0,0,0,212,76,77,88,79,0
</chunk>
   <chunk x="0" y="-16" width="16" height="16">
0,0,0,0,0,0,0,0,0,0,0,0,0,0,0,0,
0,0,0,0,0,0,0,0,0,0,0,0,0,0,0,0,
0,0,0,0,0,0,0,0,0,0,0,0,0,0,0,0,
0,0,0,0,0,0,0,0,0,0,0,0,0,0,0,0,
0,0,0,0,0,0,0,0,0,0,0,0,0,0,0,0,
0,0,0,0,0,0,0,0,0,0,0,0,0,0,0,0,
0,0,0,0,0,0,0,0,0,0,0,0,0,0,0,0,
0,0,0,0,0,0,0,0,0,0,0,0,0,0,0,0,
0,0,0,0,0,0,0,0,0,0,0,0,0,0,0,0,
212,212,212,212,212,212,212,0,0,0,0,0,0,0,0,0,
269,103,8,105,10,11,212,0,0,0,0,0,0,0,0,0,
227,118,23,120,25,26,212,0,0,0,0,0,0,0,0,0,
242,133,38,135,40,41,212,0,0,0,0,0,0,0,0,0,
257,148,53,150,328,56,212,0,0,0,0,0,0,0,0,0,
66,163,68,165,343,71,212,0,0,0,0,0,0,0,0,0,
0,0,83,180,358,86,212,0,0,0,0,0,0,0,0,0
</chunk>
   <chunk x="-16" y="0" width="16" height="16">
0,0,0,0,0,0,0,0,0,0,212,108,109,93,94,0,
0,0,0,0,0,0,0,0,0,0,212,136,137,138,139,0,
0,0,0,0,0,0,0,0,0,0,212,151,152,153,154,0,
0,0,0,0,0,0,0,0,0,0,212,166,167,168,169,170,
0,0,0,0,0,0,0,0,0,0,212,181,182,183,184,185,
0,0,0,0,0,0,0,0,0,0,212,212,212,212,212,212,
0,0,0,0,0,0,0,0,0,0,0,0,0,0,0,0,
0,0,0,0,0,0,0,0,0,0,0,0,0,0,0,0,
0,0,0,0,0,0,0,0,0,0,0,0,0,0,0,0,
0,0,0,0,0,0,0,0,0,0,0,0,0,0,0,0,
0,0,0,0,0,0,0,0,0,0,0,0,0,0,0,0,
0,0,0,0,0,0,0,0,0,0,0,0,0,0,0,0,
0,0,0,0,0,0,0,0,0,0,0,0,0,0,0,0,
0,0,0,0,0,0,0,0,0,0,0,0,0,0,0,0,
0,0,0,0,0,0,0,0,0,0,0,0,0,0,0,0,
0,0,0,0,0,0,0,0,0,0,0,0,0,0,0,0
</chunk>
   <chunk x="0" y="0" width="16" height="16">
0,0,98,99,373,114,212,0,0,0,0,0,0,0,0,0,
0,0,143,144,145,146,212,0,0,0,0,0,0,0,0,0,
0,0,158,159,160,161,212,0,0,0,0,0,0,0,0,0,
197,172,173,174,175,176,212,0,0,0,0,0,0,0,0,0,
299,187,188,189,190,191,212,0,0,0,0,0,0,0,0,0,
212,212,212,212,212,212,212,0,0,0,0,0,0,0,0,0,
0,0,0,0,0,0,0,0,0,0,0,0,0,0,0,0,
0,0,0,0,0,0,0,0,0,0,0,0,0,0,0,0,
0,0,0,0,0,0,0,0,0,0,0,0,0,0,0,0,
0,0,0,0,0,0,0,0,0,0,0,0,0,0,0,0,
0,0,0,0,0,0,0,0,0,0,0,0,0,0,0,0,
0,0,0,0,0,0,0,0,0,0,0,0,0,0,0,0,
0,0,0,0,0,0,0,0,0,0,0,0,0,0,0,0,
0,0,0,0,0,0,0,0,0,0,0,0,0,0,0,0,
0,0,0,0,0,0,0,0,0,0,0,0,0,0,0,0,
0,0,0,0,0,0,0,0,0,0,0,0,0,0,0,0
</chunk>
  </data>
 </layer>
 <layer id="6" name="Mage" width="16" height="24">
  <data encoding="csv">
   <chunk x="-16" y="-16" width="16" height="16">
0,0,0,0,0,0,0,0,0,0,0,0,0,0,0,0,
0,0,0,0,0,0,0,0,0,0,0,0,0,0,0,0,
0,0,0,0,0,0,0,0,0,0,0,0,0,0,0,0,
0,0,0,0,0,0,0,0,0,0,0,0,0,0,0,0,
0,0,0,0,0,0,0,0,0,0,0,0,0,0,0,0,
0,0,0,0,0,0,0,0,0,0,0,0,0,0,0,0,
0,0,0,0,0,0,0,0,0,0,0,0,0,0,0,0,
0,0,0,0,0,0,0,0,0,0,0,0,0,0,0,0,
0,0,0,0,0,0,0,0,0,0,0,0,0,0,0,0,
0,0,0,0,0,0,0,0,0,0,0,0,0,0,0,0,
0,0,0,0,0,0,0,0,0,0,0,0,0,0,0,0,
0,0,0,0,0,0,0,0,0,0,0,0,0,0,0,0,
0,0,0,0,0,0,0,0,0,0,0,0,0,0,0,2170,
0,0,0,0,0,0,0,0,0,0,0,0,0,0,0,2242,
0,0,0,0,0,0,0,0,0,0,0,0,0,0,0,2314,
0,0,0,0,0,0,0,0,0,0,0,0,0,0,0,0
</chunk>
   <chunk x="0" y="-16" width="16" height="16">
0,0,0,0,0,0,0,0,0,0,0,0,0,0,0,0,
0,0,0,0,0,0,0,0,0,0,0,0,0,0,0,0,
0,0,0,0,0,0,0,0,0,0,0,0,0,0,0,0,
0,0,0,0,0,0,0,0,0,0,0,0,0,0,0,0,
0,0,0,0,0,0,0,0,0,0,0,0,0,0,0,0,
0,0,0,0,0,0,0,0,0,0,0,0,0,0,0,0,
0,0,0,0,0,0,0,0,0,0,0,0,0,0,0,0,
0,0,0,0,0,0,0,0,0,0,0,0,0,0,0,0,
0,0,0,0,0,0,0,0,0,0,0,0,0,0,0,0,
0,0,0,0,0,0,0,0,0,0,0,0,0,0,0,0,
0,0,0,0,0,0,0,0,0,0,0,0,0,0,0,0,
0,0,0,0,0,0,0,0,0,0,0,0,0,0,0,0,
2171,2172,0,0,0,0,0,0,0,0,0,0,0,0,0,0,
2243,2244,0,0,0,0,0,0,0,0,0,0,0,0,0,0,
2315,2316,0,0,0,0,0,0,0,0,0,0,0,0,0,0,
0,0,0,0,0,0,0,0,0,0,0,0,0,0,0,0
</chunk>
  </data>
 </layer>
 <layer id="3" name="Pupils" width="16" height="24">
  <data encoding="csv">
   <chunk x="-16" y="-16" width="16" height="16">
0,0,0,0,0,0,0,0,0,0,0,0,0,0,0,0,
0,0,0,0,0,0,0,0,0,0,0,0,0,0,0,0,
0,0,0,0,0,0,0,0,0,0,0,0,0,0,0,0,
0,0,0,0,0,0,0,0,0,0,0,0,0,0,0,0,
0,0,0,0,0,0,0,0,0,0,0,0,0,0,0,0,
0,0,0,0,0,0,0,0,0,0,0,0,0,0,0,0,
0,0,0,0,0,0,0,0,0,0,0,0,0,0,0,0,
0,0,0,0,0,0,0,0,0,0,0,0,0,0,0,0,
0,0,0,0,0,0,0,0,0,0,0,0,0,0,0,0,
0,0,0,0,0,0,0,0,0,0,0,0,0,0,0,0,
0,0,0,0,0,0,0,0,0,0,0,0,0,0,0,0,
0,0,0,0,0,0,0,0,0,0,0,0,0,0,0,0,
0,0,0,0,0,0,0,0,0,0,0,0,0,0,0,0,
0,0,0,0,0,0,0,0,0,0,0,0,0,0,0,0,
0,0,0,0,0,0,0,0,0,0,0,0,0,376,377,378,
0,0,0,0,0,0,0,0,0,0,0,0,0,418,419,420
</chunk>
   <chunk x="0" y="-16" width="16" height="16">
0,0,0,0,0,0,0,0,0,0,0,0,0,0,0,0,
0,0,0,0,0,0,0,0,0,0,0,0,0,0,0,0,
0,0,0,0,0,0,0,0,0,0,0,0,0,0,0,0,
0,0,0,0,0,0,0,0,0,0,0,0,0,0,0,0,
0,0,0,0,0,0,0,0,0,0,0,0,0,0,0,0,
0,0,0,0,0,0,0,0,0,0,0,0,0,0,0,0,
0,0,0,0,0,0,0,0,0,0,0,0,0,0,0,0,
0,0,0,0,0,0,0,0,0,0,0,0,0,0,0,0,
0,0,0,0,0,0,0,0,0,0,0,0,0,0,0,0,
0,0,0,0,0,0,0,0,0,0,0,0,0,0,0,0,
0,0,0,0,0,0,0,0,0,0,0,0,0,0,0,0,
0,0,0,0,0,0,0,0,0,0,0,0,0,0,0,0,
0,0,0,0,0,0,0,0,0,0,0,0,0,0,0,0,
0,0,0,0,0,0,0,0,0,0,0,0,0,0,0,0,
379,380,381,382,0,0,0,0,0,0,0,0,0,0,0,0,
421,422,423,424,0,0,0,0,0,0,0,0,0,0,0,0
</chunk>
   <chunk x="-16" y="0" width="16" height="16">
0,0,0,0,0,0,0,0,0,0,0,0,0,460,461,462,
0,0,0,0,0,0,0,0,0,0,0,0,0,502,503,504,
0,0,0,0,0,0,0,0,0,0,0,0,0,544,545,546,
0,0,0,0,0,0,0,0,0,0,0,0,0,586,587,588,
0,0,0,0,0,0,0,0,0,0,0,0,0,0,0,0,
0,0,0,0,0,0,0,0,0,0,0,0,0,0,0,0,
0,0,0,0,0,0,0,0,0,0,0,0,0,0,0,0,
0,0,0,0,0,0,0,0,0,0,0,0,0,0,0,0,
0,0,0,0,0,0,0,0,0,0,0,0,0,0,0,0,
0,0,0,0,0,0,0,0,0,0,0,0,0,0,0,0,
0,0,0,0,0,0,0,0,0,0,0,0,0,0,0,0,
0,0,0,0,0,0,0,0,0,0,0,0,0,0,0,0,
0,0,0,0,0,0,0,0,0,0,0,0,0,0,0,0,
0,0,0,0,0,0,0,0,0,0,0,0,0,0,0,0,
0,0,0,0,0,0,0,0,0,0,0,0,0,0,0,0,
0,0,0,0,0,0,0,0,0,0,0,0,0,0,0,0
</chunk>
   <chunk x="0" y="0" width="16" height="16">
463,464,465,466,0,0,0,0,0,0,0,0,0,0,0,0,
505,506,507,508,0,0,0,0,0,0,0,0,0,0,0,0,
547,548,549,550,0,0,0,0,0,0,0,0,0,0,0,0,
589,590,591,592,0,0,0,0,0,0,0,0,0,0,0,0,
0,0,0,0,0,0,0,0,0,0,0,0,0,0,0,0,
0,0,0,0,0,0,0,0,0,0,0,0,0,0,0,0,
0,0,0,0,0,0,0,0,0,0,0,0,0,0,0,0,
0,0,0,0,0,0,0,0,0,0,0,0,0,0,0,0,
0,0,0,0,0,0,0,0,0,0,0,0,0,0,0,0,
0,0,0,0,0,0,0,0,0,0,0,0,0,0,0,0,
0,0,0,0,0,0,0,0,0,0,0,0,0,0,0,0,
0,0,0,0,0,0,0,0,0,0,0,0,0,0,0,0,
0,0,0,0,0,0,0,0,0,0,0,0,0,0,0,0,
0,0,0,0,0,0,0,0,0,0,0,0,0,0,0,0,
0,0,0,0,0,0,0,0,0,0,0,0,0,0,0,0,
0,0,0,0,0,0,0,0,0,0,0,0,0,0,0,0
</chunk>
  </data>
 </layer>
 <layer id="5" name="Lightning" width="16" height="24">
  <data encoding="csv">
   <chunk x="-16" y="-16" width="16" height="16">
0,0,0,0,0,0,0,0,0,0,0,0,0,0,0,0,
0,0,0,0,0,0,0,0,0,0,0,0,0,0,0,0,
0,0,0,0,0,0,0,0,0,0,0,0,0,0,0,0,
0,0,0,0,0,0,0,0,0,0,0,0,0,0,0,0,
0,0,0,0,0,0,0,0,0,0,0,0,0,0,0,0,
0,0,0,0,0,0,0,0,0,0,0,0,0,0,0,0,
0,0,0,0,0,0,0,0,0,0,0,0,0,0,0,0,
0,0,0,0,0,0,0,0,0,0,0,0,0,0,0,0,
0,0,0,0,0,0,0,0,0,0,0,0,0,0,0,0,
0,0,0,0,0,0,0,0,0,0,0,0,0,0,0,0,
0,0,0,0,0,0,0,0,0,0,0,0,0,0,1690,1691,
0,0,0,0,0,0,0,0,0,0,0,0,0,0,1710,1711,
0,0,0,0,0,0,0,0,0,0,0,0,0,0,1730,1731,
0,0,0,0,0,0,0,0,0,0,0,0,0,0,1750,1751,
0,0,0,0,0,0,0,0,0,0,0,0,0,0,1770,1771,
0,0,0,0,0,0,0,0,0,0,0,0,0,0,1790,1791
</chunk>
   <chunk x="0" y="-16" width="16" height="16">
0,0,0,0,0,0,0,0,0,0,0,0,0,0,0,0,
0,0,0,0,0,0,0,0,0,0,0,0,0,0,0,0,
0,0,0,0,0,0,0,0,0,0,0,0,0,0,0,0,
0,0,0,0,0,0,0,0,0,0,0,0,0,0,0,0,
0,0,0,0,0,0,0,0,0,0,0,0,0,0,0,0,
0,0,0,0,0,0,0,0,0,0,0,0,0,0,0,0,
0,0,0,0,0,0,0,0,0,0,0,0,0,0,0,0,
0,0,0,0,0,0,0,0,0,0,0,0,0,0,0,0,
0,0,0,0,0,0,0,0,0,0,0,0,0,0,0,0,
0,0,0,0,0,0,0,0,0,0,0,0,0,0,0,0,
1692,1693,1694,0,0,0,0,0,0,0,0,0,0,0,0,0,
1712,1713,1714,0,0,0,0,0,0,0,0,0,0,0,0,0,
1732,1733,1734,0,0,0,0,0,0,0,0,0,0,0,0,0,
1752,1753,1754,0,0,0,0,0,0,0,0,0,0,0,0,0,
1772,1773,1774,0,0,0,0,0,0,0,0,0,0,0,0,0,
1792,1793,1794,0,0,0,0,0,0,0,0,0,0,0,0,0
</chunk>
   <chunk x="-16" y="0" width="16" height="16">
0,0,0,0,0,0,0,0,0,0,0,0,0,0,1810,1811,
0,0,0,0,0,0,0,0,0,0,0,0,0,0,1830,1831,
0,0,0,0,0,0,0,0,0,0,0,0,0,0,0,0,
0,0,0,0,0,0,0,0,0,0,0,0,0,0,0,0,
0,0,0,0,0,0,0,0,0,0,0,0,0,0,0,0,
0,0,0,0,0,0,0,0,0,0,0,0,0,0,0,0,
0,0,0,0,0,0,0,0,0,0,0,0,0,0,0,0,
0,0,0,0,0,0,0,0,0,0,0,0,0,0,0,0,
0,0,0,0,0,0,0,0,0,0,0,0,0,0,0,0,
0,0,0,0,0,0,0,0,0,0,0,0,0,0,0,0,
0,0,0,0,0,0,0,0,0,0,0,0,0,0,0,0,
0,0,0,0,0,0,0,0,0,0,0,0,0,0,0,0,
0,0,0,0,0,0,0,0,0,0,0,0,0,0,0,0,
0,0,0,0,0,0,0,0,0,0,0,0,0,0,0,0,
0,0,0,0,0,0,0,0,0,0,0,0,0,0,0,0,
0,0,0,0,0,0,0,0,0,0,0,0,0,0,0,0
</chunk>
   <chunk x="0" y="0" width="16" height="16">
1812,1813,1814,0,0,0,0,0,0,0,0,0,0,0,0,0,
1832,1833,1834,0,0,0,0,0,0,0,0,0,0,0,0,0,
0,0,0,0,0,0,0,0,0,0,0,0,0,0,0,0,
0,0,0,0,0,0,0,0,0,0,0,0,0,0,0,0,
0,0,0,0,0,0,0,0,0,0,0,0,0,0,0,0,
0,0,0,0,0,0,0,0,0,0,0,0,0,0,0,0,
0,0,0,0,0,0,0,0,0,0,0,0,0,0,0,0,
0,0,0,0,0,0,0,0,0,0,0,0,0,0,0,0,
0,0,0,0,0,0,0,0,0,0,0,0,0,0,0,0,
0,0,0,0,0,0,0,0,0,0,0,0,0,0,0,0,
0,0,0,0,0,0,0,0,0,0,0,0,0,0,0,0,
0,0,0,0,0,0,0,0,0,0,0,0,0,0,0,0,
0,0,0,0,0,0,0,0,0,0,0,0,0,0,0,0,
0,0,0,0,0,0,0,0,0,0,0,0,0,0,0,0,
0,0,0,0,0,0,0,0,0,0,0,0,0,0,0,0,
0,0,0,0,0,0,0,0,0,0,0,0,0,0,0,0
</chunk>
  </data>
 </layer>
</map>
