<?xml version="1.0" encoding="UTF-8"?>
<map version="1.10" tiledversion="1.10.2" orientation="orthogonal" renderorder="right-down" width="32" height="48" tilewidth="16" tileheight="16" infinite="0" nextlayerid="8" nextobjectid="1">
 <tileset firstgid="1" name="Rat2_Attack_full" tilewidth="16" tileheight="16" tilecount="2048" columns="64">
  <image source="Rat2_Attack_with_shadow.png" width="1024" height="512"/>
  <tile id="67">
   <animation>
    <frame tileid="67" duration="150"/>
    <frame tileid="75" duration="150"/>
    <frame tileid="83" duration="150"/>
    <frame tileid="91" duration="150"/>
    <frame tileid="99" duration="150"/>
    <frame tileid="107" duration="150"/>
    <frame tileid="115" duration="150"/>
    <frame tileid="123" duration="150"/>
   </animation>
  </tile>
  <tile id="68">
   <animation>
    <frame tileid="68" duration="150"/>
    <frame tileid="76" duration="150"/>
    <frame tileid="84" duration="150"/>
    <frame tileid="92" duration="150"/>
    <frame tileid="100" duration="150"/>
    <frame tileid="108" duration="150"/>
    <frame tileid="116" duration="150"/>
    <frame tileid="124" duration="150"/>
   </animation>
  </tile>
  <tile id="131">
   <animation>
    <frame tileid="131" duration="150"/>
    <frame tileid="139" duration="150"/>
    <frame tileid="147" duration="150"/>
    <frame tileid="155" duration="150"/>
    <frame tileid="163" duration="150"/>
    <frame tileid="171" duration="150"/>
    <frame tileid="179" duration="150"/>
    <frame tileid="187" duration="150"/>
   </animation>
  </tile>
  <tile id="132">
   <animation>
    <frame tileid="132" duration="150"/>
    <frame tileid="140" duration="150"/>
    <frame tileid="148" duration="150"/>
    <frame tileid="156" duration="150"/>
    <frame tileid="164" duration="150"/>
    <frame tileid="172" duration="150"/>
    <frame tileid="180" duration="150"/>
    <frame tileid="188" duration="150"/>
   </animation>
  </tile>
  <tile id="194">
   <animation>
    <frame tileid="194" duration="150"/>
    <frame tileid="202" duration="150"/>
    <frame tileid="210" duration="150"/>
    <frame tileid="218" duration="150"/>
    <frame tileid="226" duration="150"/>
    <frame tileid="234" duration="150"/>
    <frame tileid="242" duration="150"/>
    <frame tileid="250" duration="150"/>
   </animation>
  </tile>
  <tile id="195">
   <animation>
    <frame tileid="195" duration="150"/>
    <frame tileid="203" duration="150"/>
    <frame tileid="211" duration="150"/>
    <frame tileid="219" duration="150"/>
    <frame tileid="227" duration="150"/>
    <frame tileid="235" duration="150"/>
    <frame tileid="243" duration="150"/>
    <frame tileid="251" duration="150"/>
   </animation>
  </tile>
  <tile id="196">
   <animation>
    <frame tileid="196" duration="150"/>
    <frame tileid="204" duration="150"/>
    <frame tileid="212" duration="150"/>
    <frame tileid="220" duration="150"/>
    <frame tileid="228" duration="150"/>
    <frame tileid="236" duration="150"/>
    <frame tileid="244" duration="150"/>
    <frame tileid="252" duration="150"/>
   </animation>
  </tile>
  <tile id="197">
   <animation>
    <frame tileid="197" duration="150"/>
    <frame tileid="205" duration="150"/>
    <frame tileid="213" duration="150"/>
    <frame tileid="221" duration="150"/>
    <frame tileid="229" duration="150"/>
    <frame tileid="237" duration="150"/>
    <frame tileid="245" duration="150"/>
    <frame tileid="253" duration="150"/>
   </animation>
  </tile>
  <tile id="258">
   <animation>
    <frame tileid="258" duration="150"/>
    <frame tileid="266" duration="150"/>
    <frame tileid="274" duration="150"/>
    <frame tileid="282" duration="150"/>
    <frame tileid="290" duration="150"/>
    <frame tileid="298" duration="150"/>
    <frame tileid="306" duration="150"/>
    <frame tileid="314" duration="150"/>
   </animation>
  </tile>
  <tile id="259">
   <animation>
    <frame tileid="259" duration="150"/>
    <frame tileid="267" duration="150"/>
    <frame tileid="275" duration="150"/>
    <frame tileid="283" duration="150"/>
    <frame tileid="291" duration="150"/>
    <frame tileid="299" duration="150"/>
    <frame tileid="307" duration="150"/>
    <frame tileid="315" duration="150"/>
   </animation>
  </tile>
  <tile id="260">
   <animation>
    <frame tileid="260" duration="150"/>
    <frame tileid="268" duration="150"/>
    <frame tileid="276" duration="150"/>
    <frame tileid="284" duration="150"/>
    <frame tileid="292" duration="150"/>
    <frame tileid="300" duration="150"/>
    <frame tileid="308" duration="150"/>
    <frame tileid="316" duration="150"/>
   </animation>
  </tile>
  <tile id="261">
   <animation>
    <frame tileid="261" duration="150"/>
    <frame tileid="269" duration="150"/>
    <frame tileid="277" duration="150"/>
    <frame tileid="285" duration="150"/>
    <frame tileid="293" duration="150"/>
    <frame tileid="301" duration="150"/>
    <frame tileid="309" duration="150"/>
    <frame tileid="317" duration="150"/>
   </animation>
  </tile>
  <tile id="322">
   <animation>
    <frame tileid="322" duration="150"/>
    <frame tileid="330" duration="150"/>
    <frame tileid="338" duration="150"/>
    <frame tileid="346" duration="150"/>
    <frame tileid="354" duration="150"/>
    <frame tileid="362" duration="150"/>
    <frame tileid="370" duration="150"/>
    <frame tileid="378" duration="150"/>
   </animation>
  </tile>
  <tile id="323">
   <animation>
    <frame tileid="323" duration="150"/>
    <frame tileid="331" duration="150"/>
    <frame tileid="339" duration="150"/>
    <frame tileid="347" duration="150"/>
    <frame tileid="355" duration="150"/>
    <frame tileid="363" duration="150"/>
    <frame tileid="371" duration="150"/>
    <frame tileid="379" duration="150"/>
   </animation>
  </tile>
  <tile id="324">
   <animation>
    <frame tileid="324" duration="150"/>
    <frame tileid="332" duration="150"/>
    <frame tileid="340" duration="150"/>
    <frame tileid="348" duration="150"/>
    <frame tileid="356" duration="150"/>
    <frame tileid="364" duration="150"/>
    <frame tileid="372" duration="150"/>
    <frame tileid="380" duration="150"/>
   </animation>
  </tile>
  <tile id="325">
   <animation>
    <frame tileid="325" duration="150"/>
    <frame tileid="333" duration="150"/>
    <frame tileid="341" duration="150"/>
    <frame tileid="349" duration="150"/>
    <frame tileid="357" duration="150"/>
    <frame tileid="365" duration="150"/>
    <frame tileid="373" duration="150"/>
    <frame tileid="381" duration="150"/>
   </animation>
  </tile>
  <tile id="388">
   <animation>
    <frame tileid="388" duration="150"/>
    <frame tileid="396" duration="150"/>
    <frame tileid="404" duration="150"/>
    <frame tileid="412" duration="150"/>
    <frame tileid="420" duration="150"/>
    <frame tileid="428" duration="150"/>
    <frame tileid="436" duration="150"/>
    <frame tileid="444" duration="150"/>
   </animation>
  </tile>
  <tile id="579">
   <animation>
    <frame tileid="579" duration="150"/>
    <frame tileid="587" duration="150"/>
    <frame tileid="595" duration="150"/>
    <frame tileid="603" duration="150"/>
    <frame tileid="611" duration="150"/>
    <frame tileid="619" duration="150"/>
    <frame tileid="627" duration="150"/>
    <frame tileid="635" duration="150"/>
   </animation>
  </tile>
  <tile id="580">
   <animation>
    <frame tileid="580" duration="150"/>
    <frame tileid="588" duration="150"/>
    <frame tileid="596" duration="150"/>
    <frame tileid="604" duration="150"/>
    <frame tileid="612" duration="150"/>
    <frame tileid="620" duration="150"/>
    <frame tileid="628" duration="150"/>
    <frame tileid="636" duration="150"/>
   </animation>
  </tile>
  <tile id="642">
   <animation>
    <frame tileid="642" duration="150"/>
    <frame tileid="650" duration="150"/>
    <frame tileid="658" duration="150"/>
    <frame tileid="666" duration="150"/>
    <frame tileid="674" duration="150"/>
    <frame tileid="682" duration="150"/>
    <frame tileid="690" duration="150"/>
    <frame tileid="698" duration="150"/>
   </animation>
  </tile>
  <tile id="643">
   <animation>
    <frame tileid="643" duration="150"/>
    <frame tileid="651" duration="150"/>
    <frame tileid="659" duration="150"/>
    <frame tileid="667" duration="150"/>
    <frame tileid="675" duration="150"/>
    <frame tileid="683" duration="150"/>
    <frame tileid="691" duration="150"/>
    <frame tileid="699" duration="150"/>
   </animation>
  </tile>
  <tile id="644">
   <animation>
    <frame tileid="644" duration="150"/>
    <frame tileid="652" duration="150"/>
    <frame tileid="660" duration="150"/>
    <frame tileid="668" duration="150"/>
    <frame tileid="676" duration="150"/>
    <frame tileid="684" duration="150"/>
    <frame tileid="692" duration="150"/>
    <frame tileid="700" duration="150"/>
   </animation>
  </tile>
  <tile id="645">
   <animation>
    <frame tileid="645" duration="150"/>
    <frame tileid="653" duration="150"/>
    <frame tileid="661" duration="150"/>
    <frame tileid="669" duration="150"/>
    <frame tileid="677" duration="150"/>
    <frame tileid="685" duration="150"/>
    <frame tileid="693" duration="150"/>
    <frame tileid="701" duration="150"/>
   </animation>
  </tile>
  <tile id="706">
   <animation>
    <frame tileid="706" duration="150"/>
    <frame tileid="714" duration="150"/>
    <frame tileid="722" duration="150"/>
    <frame tileid="730" duration="150"/>
    <frame tileid="738" duration="150"/>
    <frame tileid="746" duration="150"/>
    <frame tileid="754" duration="150"/>
    <frame tileid="762" duration="150"/>
   </animation>
  </tile>
  <tile id="707">
   <animation>
    <frame tileid="707" duration="150"/>
    <frame tileid="715" duration="150"/>
    <frame tileid="723" duration="150"/>
    <frame tileid="731" duration="150"/>
    <frame tileid="739" duration="150"/>
    <frame tileid="747" duration="150"/>
    <frame tileid="755" duration="150"/>
    <frame tileid="763" duration="150"/>
   </animation>
  </tile>
  <tile id="708">
   <animation>
    <frame tileid="708" duration="150"/>
    <frame tileid="716" duration="150"/>
    <frame tileid="724" duration="150"/>
    <frame tileid="732" duration="150"/>
    <frame tileid="740" duration="150"/>
    <frame tileid="748" duration="150"/>
    <frame tileid="756" duration="150"/>
    <frame tileid="764" duration="150"/>
   </animation>
  </tile>
  <tile id="709">
   <animation>
    <frame tileid="709" duration="150"/>
    <frame tileid="717" duration="150"/>
    <frame tileid="725" duration="150"/>
    <frame tileid="733" duration="150"/>
    <frame tileid="741" duration="150"/>
    <frame tileid="749" duration="150"/>
    <frame tileid="757" duration="150"/>
    <frame tileid="765" duration="150"/>
   </animation>
  </tile>
  <tile id="771">
   <animation>
    <frame tileid="771" duration="150"/>
    <frame tileid="779" duration="150"/>
    <frame tileid="787" duration="150"/>
    <frame tileid="795" duration="150"/>
    <frame tileid="803" duration="150"/>
    <frame tileid="811" duration="150"/>
    <frame tileid="819" duration="150"/>
    <frame tileid="827" duration="150"/>
   </animation>
  </tile>
  <tile id="772">
   <animation>
    <frame tileid="772" duration="150"/>
    <frame tileid="780" duration="150"/>
    <frame tileid="788" duration="150"/>
    <frame tileid="796" duration="150"/>
    <frame tileid="804" duration="150"/>
    <frame tileid="812" duration="150"/>
    <frame tileid="820" duration="150"/>
    <frame tileid="828" duration="150"/>
   </animation>
  </tile>
  <tile id="773">
   <animation>
    <frame tileid="773" duration="150"/>
    <frame tileid="781" duration="150"/>
    <frame tileid="789" duration="150"/>
    <frame tileid="797" duration="150"/>
    <frame tileid="805" duration="150"/>
    <frame tileid="813" duration="150"/>
    <frame tileid="821" duration="150"/>
    <frame tileid="829" duration="150"/>
   </animation>
  </tile>
  <tile id="1093">
   <animation>
    <frame tileid="1093" duration="150"/>
    <frame tileid="1101" duration="150"/>
    <frame tileid="1109" duration="150"/>
    <frame tileid="1117" duration="150"/>
    <frame tileid="1125" duration="150"/>
    <frame tileid="1133" duration="150"/>
    <frame tileid="1141" duration="150"/>
    <frame tileid="1149" duration="150"/>
   </animation>
  </tile>
  <tile id="1094">
   <animation>
    <frame tileid="1094" duration="150"/>
    <frame tileid="1102" duration="150"/>
    <frame tileid="1110" duration="150"/>
    <frame tileid="1118" duration="150"/>
    <frame tileid="1126" duration="150"/>
    <frame tileid="1134" duration="150"/>
    <frame tileid="1142" duration="150"/>
    <frame tileid="1150" duration="150"/>
   </animation>
  </tile>
  <tile id="1154">
   <animation>
    <frame tileid="1154" duration="150"/>
    <frame tileid="1162" duration="150"/>
    <frame tileid="1170" duration="150"/>
    <frame tileid="1178" duration="150"/>
    <frame tileid="1186" duration="150"/>
    <frame tileid="1194" duration="150"/>
    <frame tileid="1202" duration="150"/>
    <frame tileid="1210" duration="150"/>
   </animation>
  </tile>
  <tile id="1155">
   <animation>
    <frame tileid="1155" duration="150"/>
    <frame tileid="1163" duration="150"/>
    <frame tileid="1171" duration="150"/>
    <frame tileid="1179" duration="150"/>
    <frame tileid="1187" duration="150"/>
    <frame tileid="1195" duration="150"/>
    <frame tileid="1203" duration="150"/>
    <frame tileid="1211" duration="150"/>
   </animation>
  </tile>
  <tile id="1156">
   <animation>
    <frame tileid="1156" duration="150"/>
    <frame tileid="1164" duration="150"/>
    <frame tileid="1172" duration="150"/>
    <frame tileid="1180" duration="150"/>
    <frame tileid="1188" duration="150"/>
    <frame tileid="1196" duration="150"/>
    <frame tileid="1204" duration="150"/>
    <frame tileid="1212" duration="150"/>
   </animation>
  </tile>
  <tile id="1157">
   <animation>
    <frame tileid="1157" duration="150"/>
    <frame tileid="1165" duration="150"/>
    <frame tileid="1173" duration="150"/>
    <frame tileid="1181" duration="150"/>
    <frame tileid="1189" duration="150"/>
    <frame tileid="1197" duration="150"/>
    <frame tileid="1205" duration="150"/>
    <frame tileid="1213" duration="150"/>
   </animation>
  </tile>
  <tile id="1158">
   <animation>
    <frame tileid="1158" duration="150"/>
    <frame tileid="1166" duration="150"/>
    <frame tileid="1174" duration="150"/>
    <frame tileid="1182" duration="150"/>
    <frame tileid="1190" duration="150"/>
    <frame tileid="1198" duration="150"/>
    <frame tileid="1206" duration="150"/>
    <frame tileid="1214" duration="150"/>
   </animation>
  </tile>
  <tile id="1216">
   <animation>
    <frame tileid="1216" duration="150"/>
    <frame tileid="1224" duration="150"/>
    <frame tileid="1232" duration="150"/>
    <frame tileid="1240" duration="150"/>
    <frame tileid="1248" duration="150"/>
    <frame tileid="1256" duration="150"/>
    <frame tileid="1264" duration="150"/>
    <frame tileid="1272" duration="150"/>
   </animation>
  </tile>
  <tile id="1217">
   <animation>
    <frame tileid="1217" duration="150"/>
    <frame tileid="1225" duration="150"/>
    <frame tileid="1233" duration="150"/>
    <frame tileid="1241" duration="150"/>
    <frame tileid="1249" duration="150"/>
    <frame tileid="1257" duration="150"/>
    <frame tileid="1265" duration="150"/>
    <frame tileid="1273" duration="150"/>
   </animation>
  </tile>
  <tile id="1218">
   <animation>
    <frame tileid="1218" duration="150"/>
    <frame tileid="1226" duration="150"/>
    <frame tileid="1234" duration="150"/>
    <frame tileid="1242" duration="150"/>
    <frame tileid="1250" duration="150"/>
    <frame tileid="1258" duration="150"/>
    <frame tileid="1266" duration="150"/>
    <frame tileid="1274" duration="150"/>
   </animation>
  </tile>
  <tile id="1219">
   <animation>
    <frame tileid="1219" duration="150"/>
    <frame tileid="1227" duration="150"/>
    <frame tileid="1235" duration="150"/>
    <frame tileid="1243" duration="150"/>
    <frame tileid="1251" duration="150"/>
    <frame tileid="1259" duration="150"/>
    <frame tileid="1267" duration="150"/>
    <frame tileid="1275" duration="150"/>
   </animation>
  </tile>
  <tile id="1220">
   <animation>
    <frame tileid="1220" duration="150"/>
    <frame tileid="1228" duration="150"/>
    <frame tileid="1236" duration="150"/>
    <frame tileid="1244" duration="150"/>
    <frame tileid="1252" duration="150"/>
    <frame tileid="1260" duration="150"/>
    <frame tileid="1268" duration="150"/>
    <frame tileid="1276" duration="150"/>
   </animation>
  </tile>
  <tile id="1221">
   <animation>
    <frame tileid="1221" duration="150"/>
    <frame tileid="1229" duration="150"/>
    <frame tileid="1237" duration="150"/>
    <frame tileid="1245" duration="150"/>
    <frame tileid="1253" duration="150"/>
    <frame tileid="1261" duration="150"/>
    <frame tileid="1269" duration="150"/>
    <frame tileid="1277" duration="150"/>
   </animation>
  </tile>
  <tile id="1222">
   <animation>
    <frame tileid="1222" duration="150"/>
    <frame tileid="1230" duration="150"/>
    <frame tileid="1238" duration="150"/>
    <frame tileid="1246" duration="150"/>
    <frame tileid="1254" duration="150"/>
    <frame tileid="1262" duration="150"/>
    <frame tileid="1270" duration="150"/>
    <frame tileid="1278" duration="150"/>
   </animation>
  </tile>
  <tile id="1280">
   <animation>
    <frame tileid="1280" duration="150"/>
    <frame tileid="1288" duration="150"/>
    <frame tileid="1296" duration="150"/>
    <frame tileid="1304" duration="150"/>
    <frame tileid="1312" duration="150"/>
    <frame tileid="1320" duration="150"/>
    <frame tileid="1328" duration="150"/>
    <frame tileid="1336" duration="150"/>
   </animation>
  </tile>
  <tile id="1281">
   <animation>
    <frame tileid="1281" duration="150"/>
    <frame tileid="1289" duration="150"/>
    <frame tileid="1297" duration="150"/>
    <frame tileid="1305" duration="150"/>
    <frame tileid="1313" duration="150"/>
    <frame tileid="1321" duration="150"/>
    <frame tileid="1329" duration="150"/>
    <frame tileid="1337" duration="150"/>
   </animation>
  </tile>
  <tile id="1282">
   <animation>
    <frame tileid="1282" duration="150"/>
    <frame tileid="1290" duration="150"/>
    <frame tileid="1298" duration="150"/>
    <frame tileid="1306" duration="150"/>
    <frame tileid="1314" duration="150"/>
    <frame tileid="1322" duration="150"/>
    <frame tileid="1330" duration="150"/>
    <frame tileid="1338" duration="150"/>
   </animation>
  </tile>
  <tile id="1283">
   <animation>
    <frame tileid="1283" duration="150"/>
    <frame tileid="1291" duration="150"/>
    <frame tileid="1299" duration="150"/>
    <frame tileid="1307" duration="150"/>
    <frame tileid="1315" duration="150"/>
    <frame tileid="1323" duration="150"/>
    <frame tileid="1331" duration="150"/>
    <frame tileid="1339" duration="150"/>
   </animation>
  </tile>
  <tile id="1284">
   <animation>
    <frame tileid="1284" duration="150"/>
    <frame tileid="1292" duration="150"/>
    <frame tileid="1300" duration="150"/>
    <frame tileid="1308" duration="150"/>
    <frame tileid="1316" duration="150"/>
    <frame tileid="1324" duration="150"/>
    <frame tileid="1332" duration="150"/>
    <frame tileid="1340" duration="150"/>
   </animation>
  </tile>
  <tile id="1285">
   <animation>
    <frame tileid="1285" duration="150"/>
    <frame tileid="1293" duration="150"/>
    <frame tileid="1301" duration="150"/>
    <frame tileid="1309" duration="150"/>
    <frame tileid="1317" duration="150"/>
    <frame tileid="1325" duration="150"/>
    <frame tileid="1333" duration="150"/>
    <frame tileid="1341" duration="150"/>
   </animation>
  </tile>
  <tile id="1286">
   <animation>
    <frame tileid="1286" duration="150"/>
    <frame tileid="1294" duration="150"/>
    <frame tileid="1302" duration="150"/>
    <frame tileid="1310" duration="150"/>
    <frame tileid="1318" duration="150"/>
    <frame tileid="1326" duration="150"/>
    <frame tileid="1334" duration="150"/>
    <frame tileid="1342" duration="150"/>
   </animation>
  </tile>
  <tile id="1344">
   <animation>
    <frame tileid="1344" duration="150"/>
    <frame tileid="1352" duration="150"/>
    <frame tileid="1360" duration="150"/>
    <frame tileid="1368" duration="150"/>
    <frame tileid="1376" duration="150"/>
    <frame tileid="1384" duration="150"/>
    <frame tileid="1392" duration="150"/>
    <frame tileid="1400" duration="150"/>
   </animation>
  </tile>
  <tile id="1345">
   <animation>
    <frame tileid="1345" duration="150"/>
    <frame tileid="1353" duration="150"/>
    <frame tileid="1361" duration="150"/>
    <frame tileid="1369" duration="150"/>
    <frame tileid="1377" duration="150"/>
    <frame tileid="1385" duration="150"/>
    <frame tileid="1393" duration="150"/>
    <frame tileid="1401" duration="150"/>
   </animation>
  </tile>
  <tile id="1346">
   <animation>
    <frame tileid="1346" duration="150"/>
    <frame tileid="1354" duration="150"/>
    <frame tileid="1362" duration="150"/>
    <frame tileid="1370" duration="150"/>
    <frame tileid="1378" duration="150"/>
    <frame tileid="1386" duration="150"/>
    <frame tileid="1394" duration="150"/>
    <frame tileid="1402" duration="150"/>
   </animation>
  </tile>
  <tile id="1601">
   <animation>
    <frame tileid="1601" duration="150"/>
    <frame tileid="1609" duration="150"/>
    <frame tileid="1617" duration="150"/>
    <frame tileid="1625" duration="150"/>
    <frame tileid="1633" duration="150"/>
    <frame tileid="1641" duration="150"/>
    <frame tileid="1649" duration="150"/>
    <frame tileid="1657" duration="150"/>
   </animation>
  </tile>
  <tile id="1602">
   <animation>
    <frame tileid="1602" duration="150"/>
    <frame tileid="1610" duration="150"/>
    <frame tileid="1618" duration="150"/>
    <frame tileid="1626" duration="150"/>
    <frame tileid="1634" duration="150"/>
    <frame tileid="1642" duration="150"/>
    <frame tileid="1650" duration="150"/>
    <frame tileid="1658" duration="150"/>
   </animation>
  </tile>
  <tile id="1603">
   <animation>
    <frame tileid="1603" duration="150"/>
    <frame tileid="1611" duration="150"/>
    <frame tileid="1619" duration="150"/>
    <frame tileid="1627" duration="150"/>
    <frame tileid="1635" duration="150"/>
    <frame tileid="1643" duration="150"/>
    <frame tileid="1651" duration="150"/>
    <frame tileid="1659" duration="150"/>
   </animation>
  </tile>
  <tile id="1604">
   <animation>
    <frame tileid="1604" duration="150"/>
    <frame tileid="1612" duration="150"/>
    <frame tileid="1620" duration="150"/>
    <frame tileid="1628" duration="150"/>
    <frame tileid="1636" duration="150"/>
    <frame tileid="1644" duration="150"/>
    <frame tileid="1652" duration="150"/>
    <frame tileid="1660" duration="150"/>
   </animation>
  </tile>
  <tile id="1665">
   <animation>
    <frame tileid="1665" duration="150"/>
    <frame tileid="1673" duration="150"/>
    <frame tileid="1681" duration="150"/>
    <frame tileid="1689" duration="150"/>
    <frame tileid="1697" duration="150"/>
    <frame tileid="1705" duration="150"/>
    <frame tileid="1713" duration="150"/>
    <frame tileid="1721" duration="150"/>
   </animation>
  </tile>
  <tile id="1666">
   <animation>
    <frame tileid="1666" duration="150"/>
    <frame tileid="1674" duration="150"/>
    <frame tileid="1682" duration="150"/>
    <frame tileid="1690" duration="150"/>
    <frame tileid="1698" duration="150"/>
    <frame tileid="1706" duration="150"/>
    <frame tileid="1714" duration="150"/>
    <frame tileid="1722" duration="150"/>
   </animation>
  </tile>
  <tile id="1667">
   <animation>
    <frame tileid="1667" duration="150"/>
    <frame tileid="1675" duration="150"/>
    <frame tileid="1683" duration="150"/>
    <frame tileid="1691" duration="150"/>
    <frame tileid="1699" duration="150"/>
    <frame tileid="1707" duration="150"/>
    <frame tileid="1715" duration="150"/>
    <frame tileid="1723" duration="150"/>
   </animation>
  </tile>
  <tile id="1668">
   <animation>
    <frame tileid="1668" duration="150"/>
    <frame tileid="1676" duration="150"/>
    <frame tileid="1684" duration="150"/>
    <frame tileid="1692" duration="150"/>
    <frame tileid="1700" duration="150"/>
    <frame tileid="1708" duration="150"/>
    <frame tileid="1716" duration="150"/>
    <frame tileid="1724" duration="150"/>
   </animation>
  </tile>
  <tile id="1669">
   <animation>
    <frame tileid="1669" duration="150"/>
    <frame tileid="1677" duration="150"/>
    <frame tileid="1685" duration="150"/>
    <frame tileid="1693" duration="150"/>
    <frame tileid="1701" duration="150"/>
    <frame tileid="1709" duration="150"/>
    <frame tileid="1717" duration="150"/>
    <frame tileid="1725" duration="150"/>
   </animation>
  </tile>
  <tile id="1729">
   <animation>
    <frame tileid="1729" duration="150"/>
    <frame tileid="1737" duration="150"/>
    <frame tileid="1745" duration="150"/>
    <frame tileid="1753" duration="150"/>
    <frame tileid="1761" duration="150"/>
    <frame tileid="1769" duration="150"/>
    <frame tileid="1777" duration="150"/>
    <frame tileid="1785" duration="150"/>
   </animation>
  </tile>
  <tile id="1730">
   <animation>
    <frame tileid="1730" duration="150"/>
    <frame tileid="1738" duration="150"/>
    <frame tileid="1746" duration="150"/>
    <frame tileid="1754" duration="150"/>
    <frame tileid="1762" duration="150"/>
    <frame tileid="1770" duration="150"/>
    <frame tileid="1778" duration="150"/>
    <frame tileid="1786" duration="150"/>
   </animation>
  </tile>
  <tile id="1731">
   <animation>
    <frame tileid="1731" duration="150"/>
    <frame tileid="1739" duration="150"/>
    <frame tileid="1747" duration="150"/>
    <frame tileid="1755" duration="150"/>
    <frame tileid="1763" duration="150"/>
    <frame tileid="1771" duration="150"/>
    <frame tileid="1779" duration="150"/>
    <frame tileid="1787" duration="150"/>
   </animation>
  </tile>
  <tile id="1732">
   <animation>
    <frame tileid="1732" duration="150"/>
    <frame tileid="1740" duration="150"/>
    <frame tileid="1748" duration="150"/>
    <frame tileid="1756" duration="150"/>
    <frame tileid="1764" duration="150"/>
    <frame tileid="1772" duration="150"/>
    <frame tileid="1780" duration="150"/>
    <frame tileid="1788" duration="150"/>
   </animation>
  </tile>
  <tile id="1733">
   <animation>
    <frame tileid="1733" duration="150"/>
    <frame tileid="1741" duration="150"/>
    <frame tileid="1749" duration="150"/>
    <frame tileid="1757" duration="150"/>
    <frame tileid="1765" duration="150"/>
    <frame tileid="1773" duration="150"/>
    <frame tileid="1781" duration="150"/>
    <frame tileid="1789" duration="150"/>
   </animation>
  </tile>
  <tile id="1734">
   <animation>
    <frame tileid="1734" duration="150"/>
    <frame tileid="1742" duration="150"/>
    <frame tileid="1750" duration="150"/>
    <frame tileid="1758" duration="150"/>
    <frame tileid="1766" duration="150"/>
    <frame tileid="1774" duration="150"/>
    <frame tileid="1782" duration="150"/>
    <frame tileid="1790" duration="150"/>
   </animation>
  </tile>
  <tile id="1735">
   <animation>
    <frame tileid="1735" duration="150"/>
    <frame tileid="1743" duration="150"/>
    <frame tileid="1751" duration="150"/>
    <frame tileid="1759" duration="150"/>
    <frame tileid="1767" duration="150"/>
    <frame tileid="1775" duration="150"/>
    <frame tileid="1783" duration="150"/>
    <frame tileid="1791" duration="150"/>
   </animation>
  </tile>
  <tile id="1793">
   <animation>
    <frame tileid="1793" duration="150"/>
    <frame tileid="1801" duration="150"/>
    <frame tileid="1809" duration="150"/>
    <frame tileid="1817" duration="150"/>
    <frame tileid="1825" duration="150"/>
    <frame tileid="1833" duration="150"/>
    <frame tileid="1841" duration="150"/>
    <frame tileid="1849" duration="150"/>
   </animation>
  </tile>
  <tile id="1794">
   <animation>
    <frame tileid="1794" duration="150"/>
    <frame tileid="1802" duration="150"/>
    <frame tileid="1810" duration="150"/>
    <frame tileid="1818" duration="150"/>
    <frame tileid="1826" duration="150"/>
    <frame tileid="1834" duration="150"/>
    <frame tileid="1842" duration="150"/>
    <frame tileid="1850" duration="150"/>
   </animation>
  </tile>
  <tile id="1795">
   <animation>
    <frame tileid="1795" duration="150"/>
    <frame tileid="1803" duration="150"/>
    <frame tileid="1811" duration="150"/>
    <frame tileid="1819" duration="150"/>
    <frame tileid="1827" duration="150"/>
    <frame tileid="1835" duration="150"/>
    <frame tileid="1843" duration="150"/>
    <frame tileid="1851" duration="150"/>
   </animation>
  </tile>
  <tile id="1796">
   <animation>
    <frame tileid="1796" duration="150"/>
    <frame tileid="1804" duration="150"/>
    <frame tileid="1812" duration="150"/>
    <frame tileid="1820" duration="150"/>
    <frame tileid="1828" duration="150"/>
    <frame tileid="1836" duration="150"/>
    <frame tileid="1844" duration="150"/>
    <frame tileid="1852" duration="150"/>
   </animation>
  </tile>
  <tile id="1797">
   <animation>
    <frame tileid="1797" duration="150"/>
    <frame tileid="1805" duration="150"/>
    <frame tileid="1813" duration="150"/>
    <frame tileid="1821" duration="150"/>
    <frame tileid="1829" duration="150"/>
    <frame tileid="1837" duration="150"/>
    <frame tileid="1845" duration="150"/>
    <frame tileid="1853" duration="150"/>
   </animation>
  </tile>
  <tile id="1798">
   <animation>
    <frame tileid="1798" duration="150"/>
    <frame tileid="1806" duration="150"/>
    <frame tileid="1814" duration="150"/>
    <frame tileid="1822" duration="150"/>
    <frame tileid="1830" duration="150"/>
    <frame tileid="1838" duration="150"/>
    <frame tileid="1846" duration="150"/>
    <frame tileid="1854" duration="150"/>
   </animation>
  </tile>
  <tile id="1799">
   <animation>
    <frame tileid="1799" duration="150"/>
    <frame tileid="1807" duration="150"/>
    <frame tileid="1815" duration="150"/>
    <frame tileid="1823" duration="150"/>
    <frame tileid="1831" duration="150"/>
    <frame tileid="1839" duration="150"/>
    <frame tileid="1847" duration="150"/>
    <frame tileid="1855" duration="150"/>
   </animation>
  </tile>
  <tile id="1861">
   <animation>
    <frame tileid="1861" duration="150"/>
    <frame tileid="1869" duration="150"/>
    <frame tileid="1877" duration="150"/>
    <frame tileid="1885" duration="150"/>
    <frame tileid="1893" duration="150"/>
    <frame tileid="1901" duration="150"/>
    <frame tileid="1909" duration="150"/>
    <frame tileid="1917" duration="150"/>
   </animation>
  </tile>
  <tile id="1862">
   <animation>
    <frame tileid="1862" duration="150"/>
    <frame tileid="1870" duration="150"/>
    <frame tileid="1878" duration="150"/>
    <frame tileid="1886" duration="150"/>
    <frame tileid="1894" duration="150"/>
    <frame tileid="1902" duration="150"/>
    <frame tileid="1910" duration="150"/>
    <frame tileid="1918" duration="150"/>
   </animation>
  </tile>
  <tile id="1863">
   <animation>
    <frame tileid="1863" duration="150"/>
    <frame tileid="1871" duration="150"/>
    <frame tileid="1879" duration="150"/>
    <frame tileid="1887" duration="150"/>
    <frame tileid="1895" duration="150"/>
    <frame tileid="1903" duration="150"/>
    <frame tileid="1911" duration="150"/>
    <frame tileid="1919" duration="150"/>
   </animation>
  </tile>
 </tileset>
 <tileset firstgid="2049" name="Rat2_Death_full" tilewidth="16" tileheight="16" tilecount="1280" columns="40">
  <image source="Rat2_Death_with_shadow.png" width="640" height="512"/>
  <tile id="83">
   <animation>
    <frame tileid="83" duration="150"/>
    <frame tileid="91" duration="150"/>
    <frame tileid="99" duration="150"/>
    <frame tileid="107" duration="150"/>
    <frame tileid="115" duration="150"/>
   </animation>
  </tile>
  <tile id="84">
   <animation>
    <frame tileid="84" duration="150"/>
    <frame tileid="92" duration="150"/>
    <frame tileid="100" duration="150"/>
    <frame tileid="108" duration="150"/>
    <frame tileid="116" duration="150"/>
   </animation>
  </tile>
  <tile id="122">
   <animation>
    <frame tileid="122" duration="150"/>
    <frame tileid="130" duration="150"/>
    <frame tileid="138" duration="150"/>
    <frame tileid="146" duration="150"/>
    <frame tileid="154" duration="150"/>
   </animation>
  </tile>
  <tile id="123">
   <animation>
    <frame tileid="123" duration="150"/>
    <frame tileid="131" duration="150"/>
    <frame tileid="139" duration="150"/>
    <frame tileid="147" duration="150"/>
    <frame tileid="155" duration="150"/>
   </animation>
  </tile>
  <tile id="124">
   <animation>
    <frame tileid="124" duration="150"/>
    <frame tileid="132" duration="150"/>
    <frame tileid="140" duration="150"/>
    <frame tileid="148" duration="150"/>
    <frame tileid="156" duration="150"/>
   </animation>
  </tile>
  <tile id="125">
   <animation>
    <frame tileid="125" duration="150"/>
    <frame tileid="133" duration="150"/>
    <frame tileid="141" duration="150"/>
    <frame tileid="149" duration="150"/>
    <frame tileid="157" duration="150"/>
   </animation>
  </tile>
  <tile id="163">
   <animation>
    <frame tileid="163" duration="150"/>
    <frame tileid="171" duration="150"/>
    <frame tileid="179" duration="150"/>
    <frame tileid="187" duration="150"/>
    <frame tileid="195" duration="150"/>
   </animation>
  </tile>
  <tile id="164">
   <animation>
    <frame tileid="164" duration="150"/>
    <frame tileid="172" duration="150"/>
    <frame tileid="180" duration="150"/>
    <frame tileid="188" duration="150"/>
    <frame tileid="196" duration="150"/>
   </animation>
  </tile>
  <tile id="203">
   <animation>
    <frame tileid="203" duration="150"/>
    <frame tileid="211" duration="150"/>
    <frame tileid="219" duration="150"/>
    <frame tileid="227" duration="150"/>
    <frame tileid="235" duration="150"/>
   </animation>
  </tile>
  <tile id="204">
   <animation>
    <frame tileid="204" duration="150"/>
    <frame tileid="212" duration="150"/>
    <frame tileid="220" duration="150"/>
    <frame tileid="228" duration="150"/>
    <frame tileid="236" duration="150"/>
   </animation>
  </tile>
  <tile id="403">
   <animation>
    <frame tileid="403" duration="150"/>
    <frame tileid="411" duration="150"/>
    <frame tileid="419" duration="150"/>
    <frame tileid="427" duration="150"/>
    <frame tileid="435" duration="150"/>
   </animation>
  </tile>
  <tile id="404">
   <animation>
    <frame tileid="404" duration="150"/>
    <frame tileid="412" duration="150"/>
    <frame tileid="420" duration="150"/>
    <frame tileid="428" duration="150"/>
    <frame tileid="436" duration="150"/>
   </animation>
  </tile>
  <tile id="442">
   <animation>
    <frame tileid="442" duration="150"/>
    <frame tileid="450" duration="150"/>
    <frame tileid="458" duration="150"/>
    <frame tileid="466" duration="150"/>
    <frame tileid="474" duration="150"/>
   </animation>
  </tile>
  <tile id="443">
   <animation>
    <frame tileid="443" duration="150"/>
    <frame tileid="451" duration="150"/>
    <frame tileid="459" duration="150"/>
    <frame tileid="467" duration="150"/>
    <frame tileid="475" duration="150"/>
   </animation>
  </tile>
  <tile id="444">
   <animation>
    <frame tileid="444" duration="150"/>
    <frame tileid="452" duration="150"/>
    <frame tileid="460" duration="150"/>
    <frame tileid="468" duration="150"/>
    <frame tileid="476" duration="150"/>
   </animation>
  </tile>
  <tile id="445">
   <animation>
    <frame tileid="445" duration="150"/>
    <frame tileid="453" duration="150"/>
    <frame tileid="461" duration="150"/>
    <frame tileid="469" duration="150"/>
    <frame tileid="477" duration="150"/>
   </animation>
  </tile>
  <tile id="483">
   <animation>
    <frame tileid="483" duration="150"/>
    <frame tileid="491" duration="150"/>
    <frame tileid="499" duration="150"/>
    <frame tileid="507" duration="150"/>
    <frame tileid="515" duration="150"/>
   </animation>
  </tile>
  <tile id="484">
   <animation>
    <frame tileid="484" duration="150"/>
    <frame tileid="492" duration="150"/>
    <frame tileid="500" duration="150"/>
    <frame tileid="508" duration="150"/>
    <frame tileid="516" duration="150"/>
   </animation>
  </tile>
  <tile id="524">
   <animation>
    <frame tileid="524" duration="150"/>
    <frame tileid="532" duration="150"/>
    <frame tileid="540" duration="150"/>
    <frame tileid="548" duration="150"/>
    <frame tileid="556" duration="150"/>
   </animation>
  </tile>
  <tile id="722">
   <animation>
    <frame tileid="722" duration="150"/>
    <frame tileid="730" duration="150"/>
    <frame tileid="738" duration="150"/>
    <frame tileid="746" duration="150"/>
    <frame tileid="754" duration="150"/>
   </animation>
  </tile>
  <tile id="723">
   <animation>
    <frame tileid="723" duration="150"/>
    <frame tileid="731" duration="150"/>
    <frame tileid="739" duration="150"/>
    <frame tileid="747" duration="150"/>
    <frame tileid="755" duration="150"/>
   </animation>
  </tile>
  <tile id="724">
   <animation>
    <frame tileid="724" duration="150"/>
    <frame tileid="732" duration="150"/>
    <frame tileid="740" duration="150"/>
    <frame tileid="748" duration="150"/>
    <frame tileid="756" duration="150"/>
   </animation>
  </tile>
  <tile id="762">
   <animation>
    <frame tileid="762" duration="150"/>
    <frame tileid="770" duration="150"/>
    <frame tileid="778" duration="150"/>
    <frame tileid="786" duration="150"/>
    <frame tileid="794" duration="150"/>
   </animation>
  </tile>
  <tile id="763">
   <animation>
    <frame tileid="763" duration="150"/>
    <frame tileid="771" duration="150"/>
    <frame tileid="779" duration="150"/>
    <frame tileid="787" duration="150"/>
    <frame tileid="795" duration="150"/>
   </animation>
  </tile>
  <tile id="764">
   <animation>
    <frame tileid="764" duration="150"/>
    <frame tileid="772" duration="150"/>
    <frame tileid="780" duration="150"/>
    <frame tileid="788" duration="150"/>
    <frame tileid="796" duration="150"/>
   </animation>
  </tile>
  <tile id="765">
   <animation>
    <frame tileid="765" duration="150"/>
    <frame tileid="773" duration="150"/>
    <frame tileid="781" duration="150"/>
    <frame tileid="789" duration="150"/>
    <frame tileid="797" duration="150"/>
   </animation>
  </tile>
  <tile id="766">
   <animation>
    <frame tileid="766" duration="150"/>
    <frame tileid="774" duration="150"/>
    <frame tileid="782" duration="150"/>
    <frame tileid="790" duration="150"/>
    <frame tileid="798" duration="150"/>
   </animation>
  </tile>
  <tile id="802">
   <animation>
    <frame tileid="802" duration="150"/>
    <frame tileid="810" duration="150"/>
    <frame tileid="818" duration="150"/>
    <frame tileid="826" duration="150"/>
    <frame tileid="834" duration="150"/>
   </animation>
  </tile>
  <tile id="803">
   <animation>
    <frame tileid="803" duration="150"/>
    <frame tileid="811" duration="150"/>
    <frame tileid="819" duration="150"/>
    <frame tileid="827" duration="150"/>
    <frame tileid="835" duration="150"/>
   </animation>
  </tile>
  <tile id="804">
   <animation>
    <frame tileid="804" duration="150"/>
    <frame tileid="812" duration="150"/>
    <frame tileid="820" duration="150"/>
    <frame tileid="828" duration="150"/>
    <frame tileid="836" duration="150"/>
   </animation>
  </tile>
  <tile id="805">
   <animation>
    <frame tileid="805" duration="150"/>
    <frame tileid="813" duration="150"/>
    <frame tileid="821" duration="150"/>
    <frame tileid="829" duration="150"/>
    <frame tileid="837" duration="150"/>
   </animation>
  </tile>
  <tile id="806">
   <animation>
    <frame tileid="806" duration="150"/>
    <frame tileid="814" duration="150"/>
    <frame tileid="822" duration="150"/>
    <frame tileid="830" duration="150"/>
    <frame tileid="838" duration="150"/>
   </animation>
  </tile>
  <tile id="1043">
   <animation>
    <frame tileid="1043" duration="150"/>
    <frame tileid="1051" duration="150"/>
    <frame tileid="1059" duration="150"/>
    <frame tileid="1067" duration="150"/>
    <frame tileid="1075" duration="150"/>
   </animation>
  </tile>
  <tile id="1044">
   <animation>
    <frame tileid="1044" duration="150"/>
    <frame tileid="1052" duration="150"/>
    <frame tileid="1060" duration="150"/>
    <frame tileid="1068" duration="150"/>
    <frame tileid="1076" duration="150"/>
   </animation>
  </tile>
  <tile id="1045">
   <animation>
    <frame tileid="1045" duration="150"/>
    <frame tileid="1053" duration="150"/>
    <frame tileid="1061" duration="150"/>
    <frame tileid="1069" duration="150"/>
    <frame tileid="1077" duration="150"/>
   </animation>
  </tile>
  <tile id="1081">
   <animation>
    <frame tileid="1081" duration="150"/>
    <frame tileid="1089" duration="150"/>
    <frame tileid="1097" duration="150"/>
    <frame tileid="1105" duration="150"/>
    <frame tileid="1113" duration="150"/>
   </animation>
  </tile>
  <tile id="1082">
   <animation>
    <frame tileid="1082" duration="150"/>
    <frame tileid="1090" duration="150"/>
    <frame tileid="1098" duration="150"/>
    <frame tileid="1106" duration="150"/>
    <frame tileid="1114" duration="150"/>
   </animation>
  </tile>
  <tile id="1083">
   <animation>
    <frame tileid="1083" duration="150"/>
    <frame tileid="1091" duration="150"/>
    <frame tileid="1099" duration="150"/>
    <frame tileid="1107" duration="150"/>
    <frame tileid="1115" duration="150"/>
   </animation>
  </tile>
  <tile id="1084">
   <animation>
    <frame tileid="1084" duration="150"/>
    <frame tileid="1092" duration="150"/>
    <frame tileid="1100" duration="150"/>
    <frame tileid="1108" duration="150"/>
    <frame tileid="1116" duration="150"/>
   </animation>
  </tile>
  <tile id="1085">
   <animation>
    <frame tileid="1085" duration="150"/>
    <frame tileid="1093" duration="150"/>
    <frame tileid="1101" duration="150"/>
    <frame tileid="1109" duration="150"/>
    <frame tileid="1117" duration="150"/>
   </animation>
  </tile>
  <tile id="1121">
   <animation>
    <frame tileid="1121" duration="150"/>
    <frame tileid="1129" duration="150"/>
    <frame tileid="1137" duration="150"/>
    <frame tileid="1145" duration="150"/>
    <frame tileid="1153" duration="150"/>
   </animation>
  </tile>
  <tile id="1122">
   <animation>
    <frame tileid="1122" duration="150"/>
    <frame tileid="1130" duration="150"/>
    <frame tileid="1138" duration="150"/>
    <frame tileid="1146" duration="150"/>
    <frame tileid="1154" duration="150"/>
   </animation>
  </tile>
  <tile id="1123">
   <animation>
    <frame tileid="1123" duration="150"/>
    <frame tileid="1131" duration="150"/>
    <frame tileid="1139" duration="150"/>
    <frame tileid="1147" duration="150"/>
    <frame tileid="1155" duration="150"/>
   </animation>
  </tile>
  <tile id="1124">
   <animation>
    <frame tileid="1124" duration="150"/>
    <frame tileid="1132" duration="150"/>
    <frame tileid="1140" duration="150"/>
    <frame tileid="1148" duration="150"/>
    <frame tileid="1156" duration="150"/>
   </animation>
  </tile>
  <tile id="1125">
   <animation>
    <frame tileid="1125" duration="150"/>
    <frame tileid="1133" duration="150"/>
    <frame tileid="1141" duration="150"/>
    <frame tileid="1149" duration="150"/>
    <frame tileid="1157" duration="150"/>
   </animation>
  </tile>
 </tileset>
 <tileset firstgid="3329" name="Rat2_Hurt_full" tilewidth="16" tileheight="16" tilecount="1024" columns="32">
  <image source="Rat2_Hurt_with_shadow.png" width="512" height="512"/>
  <tile id="67">
   <animation>
    <frame tileid="67" duration="150"/>
    <frame tileid="75" duration="150"/>
    <frame tileid="83" duration="150"/>
    <frame tileid="91" duration="150"/>
   </animation>
  </tile>
  <tile id="68">
   <animation>
    <frame tileid="68" duration="150"/>
    <frame tileid="76" duration="150"/>
    <frame tileid="84" duration="150"/>
    <frame tileid="92" duration="150"/>
   </animation>
  </tile>
  <tile id="98">
   <animation>
    <frame tileid="98" duration="150"/>
    <frame tileid="106" duration="150"/>
    <frame tileid="114" duration="150"/>
    <frame tileid="122" duration="150"/>
   </animation>
  </tile>
  <tile id="99">
   <animation>
    <frame tileid="99" duration="150"/>
    <frame tileid="107" duration="150"/>
    <frame tileid="115" duration="150"/>
    <frame tileid="123" duration="150"/>
   </animation>
  </tile>
  <tile id="100">
   <animation>
    <frame tileid="100" duration="150"/>
    <frame tileid="108" duration="150"/>
    <frame tileid="116" duration="150"/>
    <frame tileid="124" duration="150"/>
   </animation>
  </tile>
  <tile id="101">
   <animation>
    <frame tileid="101" duration="150"/>
    <frame tileid="109" duration="150"/>
    <frame tileid="117" duration="150"/>
    <frame tileid="125" duration="150"/>
   </animation>
  </tile>
  <tile id="131">
   <animation>
    <frame tileid="131" duration="150"/>
    <frame tileid="139" duration="150"/>
    <frame tileid="147" duration="150"/>
    <frame tileid="155" duration="150"/>
   </animation>
  </tile>
  <tile id="132">
   <animation>
    <frame tileid="132" duration="150"/>
    <frame tileid="140" duration="150"/>
    <frame tileid="148" duration="150"/>
    <frame tileid="156" duration="150"/>
   </animation>
  </tile>
  <tile id="323">
   <animation>
    <frame tileid="323" duration="150"/>
    <frame tileid="331" duration="150"/>
    <frame tileid="339" duration="150"/>
    <frame tileid="347" duration="150"/>
   </animation>
  </tile>
  <tile id="324">
   <animation>
    <frame tileid="324" duration="150"/>
    <frame tileid="332" duration="150"/>
    <frame tileid="340" duration="150"/>
    <frame tileid="348" duration="150"/>
   </animation>
  </tile>
  <tile id="354">
   <animation>
    <frame tileid="354" duration="150"/>
    <frame tileid="362" duration="150"/>
    <frame tileid="370" duration="150"/>
    <frame tileid="378" duration="150"/>
   </animation>
  </tile>
  <tile id="355">
   <animation>
    <frame tileid="355" duration="150"/>
    <frame tileid="363" duration="150"/>
    <frame tileid="371" duration="150"/>
    <frame tileid="379" duration="150"/>
   </animation>
  </tile>
  <tile id="356">
   <animation>
    <frame tileid="356" duration="150"/>
    <frame tileid="364" duration="150"/>
    <frame tileid="372" duration="150"/>
    <frame tileid="380" duration="150"/>
   </animation>
  </tile>
  <tile id="357">
   <animation>
    <frame tileid="357" duration="150"/>
    <frame tileid="365" duration="150"/>
    <frame tileid="373" duration="150"/>
    <frame tileid="381" duration="150"/>
   </animation>
  </tile>
  <tile id="387">
   <animation>
    <frame tileid="387" duration="150"/>
    <frame tileid="395" duration="150"/>
    <frame tileid="403" duration="150"/>
    <frame tileid="411" duration="150"/>
   </animation>
  </tile>
  <tile id="388">
   <animation>
    <frame tileid="388" duration="150"/>
    <frame tileid="396" duration="150"/>
    <frame tileid="404" duration="150"/>
    <frame tileid="412" duration="150"/>
   </animation>
  </tile>
  <tile id="578">
   <animation>
    <frame tileid="578" duration="150"/>
    <frame tileid="586" duration="150"/>
    <frame tileid="594" duration="150"/>
    <frame tileid="602" duration="150"/>
   </animation>
  </tile>
  <tile id="579">
   <animation>
    <frame tileid="579" duration="150"/>
    <frame tileid="587" duration="150"/>
    <frame tileid="595" duration="150"/>
    <frame tileid="603" duration="150"/>
   </animation>
  </tile>
  <tile id="580">
   <animation>
    <frame tileid="580" duration="150"/>
    <frame tileid="588" duration="150"/>
    <frame tileid="596" duration="150"/>
    <frame tileid="604" duration="150"/>
   </animation>
  </tile>
  <tile id="610">
   <animation>
    <frame tileid="610" duration="150"/>
    <frame tileid="618" duration="150"/>
    <frame tileid="626" duration="150"/>
    <frame tileid="634" duration="150"/>
   </animation>
  </tile>
  <tile id="611">
   <animation>
    <frame tileid="611" duration="150"/>
    <frame tileid="619" duration="150"/>
    <frame tileid="627" duration="150"/>
    <frame tileid="635" duration="150"/>
   </animation>
  </tile>
  <tile id="612">
   <animation>
    <frame tileid="612" duration="150"/>
    <frame tileid="620" duration="150"/>
    <frame tileid="628" duration="150"/>
    <frame tileid="636" duration="150"/>
   </animation>
  </tile>
  <tile id="613">
   <animation>
    <frame tileid="613" duration="150"/>
    <frame tileid="621" duration="150"/>
    <frame tileid="629" duration="150"/>
    <frame tileid="637" duration="150"/>
   </animation>
  </tile>
  <tile id="642">
   <animation>
    <frame tileid="642" duration="150"/>
    <frame tileid="650" duration="150"/>
    <frame tileid="658" duration="150"/>
    <frame tileid="666" duration="150"/>
   </animation>
  </tile>
  <tile id="643">
   <animation>
    <frame tileid="643" duration="150"/>
    <frame tileid="651" duration="150"/>
    <frame tileid="659" duration="150"/>
    <frame tileid="667" duration="150"/>
   </animation>
  </tile>
  <tile id="644">
   <animation>
    <frame tileid="644" duration="150"/>
    <frame tileid="652" duration="150"/>
    <frame tileid="660" duration="150"/>
    <frame tileid="668" duration="150"/>
   </animation>
  </tile>
  <tile id="645">
   <animation>
    <frame tileid="645" duration="150"/>
    <frame tileid="653" duration="150"/>
    <frame tileid="661" duration="150"/>
    <frame tileid="669" duration="150"/>
   </animation>
  </tile>
  <tile id="646">
   <animation>
    <frame tileid="646" duration="150"/>
    <frame tileid="654" duration="150"/>
    <frame tileid="662" duration="150"/>
    <frame tileid="670" duration="150"/>
   </animation>
  </tile>
  <tile id="835">
   <animation>
    <frame tileid="835" duration="150"/>
    <frame tileid="843" duration="150"/>
    <frame tileid="851" duration="150"/>
    <frame tileid="859" duration="150"/>
   </animation>
  </tile>
  <tile id="836">
   <animation>
    <frame tileid="836" duration="150"/>
    <frame tileid="844" duration="150"/>
    <frame tileid="852" duration="150"/>
    <frame tileid="860" duration="150"/>
   </animation>
  </tile>
  <tile id="837">
   <animation>
    <frame tileid="837" duration="150"/>
    <frame tileid="845" duration="150"/>
    <frame tileid="853" duration="150"/>
    <frame tileid="861" duration="150"/>
   </animation>
  </tile>
  <tile id="866">
   <animation>
    <frame tileid="866" duration="150"/>
    <frame tileid="874" duration="150"/>
    <frame tileid="882" duration="150"/>
    <frame tileid="890" duration="150"/>
   </animation>
  </tile>
  <tile id="867">
   <animation>
    <frame tileid="867" duration="150"/>
    <frame tileid="875" duration="150"/>
    <frame tileid="883" duration="150"/>
    <frame tileid="891" duration="150"/>
   </animation>
  </tile>
  <tile id="868">
   <animation>
    <frame tileid="868" duration="150"/>
    <frame tileid="876" duration="150"/>
    <frame tileid="884" duration="150"/>
    <frame tileid="892" duration="150"/>
   </animation>
  </tile>
  <tile id="869">
   <animation>
    <frame tileid="869" duration="150"/>
    <frame tileid="877" duration="150"/>
    <frame tileid="885" duration="150"/>
    <frame tileid="893" duration="150"/>
   </animation>
  </tile>
  <tile id="897">
   <animation>
    <frame tileid="897" duration="150"/>
    <frame tileid="905" duration="150"/>
    <frame tileid="913" duration="150"/>
    <frame tileid="921" duration="150"/>
   </animation>
  </tile>
  <tile id="898">
   <animation>
    <frame tileid="898" duration="150"/>
    <frame tileid="906" duration="150"/>
    <frame tileid="914" duration="150"/>
    <frame tileid="922" duration="150"/>
   </animation>
  </tile>
  <tile id="899">
   <animation>
    <frame tileid="899" duration="150"/>
    <frame tileid="907" duration="150"/>
    <frame tileid="915" duration="150"/>
    <frame tileid="923" duration="150"/>
   </animation>
  </tile>
  <tile id="900">
   <animation>
    <frame tileid="900" duration="150"/>
    <frame tileid="908" duration="150"/>
    <frame tileid="916" duration="150"/>
    <frame tileid="924" duration="150"/>
   </animation>
  </tile>
  <tile id="901">
   <animation>
    <frame tileid="901" duration="150"/>
    <frame tileid="909" duration="150"/>
    <frame tileid="917" duration="150"/>
    <frame tileid="925" duration="150"/>
   </animation>
  </tile>
 </tileset>
 <tileset firstgid="4353" name="Rat2_Idle_full" tilewidth="16" tileheight="16" tilecount="1536" columns="48">
  <image source="Rat2_Idle_with_shadow.png" width="768" height="512"/>
  <tile id="99">
   <animation>
    <frame tileid="99" duration="150"/>
    <frame tileid="107" duration="150"/>
    <frame tileid="115" duration="150"/>
    <frame tileid="123" duration="150"/>
    <frame tileid="131" duration="150"/>
    <frame tileid="139" duration="150"/>
   </animation>
  </tile>
  <tile id="100">
   <animation>
    <frame tileid="100" duration="150"/>
    <frame tileid="108" duration="150"/>
    <frame tileid="116" duration="150"/>
    <frame tileid="124" duration="150"/>
    <frame tileid="132" duration="150"/>
    <frame tileid="140" duration="150"/>
   </animation>
  </tile>
  <tile id="146">
   <animation>
    <frame tileid="146" duration="150"/>
    <frame tileid="154" duration="150"/>
    <frame tileid="162" duration="150"/>
    <frame tileid="170" duration="150"/>
    <frame tileid="178" duration="150"/>
    <frame tileid="186" duration="150"/>
   </animation>
  </tile>
  <tile id="147">
   <animation>
    <frame tileid="147" duration="150"/>
    <frame tileid="155" duration="150"/>
    <frame tileid="163" duration="150"/>
    <frame tileid="171" duration="150"/>
    <frame tileid="179" duration="150"/>
    <frame tileid="187" duration="150"/>
   </animation>
  </tile>
  <tile id="148">
   <animation>
    <frame tileid="148" duration="150"/>
    <frame tileid="156" duration="150"/>
    <frame tileid="164" duration="150"/>
    <frame tileid="172" duration="150"/>
    <frame tileid="180" duration="150"/>
    <frame tileid="188" duration="150"/>
   </animation>
  </tile>
  <tile id="149">
   <animation>
    <frame tileid="149" duration="150"/>
    <frame tileid="157" duration="150"/>
    <frame tileid="165" duration="150"/>
    <frame tileid="173" duration="150"/>
    <frame tileid="181" duration="150"/>
    <frame tileid="189" duration="150"/>
   </animation>
  </tile>
  <tile id="195">
   <animation>
    <frame tileid="195" duration="150"/>
    <frame tileid="203" duration="150"/>
    <frame tileid="211" duration="150"/>
    <frame tileid="219" duration="150"/>
    <frame tileid="227" duration="150"/>
    <frame tileid="235" duration="150"/>
   </animation>
  </tile>
  <tile id="196">
   <animation>
    <frame tileid="196" duration="150"/>
    <frame tileid="204" duration="150"/>
    <frame tileid="212" duration="150"/>
    <frame tileid="220" duration="150"/>
    <frame tileid="228" duration="150"/>
    <frame tileid="236" duration="150"/>
   </animation>
  </tile>
  <tile id="483">
   <animation>
    <frame tileid="483" duration="150"/>
    <frame tileid="491" duration="150"/>
    <frame tileid="499" duration="150"/>
    <frame tileid="507" duration="150"/>
    <frame tileid="515" duration="150"/>
    <frame tileid="523" duration="150"/>
   </animation>
  </tile>
  <tile id="484">
   <animation>
    <frame tileid="484" duration="150"/>
    <frame tileid="492" duration="150"/>
    <frame tileid="500" duration="150"/>
    <frame tileid="508" duration="150"/>
    <frame tileid="516" duration="150"/>
    <frame tileid="524" duration="150"/>
   </animation>
  </tile>
  <tile id="530">
   <animation>
    <frame tileid="530" duration="150"/>
    <frame tileid="538" duration="150"/>
    <frame tileid="546" duration="150"/>
    <frame tileid="554" duration="150"/>
    <frame tileid="562" duration="150"/>
    <frame tileid="570" duration="150"/>
   </animation>
  </tile>
  <tile id="531">
   <animation>
    <frame tileid="531" duration="150"/>
    <frame tileid="539" duration="150"/>
    <frame tileid="547" duration="150"/>
    <frame tileid="555" duration="150"/>
    <frame tileid="563" duration="150"/>
    <frame tileid="571" duration="150"/>
   </animation>
  </tile>
  <tile id="532">
   <animation>
    <frame tileid="532" duration="150"/>
    <frame tileid="540" duration="150"/>
    <frame tileid="548" duration="150"/>
    <frame tileid="556" duration="150"/>
    <frame tileid="564" duration="150"/>
    <frame tileid="572" duration="150"/>
   </animation>
  </tile>
  <tile id="533">
   <animation>
    <frame tileid="533" duration="150"/>
    <frame tileid="541" duration="150"/>
    <frame tileid="549" duration="150"/>
    <frame tileid="557" duration="150"/>
    <frame tileid="565" duration="150"/>
    <frame tileid="573" duration="150"/>
   </animation>
  </tile>
  <tile id="579">
   <animation>
    <frame tileid="579" duration="150"/>
    <frame tileid="587" duration="150"/>
    <frame tileid="595" duration="150"/>
    <frame tileid="603" duration="150"/>
    <frame tileid="611" duration="150"/>
    <frame tileid="619" duration="150"/>
   </animation>
  </tile>
  <tile id="580">
   <animation>
    <frame tileid="580" duration="150"/>
    <frame tileid="588" duration="150"/>
    <frame tileid="596" duration="150"/>
    <frame tileid="604" duration="150"/>
    <frame tileid="612" duration="150"/>
    <frame tileid="620" duration="150"/>
   </animation>
  </tile>
  <tile id="866">
   <animation>
    <frame tileid="866" duration="150"/>
    <frame tileid="874" duration="150"/>
    <frame tileid="882" duration="150"/>
    <frame tileid="890" duration="150"/>
    <frame tileid="898" duration="150"/>
    <frame tileid="906" duration="150"/>
   </animation>
  </tile>
  <tile id="867">
   <animation>
    <frame tileid="867" duration="150"/>
    <frame tileid="875" duration="150"/>
    <frame tileid="883" duration="150"/>
    <frame tileid="891" duration="150"/>
    <frame tileid="899" duration="150"/>
    <frame tileid="907" duration="150"/>
   </animation>
  </tile>
  <tile id="868">
   <animation>
    <frame tileid="868" duration="150"/>
    <frame tileid="876" duration="150"/>
    <frame tileid="884" duration="150"/>
    <frame tileid="892" duration="150"/>
    <frame tileid="900" duration="150"/>
    <frame tileid="908" duration="150"/>
   </animation>
  </tile>
  <tile id="869">
   <animation>
    <frame tileid="869" duration="150"/>
    <frame tileid="877" duration="150"/>
    <frame tileid="885" duration="150"/>
    <frame tileid="893" duration="150"/>
    <frame tileid="901" duration="150"/>
    <frame tileid="909" duration="150"/>
   </animation>
  </tile>
  <tile id="914">
   <animation>
    <frame tileid="914" duration="150"/>
    <frame tileid="922" duration="150"/>
    <frame tileid="930" duration="150"/>
    <frame tileid="938" duration="150"/>
    <frame tileid="946" duration="150"/>
    <frame tileid="954" duration="150"/>
   </animation>
  </tile>
  <tile id="915">
   <animation>
    <frame tileid="915" duration="150"/>
    <frame tileid="923" duration="150"/>
    <frame tileid="931" duration="150"/>
    <frame tileid="939" duration="150"/>
    <frame tileid="947" duration="150"/>
    <frame tileid="955" duration="150"/>
   </animation>
  </tile>
  <tile id="916">
   <animation>
    <frame tileid="916" duration="150"/>
    <frame tileid="924" duration="150"/>
    <frame tileid="932" duration="150"/>
    <frame tileid="940" duration="150"/>
    <frame tileid="948" duration="150"/>
    <frame tileid="956" duration="150"/>
   </animation>
  </tile>
  <tile id="917">
   <animation>
    <frame tileid="917" duration="150"/>
    <frame tileid="925" duration="150"/>
    <frame tileid="933" duration="150"/>
    <frame tileid="941" duration="150"/>
    <frame tileid="949" duration="150"/>
    <frame tileid="957" duration="150"/>
   </animation>
  </tile>
  <tile id="962">
   <animation>
    <frame tileid="962" duration="150"/>
    <frame tileid="970" duration="150"/>
    <frame tileid="978" duration="150"/>
    <frame tileid="986" duration="150"/>
    <frame tileid="994" duration="150"/>
    <frame tileid="1002" duration="150"/>
   </animation>
  </tile>
  <tile id="963">
   <animation>
    <frame tileid="963" duration="150"/>
    <frame tileid="971" duration="150"/>
    <frame tileid="979" duration="150"/>
    <frame tileid="987" duration="150"/>
    <frame tileid="995" duration="150"/>
    <frame tileid="1003" duration="150"/>
   </animation>
  </tile>
  <tile id="964">
   <animation>
    <frame tileid="964" duration="150"/>
    <frame tileid="972" duration="150"/>
    <frame tileid="980" duration="150"/>
    <frame tileid="988" duration="150"/>
    <frame tileid="996" duration="150"/>
    <frame tileid="1004" duration="150"/>
   </animation>
  </tile>
  <tile id="965">
   <animation>
    <frame tileid="965" duration="150"/>
    <frame tileid="973" duration="150"/>
    <frame tileid="981" duration="150"/>
    <frame tileid="989" duration="150"/>
    <frame tileid="997" duration="150"/>
    <frame tileid="1005" duration="150"/>
   </animation>
  </tile>
  <tile id="966">
   <animation>
    <frame tileid="966" duration="150"/>
    <frame tileid="974" duration="150"/>
    <frame tileid="982" duration="150"/>
    <frame tileid="990" duration="150"/>
    <frame tileid="998" duration="150"/>
    <frame tileid="1006" duration="150"/>
   </animation>
  </tile>
  <tile id="1250">
   <animation>
    <frame tileid="1250" duration="150"/>
    <frame tileid="1258" duration="150"/>
    <frame tileid="1266" duration="150"/>
    <frame tileid="1274" duration="150"/>
    <frame tileid="1282" duration="150"/>
    <frame tileid="1290" duration="150"/>
   </animation>
  </tile>
  <tile id="1251">
   <animation>
    <frame tileid="1251" duration="150"/>
    <frame tileid="1259" duration="150"/>
    <frame tileid="1267" duration="150"/>
    <frame tileid="1275" duration="150"/>
    <frame tileid="1283" duration="150"/>
    <frame tileid="1291" duration="150"/>
   </animation>
  </tile>
  <tile id="1252">
   <animation>
    <frame tileid="1252" duration="150"/>
    <frame tileid="1260" duration="150"/>
    <frame tileid="1268" duration="150"/>
    <frame tileid="1276" duration="150"/>
    <frame tileid="1284" duration="150"/>
    <frame tileid="1292" duration="150"/>
   </animation>
  </tile>
  <tile id="1253">
   <animation>
    <frame tileid="1253" duration="150"/>
    <frame tileid="1261" duration="150"/>
    <frame tileid="1269" duration="150"/>
    <frame tileid="1277" duration="150"/>
    <frame tileid="1285" duration="150"/>
    <frame tileid="1293" duration="150"/>
   </animation>
  </tile>
  <tile id="1298">
   <animation>
    <frame tileid="1298" duration="150"/>
    <frame tileid="1306" duration="150"/>
    <frame tileid="1314" duration="150"/>
    <frame tileid="1322" duration="150"/>
    <frame tileid="1330" duration="150"/>
    <frame tileid="1338" duration="150"/>
   </animation>
  </tile>
  <tile id="1299">
   <animation>
    <frame tileid="1299" duration="150"/>
    <frame tileid="1307" duration="150"/>
    <frame tileid="1315" duration="150"/>
    <frame tileid="1323" duration="150"/>
    <frame tileid="1331" duration="150"/>
    <frame tileid="1339" duration="150"/>
   </animation>
  </tile>
  <tile id="1300">
   <animation>
    <frame tileid="1300" duration="150"/>
    <frame tileid="1308" duration="150"/>
    <frame tileid="1316" duration="150"/>
    <frame tileid="1324" duration="150"/>
    <frame tileid="1332" duration="150"/>
    <frame tileid="1340" duration="150"/>
   </animation>
  </tile>
  <tile id="1301">
   <animation>
    <frame tileid="1301" duration="150"/>
    <frame tileid="1309" duration="150"/>
    <frame tileid="1317" duration="150"/>
    <frame tileid="1325" duration="150"/>
    <frame tileid="1333" duration="150"/>
    <frame tileid="1341" duration="150"/>
   </animation>
  </tile>
  <tile id="1345">
   <animation>
    <frame tileid="1345" duration="150"/>
    <frame tileid="1353" duration="150"/>
    <frame tileid="1361" duration="150"/>
    <frame tileid="1369" duration="150"/>
    <frame tileid="1377" duration="150"/>
    <frame tileid="1385" duration="150"/>
   </animation>
  </tile>
  <tile id="1346">
   <animation>
    <frame tileid="1346" duration="150"/>
    <frame tileid="1354" duration="150"/>
    <frame tileid="1362" duration="150"/>
    <frame tileid="1370" duration="150"/>
    <frame tileid="1378" duration="150"/>
    <frame tileid="1386" duration="150"/>
   </animation>
  </tile>
  <tile id="1347">
   <animation>
    <frame tileid="1347" duration="150"/>
    <frame tileid="1355" duration="150"/>
    <frame tileid="1363" duration="150"/>
    <frame tileid="1371" duration="150"/>
    <frame tileid="1379" duration="150"/>
    <frame tileid="1387" duration="150"/>
   </animation>
  </tile>
  <tile id="1348">
   <animation>
    <frame tileid="1348" duration="150"/>
    <frame tileid="1356" duration="150"/>
    <frame tileid="1364" duration="150"/>
    <frame tileid="1372" duration="150"/>
    <frame tileid="1380" duration="150"/>
    <frame tileid="1388" duration="150"/>
   </animation>
  </tile>
  <tile id="1349">
   <animation>
    <frame tileid="1349" duration="150"/>
    <frame tileid="1357" duration="150"/>
    <frame tileid="1365" duration="150"/>
    <frame tileid="1373" duration="150"/>
    <frame tileid="1381" duration="150"/>
    <frame tileid="1389" duration="150"/>
   </animation>
  </tile>
 </tileset>
 <tileset firstgid="5889" name="Rat2_Run_full" tilewidth="16" tileheight="16" tilecount="1536" columns="48">
  <image source="Rat2_Run_with_shadow.png" width="768" height="512"/>
  <tile id="98">
   <animation>
    <frame tileid="98" duration="150"/>
    <frame tileid="106" duration="150"/>
    <frame tileid="114" duration="150"/>
    <frame tileid="122" duration="150"/>
    <frame tileid="130" duration="150"/>
    <frame tileid="138" duration="150"/>
   </animation>
  </tile>
  <tile id="99">
   <animation>
    <frame tileid="99" duration="150"/>
    <frame tileid="107" duration="150"/>
    <frame tileid="115" duration="150"/>
    <frame tileid="123" duration="150"/>
    <frame tileid="131" duration="150"/>
    <frame tileid="139" duration="150"/>
   </animation>
  </tile>
  <tile id="100">
   <animation>
    <frame tileid="100" duration="150"/>
    <frame tileid="108" duration="150"/>
    <frame tileid="116" duration="150"/>
    <frame tileid="124" duration="150"/>
    <frame tileid="132" duration="150"/>
    <frame tileid="140" duration="150"/>
   </animation>
  </tile>
  <tile id="101">
   <animation>
    <frame tileid="101" duration="150"/>
    <frame tileid="109" duration="150"/>
    <frame tileid="117" duration="150"/>
    <frame tileid="125" duration="150"/>
    <frame tileid="133" duration="150"/>
    <frame tileid="141" duration="150"/>
   </animation>
  </tile>
  <tile id="146">
   <animation>
    <frame tileid="146" duration="150"/>
    <frame tileid="154" duration="150"/>
    <frame tileid="162" duration="150"/>
    <frame tileid="170" duration="150"/>
    <frame tileid="178" duration="150"/>
    <frame tileid="186" duration="150"/>
   </animation>
  </tile>
  <tile id="147">
   <animation>
    <frame tileid="147" duration="150"/>
    <frame tileid="155" duration="150"/>
    <frame tileid="163" duration="150"/>
    <frame tileid="171" duration="150"/>
    <frame tileid="179" duration="150"/>
    <frame tileid="187" duration="150"/>
   </animation>
  </tile>
  <tile id="148">
   <animation>
    <frame tileid="148" duration="150"/>
    <frame tileid="156" duration="150"/>
    <frame tileid="164" duration="150"/>
    <frame tileid="172" duration="150"/>
    <frame tileid="180" duration="150"/>
    <frame tileid="188" duration="150"/>
   </animation>
  </tile>
  <tile id="149">
   <animation>
    <frame tileid="149" duration="150"/>
    <frame tileid="157" duration="150"/>
    <frame tileid="165" duration="150"/>
    <frame tileid="173" duration="150"/>
    <frame tileid="181" duration="150"/>
    <frame tileid="189" duration="150"/>
   </animation>
  </tile>
  <tile id="195">
   <animation>
    <frame tileid="195" duration="150"/>
    <frame tileid="203" duration="150"/>
    <frame tileid="211" duration="150"/>
    <frame tileid="219" duration="150"/>
    <frame tileid="227" duration="150"/>
    <frame tileid="235" duration="150"/>
   </animation>
  </tile>
  <tile id="196">
   <animation>
    <frame tileid="196" duration="150"/>
    <frame tileid="204" duration="150"/>
    <frame tileid="212" duration="150"/>
    <frame tileid="220" duration="150"/>
    <frame tileid="228" duration="150"/>
    <frame tileid="236" duration="150"/>
   </animation>
  </tile>
  <tile id="482">
   <animation>
    <frame tileid="482" duration="150"/>
    <frame tileid="490" duration="150"/>
    <frame tileid="498" duration="150"/>
    <frame tileid="506" duration="150"/>
    <frame tileid="514" duration="150"/>
    <frame tileid="522" duration="150"/>
   </animation>
  </tile>
  <tile id="483">
   <animation>
    <frame tileid="483" duration="150"/>
    <frame tileid="491" duration="150"/>
    <frame tileid="499" duration="150"/>
    <frame tileid="507" duration="150"/>
    <frame tileid="515" duration="150"/>
    <frame tileid="523" duration="150"/>
   </animation>
  </tile>
  <tile id="484">
   <animation>
    <frame tileid="484" duration="150"/>
    <frame tileid="492" duration="150"/>
    <frame tileid="500" duration="150"/>
    <frame tileid="508" duration="150"/>
    <frame tileid="516" duration="150"/>
    <frame tileid="524" duration="150"/>
   </animation>
  </tile>
  <tile id="485">
   <animation>
    <frame tileid="485" duration="150"/>
    <frame tileid="493" duration="150"/>
    <frame tileid="501" duration="150"/>
    <frame tileid="509" duration="150"/>
    <frame tileid="517" duration="150"/>
    <frame tileid="525" duration="150"/>
   </animation>
  </tile>
  <tile id="530">
   <animation>
    <frame tileid="530" duration="150"/>
    <frame tileid="538" duration="150"/>
    <frame tileid="546" duration="150"/>
    <frame tileid="554" duration="150"/>
    <frame tileid="562" duration="150"/>
    <frame tileid="570" duration="150"/>
   </animation>
  </tile>
  <tile id="531">
   <animation>
    <frame tileid="531" duration="150"/>
    <frame tileid="539" duration="150"/>
    <frame tileid="547" duration="150"/>
    <frame tileid="555" duration="150"/>
    <frame tileid="563" duration="150"/>
    <frame tileid="571" duration="150"/>
   </animation>
  </tile>
  <tile id="532">
   <animation>
    <frame tileid="532" duration="150"/>
    <frame tileid="540" duration="150"/>
    <frame tileid="548" duration="150"/>
    <frame tileid="556" duration="150"/>
    <frame tileid="564" duration="150"/>
    <frame tileid="572" duration="150"/>
   </animation>
  </tile>
  <tile id="533">
   <animation>
    <frame tileid="533" duration="150"/>
    <frame tileid="541" duration="150"/>
    <frame tileid="549" duration="150"/>
    <frame tileid="557" duration="150"/>
    <frame tileid="565" duration="150"/>
    <frame tileid="573" duration="150"/>
   </animation>
  </tile>
  <tile id="579">
   <animation>
    <frame tileid="579" duration="150"/>
    <frame tileid="587" duration="150"/>
    <frame tileid="595" duration="150"/>
    <frame tileid="603" duration="150"/>
    <frame tileid="611" duration="150"/>
    <frame tileid="619" duration="150"/>
   </animation>
  </tile>
  <tile id="580">
   <animation>
    <frame tileid="580" duration="150"/>
    <frame tileid="588" duration="150"/>
    <frame tileid="596" duration="150"/>
    <frame tileid="604" duration="150"/>
    <frame tileid="612" duration="150"/>
    <frame tileid="620" duration="150"/>
   </animation>
  </tile>
  <tile id="866">
   <animation>
    <frame tileid="866" duration="150"/>
    <frame tileid="874" duration="150"/>
    <frame tileid="882" duration="150"/>
    <frame tileid="890" duration="150"/>
    <frame tileid="898" duration="150"/>
    <frame tileid="906" duration="150"/>
   </animation>
  </tile>
  <tile id="867">
   <animation>
    <frame tileid="867" duration="150"/>
    <frame tileid="875" duration="150"/>
    <frame tileid="883" duration="150"/>
    <frame tileid="891" duration="150"/>
    <frame tileid="899" duration="150"/>
    <frame tileid="907" duration="150"/>
   </animation>
  </tile>
  <tile id="868">
   <animation>
    <frame tileid="868" duration="150"/>
    <frame tileid="876" duration="150"/>
    <frame tileid="884" duration="150"/>
    <frame tileid="892" duration="150"/>
    <frame tileid="900" duration="150"/>
    <frame tileid="908" duration="150"/>
   </animation>
  </tile>
  <tile id="869">
   <animation>
    <frame tileid="869" duration="150"/>
    <frame tileid="877" duration="150"/>
    <frame tileid="885" duration="150"/>
    <frame tileid="893" duration="150"/>
    <frame tileid="901" duration="150"/>
    <frame tileid="909" duration="150"/>
   </animation>
  </tile>
  <tile id="914">
   <animation>
    <frame tileid="914" duration="150"/>
    <frame tileid="922" duration="150"/>
    <frame tileid="930" duration="150"/>
    <frame tileid="938" duration="150"/>
    <frame tileid="946" duration="150"/>
    <frame tileid="954" duration="150"/>
   </animation>
  </tile>
  <tile id="915">
   <animation>
    <frame tileid="915" duration="150"/>
    <frame tileid="923" duration="150"/>
    <frame tileid="931" duration="150"/>
    <frame tileid="939" duration="150"/>
    <frame tileid="947" duration="150"/>
    <frame tileid="955" duration="150"/>
   </animation>
  </tile>
  <tile id="916">
   <animation>
    <frame tileid="916" duration="150"/>
    <frame tileid="924" duration="150"/>
    <frame tileid="932" duration="150"/>
    <frame tileid="940" duration="150"/>
    <frame tileid="948" duration="150"/>
    <frame tileid="956" duration="150"/>
   </animation>
  </tile>
  <tile id="917">
   <animation>
    <frame tileid="917" duration="150"/>
    <frame tileid="925" duration="150"/>
    <frame tileid="933" duration="150"/>
    <frame tileid="941" duration="150"/>
    <frame tileid="949" duration="150"/>
    <frame tileid="957" duration="150"/>
   </animation>
  </tile>
  <tile id="918">
   <animation>
    <frame tileid="918" duration="150"/>
    <frame tileid="926" duration="150"/>
    <frame tileid="934" duration="150"/>
    <frame tileid="942" duration="150"/>
    <frame tileid="950" duration="150"/>
    <frame tileid="958" duration="150"/>
   </animation>
  </tile>
  <tile id="962">
   <animation>
    <frame tileid="962" duration="150"/>
    <frame tileid="970" duration="150"/>
    <frame tileid="978" duration="150"/>
    <frame tileid="986" duration="150"/>
    <frame tileid="994" duration="150"/>
    <frame tileid="1002" duration="150"/>
   </animation>
  </tile>
  <tile id="963">
   <animation>
    <frame tileid="963" duration="150"/>
    <frame tileid="971" duration="150"/>
    <frame tileid="979" duration="150"/>
    <frame tileid="987" duration="150"/>
    <frame tileid="995" duration="150"/>
    <frame tileid="1003" duration="150"/>
   </animation>
  </tile>
  <tile id="964">
   <animation>
    <frame tileid="964" duration="150"/>
    <frame tileid="972" duration="150"/>
    <frame tileid="980" duration="150"/>
    <frame tileid="988" duration="150"/>
    <frame tileid="996" duration="150"/>
    <frame tileid="1004" duration="150"/>
   </animation>
  </tile>
  <tile id="965">
   <animation>
    <frame tileid="965" duration="150"/>
    <frame tileid="973" duration="150"/>
    <frame tileid="981" duration="150"/>
    <frame tileid="989" duration="150"/>
    <frame tileid="997" duration="150"/>
    <frame tileid="1005" duration="150"/>
   </animation>
  </tile>
  <tile id="966">
   <animation>
    <frame tileid="966" duration="150"/>
    <frame tileid="974" duration="150"/>
    <frame tileid="982" duration="150"/>
    <frame tileid="990" duration="150"/>
    <frame tileid="998" duration="150"/>
    <frame tileid="1006" duration="150"/>
   </animation>
  </tile>
  <tile id="1250">
   <animation>
    <frame tileid="1250" duration="150"/>
    <frame tileid="1258" duration="150"/>
    <frame tileid="1266" duration="150"/>
    <frame tileid="1273" duration="150"/>
    <frame tileid="1282" duration="150"/>
    <frame tileid="1290" duration="150"/>
   </animation>
  </tile>
  <tile id="1251">
   <animation>
    <frame tileid="1251" duration="150"/>
    <frame tileid="1259" duration="150"/>
    <frame tileid="1267" duration="150"/>
    <frame tileid="1275" duration="150"/>
    <frame tileid="1283" duration="150"/>
    <frame tileid="1291" duration="150"/>
   </animation>
  </tile>
  <tile id="1252">
   <animation>
    <frame tileid="1252" duration="150"/>
    <frame tileid="1260" duration="150"/>
    <frame tileid="1268" duration="150"/>
    <frame tileid="1276" duration="150"/>
    <frame tileid="1284" duration="150"/>
    <frame tileid="1292" duration="150"/>
   </animation>
  </tile>
  <tile id="1253">
   <animation>
    <frame tileid="1253" duration="150"/>
    <frame tileid="1261" duration="150"/>
    <frame tileid="1269" duration="150"/>
    <frame tileid="1277" duration="150"/>
    <frame tileid="1285" duration="150"/>
    <frame tileid="1293" duration="150"/>
   </animation>
  </tile>
  <tile id="1297">
   <animation>
    <frame tileid="1297" duration="150"/>
    <frame tileid="1305" duration="150"/>
    <frame tileid="1313" duration="150"/>
    <frame tileid="1321" duration="150"/>
    <frame tileid="1329" duration="150"/>
    <frame tileid="1337" duration="150"/>
   </animation>
  </tile>
  <tile id="1298">
   <animation>
    <frame tileid="1298" duration="150"/>
    <frame tileid="1306" duration="150"/>
    <frame tileid="1314" duration="150"/>
    <frame tileid="1322" duration="150"/>
    <frame tileid="1330" duration="150"/>
    <frame tileid="1338" duration="150"/>
   </animation>
  </tile>
  <tile id="1299">
   <animation>
    <frame tileid="1299" duration="150"/>
    <frame tileid="1307" duration="150"/>
    <frame tileid="1315" duration="150"/>
    <frame tileid="1323" duration="150"/>
    <frame tileid="1331" duration="150"/>
    <frame tileid="1339" duration="150"/>
   </animation>
  </tile>
  <tile id="1300">
   <animation>
    <frame tileid="1300" duration="150"/>
    <frame tileid="1308" duration="150"/>
    <frame tileid="1316" duration="150"/>
    <frame tileid="1324" duration="150"/>
    <frame tileid="1332" duration="150"/>
    <frame tileid="1340" duration="150"/>
   </animation>
  </tile>
  <tile id="1301">
   <animation>
    <frame tileid="1301" duration="150"/>
    <frame tileid="1309" duration="150"/>
    <frame tileid="1317" duration="150"/>
    <frame tileid="1325" duration="150"/>
    <frame tileid="1333" duration="150"/>
    <frame tileid="1341" duration="150"/>
   </animation>
  </tile>
  <tile id="1345">
   <animation>
    <frame tileid="1345" duration="150"/>
    <frame tileid="1353" duration="150"/>
    <frame tileid="1361" duration="150"/>
    <frame tileid="1369" duration="150"/>
    <frame tileid="1377" duration="150"/>
    <frame tileid="1385" duration="150"/>
   </animation>
  </tile>
  <tile id="1346">
   <animation>
    <frame tileid="1346" duration="150"/>
    <frame tileid="1354" duration="150"/>
    <frame tileid="1362" duration="150"/>
    <frame tileid="1370" duration="150"/>
    <frame tileid="1378" duration="150"/>
    <frame tileid="1386" duration="150"/>
   </animation>
  </tile>
  <tile id="1347">
   <animation>
    <frame tileid="1347" duration="150"/>
    <frame tileid="1355" duration="150"/>
    <frame tileid="1363" duration="150"/>
    <frame tileid="1371" duration="150"/>
    <frame tileid="1379" duration="150"/>
    <frame tileid="1387" duration="150"/>
   </animation>
  </tile>
  <tile id="1348">
   <animation>
    <frame tileid="1348" duration="150"/>
    <frame tileid="1356" duration="150"/>
    <frame tileid="1364" duration="150"/>
    <frame tileid="1372" duration="150"/>
    <frame tileid="1380" duration="150"/>
    <frame tileid="1388" duration="150"/>
   </animation>
  </tile>
  <tile id="1349">
   <animation>
    <frame tileid="1349" duration="150"/>
    <frame tileid="1357" duration="150"/>
    <frame tileid="1365" duration="150"/>
    <frame tileid="1373" duration="150"/>
    <frame tileid="1381" duration="150"/>
    <frame tileid="1389" duration="150"/>
   </animation>
  </tile>
 </tileset>
 <tileset firstgid="7425" name="Rat2_Walk_full" tilewidth="16" tileheight="16" tilecount="1536" columns="48">
  <image source="Rat2_Walk_with_shadow.png" width="768" height="512"/>
  <tile id="99">
   <animation>
    <frame tileid="99" duration="150"/>
    <frame tileid="107" duration="150"/>
    <frame tileid="115" duration="150"/>
    <frame tileid="123" duration="150"/>
    <frame tileid="131" duration="150"/>
    <frame tileid="139" duration="150"/>
   </animation>
  </tile>
  <tile id="100">
   <animation>
    <frame tileid="100" duration="150"/>
    <frame tileid="108" duration="150"/>
    <frame tileid="116" duration="150"/>
    <frame tileid="124" duration="150"/>
    <frame tileid="132" duration="150"/>
    <frame tileid="140" duration="150"/>
   </animation>
  </tile>
  <tile id="146">
   <animation>
    <frame tileid="146" duration="150"/>
    <frame tileid="154" duration="150"/>
    <frame tileid="162" duration="150"/>
    <frame tileid="170" duration="150"/>
    <frame tileid="178" duration="150"/>
    <frame tileid="186" duration="150"/>
   </animation>
  </tile>
  <tile id="147">
   <animation>
    <frame tileid="147" duration="150"/>
    <frame tileid="155" duration="150"/>
    <frame tileid="163" duration="150"/>
    <frame tileid="171" duration="150"/>
    <frame tileid="179" duration="150"/>
    <frame tileid="187" duration="150"/>
   </animation>
  </tile>
  <tile id="148">
   <animation>
    <frame tileid="148" duration="150"/>
    <frame tileid="156" duration="150"/>
    <frame tileid="164" duration="150"/>
    <frame tileid="172" duration="150"/>
    <frame tileid="180" duration="150"/>
    <frame tileid="188" duration="150"/>
   </animation>
  </tile>
  <tile id="149">
   <animation>
    <frame tileid="149" duration="150"/>
    <frame tileid="157" duration="150"/>
    <frame tileid="165" duration="150"/>
    <frame tileid="173" duration="150"/>
    <frame tileid="181" duration="150"/>
    <frame tileid="189" duration="150"/>
   </animation>
  </tile>
  <tile id="195">
   <animation>
    <frame tileid="195" duration="150"/>
    <frame tileid="203" duration="150"/>
    <frame tileid="211" duration="150"/>
    <frame tileid="219" duration="150"/>
    <frame tileid="227" duration="150"/>
    <frame tileid="235" duration="150"/>
   </animation>
  </tile>
  <tile id="196">
   <animation>
    <frame tileid="196" duration="150"/>
    <frame tileid="204" duration="150"/>
    <frame tileid="212" duration="150"/>
    <frame tileid="220" duration="150"/>
    <frame tileid="228" duration="150"/>
    <frame tileid="236" duration="150"/>
   </animation>
  </tile>
  <tile id="483">
   <animation>
    <frame tileid="483" duration="150"/>
    <frame tileid="491" duration="150"/>
    <frame tileid="499" duration="150"/>
    <frame tileid="507" duration="150"/>
    <frame tileid="515" duration="150"/>
    <frame tileid="523" duration="150"/>
   </animation>
  </tile>
  <tile id="484">
   <animation>
    <frame tileid="484" duration="150"/>
    <frame tileid="492" duration="150"/>
    <frame tileid="500" duration="150"/>
    <frame tileid="508" duration="150"/>
    <frame tileid="516" duration="150"/>
    <frame tileid="524" duration="150"/>
   </animation>
  </tile>
  <tile id="530">
   <animation>
    <frame tileid="530" duration="150"/>
    <frame tileid="538" duration="150"/>
    <frame tileid="546" duration="150"/>
    <frame tileid="554" duration="150"/>
    <frame tileid="562" duration="150"/>
    <frame tileid="570" duration="150"/>
   </animation>
  </tile>
  <tile id="531">
   <animation>
    <frame tileid="531" duration="150"/>
    <frame tileid="539" duration="150"/>
    <frame tileid="547" duration="150"/>
    <frame tileid="555" duration="150"/>
    <frame tileid="563" duration="150"/>
    <frame tileid="571" duration="150"/>
   </animation>
  </tile>
  <tile id="532">
   <animation>
    <frame tileid="532" duration="150"/>
    <frame tileid="540" duration="150"/>
    <frame tileid="548" duration="150"/>
    <frame tileid="556" duration="150"/>
    <frame tileid="564" duration="150"/>
    <frame tileid="572" duration="150"/>
   </animation>
  </tile>
  <tile id="533">
   <animation>
    <frame tileid="533" duration="150"/>
    <frame tileid="541" duration="150"/>
    <frame tileid="549" duration="150"/>
    <frame tileid="557" duration="150"/>
    <frame tileid="565" duration="150"/>
    <frame tileid="573" duration="150"/>
   </animation>
  </tile>
  <tile id="578">
   <animation>
    <frame tileid="578" duration="150"/>
    <frame tileid="586" duration="150"/>
    <frame tileid="594" duration="150"/>
    <frame tileid="602" duration="150"/>
    <frame tileid="610" duration="150"/>
    <frame tileid="618" duration="150"/>
   </animation>
  </tile>
  <tile id="579">
   <animation>
    <frame tileid="579" duration="150"/>
    <frame tileid="587" duration="150"/>
    <frame tileid="595" duration="150"/>
    <frame tileid="603" duration="150"/>
    <frame tileid="611" duration="150"/>
    <frame tileid="619" duration="150"/>
   </animation>
  </tile>
  <tile id="580">
   <animation>
    <frame tileid="580" duration="150"/>
    <frame tileid="588" duration="150"/>
    <frame tileid="596" duration="150"/>
    <frame tileid="604" duration="150"/>
    <frame tileid="612" duration="150"/>
    <frame tileid="620" duration="150"/>
   </animation>
  </tile>
  <tile id="581">
   <animation>
    <frame tileid="581" duration="150"/>
    <frame tileid="589" duration="150"/>
    <frame tileid="597" duration="150"/>
    <frame tileid="605" duration="150"/>
    <frame tileid="613" duration="150"/>
    <frame tileid="621" duration="150"/>
   </animation>
  </tile>
  <tile id="627">
   <animation>
    <frame tileid="627" duration="150"/>
    <frame tileid="635" duration="150"/>
    <frame tileid="643" duration="150"/>
    <frame tileid="651" duration="150"/>
    <frame tileid="659" duration="150"/>
    <frame tileid="667" duration="150"/>
   </animation>
  </tile>
  <tile id="628">
   <animation>
    <frame tileid="628" duration="150"/>
    <frame tileid="636" duration="150"/>
    <frame tileid="644" duration="150"/>
    <frame tileid="652" duration="150"/>
    <frame tileid="660" duration="150"/>
    <frame tileid="668" duration="150"/>
   </animation>
  </tile>
  <tile id="867">
   <animation>
    <frame tileid="867" duration="150"/>
    <frame tileid="875" duration="150"/>
    <frame tileid="883" duration="150"/>
    <frame tileid="891" duration="150"/>
    <frame tileid="899" duration="150"/>
    <frame tileid="907" duration="150"/>
   </animation>
  </tile>
  <tile id="868">
   <animation>
    <frame tileid="868" duration="150"/>
    <frame tileid="876" duration="150"/>
    <frame tileid="884" duration="150"/>
    <frame tileid="892" duration="150"/>
    <frame tileid="900" duration="150"/>
    <frame tileid="908" duration="150"/>
   </animation>
  </tile>
  <tile id="914">
   <animation>
    <frame tileid="914" duration="150"/>
    <frame tileid="922" duration="150"/>
    <frame tileid="930" duration="150"/>
    <frame tileid="938" duration="150"/>
    <frame tileid="946" duration="150"/>
    <frame tileid="954" duration="150"/>
   </animation>
  </tile>
  <tile id="915">
   <animation>
    <frame tileid="915" duration="150"/>
    <frame tileid="923" duration="150"/>
    <frame tileid="931" duration="150"/>
    <frame tileid="939" duration="150"/>
    <frame tileid="947" duration="150"/>
    <frame tileid="955" duration="150"/>
   </animation>
  </tile>
  <tile id="916">
   <animation>
    <frame tileid="916" duration="150"/>
    <frame tileid="924" duration="150"/>
    <frame tileid="932" duration="150"/>
    <frame tileid="940" duration="150"/>
    <frame tileid="948" duration="150"/>
    <frame tileid="956" duration="150"/>
   </animation>
  </tile>
  <tile id="917">
   <animation>
    <frame tileid="917" duration="150"/>
    <frame tileid="925" duration="150"/>
    <frame tileid="933" duration="150"/>
    <frame tileid="941" duration="150"/>
    <frame tileid="949" duration="150"/>
    <frame tileid="957" duration="150"/>
   </animation>
  </tile>
  <tile id="962">
   <animation>
    <frame tileid="962" duration="150"/>
    <frame tileid="970" duration="150"/>
    <frame tileid="978" duration="150"/>
    <frame tileid="986" duration="150"/>
    <frame tileid="994" duration="150"/>
    <frame tileid="1002" duration="150"/>
   </animation>
  </tile>
  <tile id="963">
   <animation>
    <frame tileid="963" duration="150"/>
    <frame tileid="971" duration="150"/>
    <frame tileid="979" duration="150"/>
    <frame tileid="987" duration="150"/>
    <frame tileid="995" duration="150"/>
    <frame tileid="1003" duration="150"/>
   </animation>
  </tile>
  <tile id="964">
   <animation>
    <frame tileid="964" duration="150"/>
    <frame tileid="972" duration="150"/>
    <frame tileid="980" duration="150"/>
    <frame tileid="988" duration="150"/>
    <frame tileid="996" duration="150"/>
    <frame tileid="1004" duration="150"/>
   </animation>
  </tile>
  <tile id="965">
   <animation>
    <frame tileid="965" duration="150"/>
    <frame tileid="973" duration="150"/>
    <frame tileid="981" duration="150"/>
    <frame tileid="989" duration="150"/>
    <frame tileid="997" duration="150"/>
    <frame tileid="1005" duration="150"/>
   </animation>
  </tile>
  <tile id="966">
   <animation>
    <frame tileid="966" duration="150"/>
    <frame tileid="974" duration="150"/>
    <frame tileid="982" duration="150"/>
    <frame tileid="990" duration="150"/>
    <frame tileid="998" duration="150"/>
    <frame tileid="1006" duration="150"/>
   </animation>
  </tile>
  <tile id="1251">
   <animation>
    <frame tileid="1251" duration="150"/>
    <frame tileid="1259" duration="150"/>
    <frame tileid="1267" duration="150"/>
    <frame tileid="1275" duration="150"/>
    <frame tileid="1283" duration="150"/>
    <frame tileid="1291" duration="150"/>
   </animation>
  </tile>
  <tile id="1252">
   <animation>
    <frame tileid="1252" duration="150"/>
    <frame tileid="1260" duration="150"/>
    <frame tileid="1268" duration="150"/>
    <frame tileid="1276" duration="150"/>
    <frame tileid="1284" duration="150"/>
    <frame tileid="1292" duration="150"/>
   </animation>
  </tile>
  <tile id="1298">
   <animation>
    <frame tileid="1298" duration="150"/>
    <frame tileid="1306" duration="150"/>
    <frame tileid="1314" duration="150"/>
    <frame tileid="1322" duration="150"/>
    <frame tileid="1330" duration="150"/>
    <frame tileid="1338" duration="150"/>
   </animation>
  </tile>
  <tile id="1299">
   <animation>
    <frame tileid="1299" duration="150"/>
    <frame tileid="1307" duration="150"/>
    <frame tileid="1315" duration="150"/>
    <frame tileid="1323" duration="150"/>
    <frame tileid="1331" duration="150"/>
    <frame tileid="1339" duration="150"/>
   </animation>
  </tile>
  <tile id="1300">
   <animation>
    <frame tileid="1300" duration="150"/>
    <frame tileid="1308" duration="150"/>
    <frame tileid="1316" duration="150"/>
    <frame tileid="1324" duration="150"/>
    <frame tileid="1332" duration="150"/>
    <frame tileid="1340" duration="150"/>
   </animation>
  </tile>
  <tile id="1301">
   <animation>
    <frame tileid="1301" duration="150"/>
    <frame tileid="1309" duration="150"/>
    <frame tileid="1317" duration="150"/>
    <frame tileid="1325" duration="150"/>
    <frame tileid="1333" duration="150"/>
    <frame tileid="1341" duration="150"/>
   </animation>
  </tile>
  <tile id="1345">
   <animation>
    <frame tileid="1345" duration="150"/>
    <frame tileid="1353" duration="150"/>
    <frame tileid="1361" duration="150"/>
    <frame tileid="1369" duration="150"/>
    <frame tileid="1377" duration="150"/>
    <frame tileid="1385" duration="150"/>
   </animation>
  </tile>
  <tile id="1346">
   <animation>
    <frame tileid="1346" duration="150"/>
    <frame tileid="1354" duration="150"/>
    <frame tileid="1362" duration="150"/>
    <frame tileid="1370" duration="150"/>
    <frame tileid="1378" duration="150"/>
    <frame tileid="1386" duration="150"/>
   </animation>
  </tile>
  <tile id="1347">
   <animation>
    <frame tileid="1347" duration="150"/>
    <frame tileid="1355" duration="150"/>
    <frame tileid="1363" duration="150"/>
    <frame tileid="1371" duration="150"/>
    <frame tileid="1379" duration="150"/>
    <frame tileid="1387" duration="150"/>
   </animation>
  </tile>
  <tile id="1348">
   <animation>
    <frame tileid="1348" duration="150"/>
    <frame tileid="1356" duration="150"/>
    <frame tileid="1364" duration="150"/>
    <frame tileid="1372" duration="150"/>
    <frame tileid="1380" duration="150"/>
    <frame tileid="1388" duration="150"/>
   </animation>
  </tile>
  <tile id="1349">
   <animation>
    <frame tileid="1349" duration="150"/>
    <frame tileid="1357" duration="150"/>
    <frame tileid="1365" duration="150"/>
    <frame tileid="1373" duration="150"/>
    <frame tileid="1381" duration="150"/>
    <frame tileid="1389" duration="150"/>
   </animation>
  </tile>
 </tileset>
 <tileset firstgid="8961" name="Rat2_Attack_full" tilewidth="16" tileheight="16" tilecount="2048" columns="64">
  <image source="Rat2_Attack_body.png" width="1024" height="512"/>
  <tile id="67">
   <animation>
    <frame tileid="67" duration="150"/>
    <frame tileid="75" duration="150"/>
    <frame tileid="83" duration="150"/>
    <frame tileid="91" duration="150"/>
    <frame tileid="99" duration="150"/>
    <frame tileid="107" duration="150"/>
    <frame tileid="115" duration="150"/>
    <frame tileid="123" duration="150"/>
   </animation>
  </tile>
  <tile id="68">
   <animation>
    <frame tileid="68" duration="150"/>
    <frame tileid="76" duration="150"/>
    <frame tileid="84" duration="150"/>
    <frame tileid="92" duration="150"/>
    <frame tileid="100" duration="150"/>
    <frame tileid="108" duration="150"/>
    <frame tileid="116" duration="150"/>
    <frame tileid="124" duration="150"/>
   </animation>
  </tile>
  <tile id="131">
   <animation>
    <frame tileid="131" duration="150"/>
    <frame tileid="139" duration="150"/>
    <frame tileid="147" duration="150"/>
    <frame tileid="155" duration="150"/>
    <frame tileid="163" duration="150"/>
    <frame tileid="171" duration="150"/>
    <frame tileid="179" duration="150"/>
    <frame tileid="187" duration="150"/>
   </animation>
  </tile>
  <tile id="132">
   <animation>
    <frame tileid="132" duration="150"/>
    <frame tileid="140" duration="150"/>
    <frame tileid="148" duration="150"/>
    <frame tileid="156" duration="150"/>
    <frame tileid="164" duration="150"/>
    <frame tileid="172" duration="150"/>
    <frame tileid="180" duration="150"/>
    <frame tileid="188" duration="150"/>
   </animation>
  </tile>
  <tile id="194">
   <animation>
    <frame tileid="194" duration="150"/>
    <frame tileid="202" duration="150"/>
    <frame tileid="210" duration="150"/>
    <frame tileid="218" duration="150"/>
    <frame tileid="226" duration="150"/>
    <frame tileid="234" duration="150"/>
    <frame tileid="242" duration="150"/>
    <frame tileid="250" duration="150"/>
   </animation>
  </tile>
  <tile id="195">
   <animation>
    <frame tileid="195" duration="150"/>
    <frame tileid="203" duration="150"/>
    <frame tileid="211" duration="150"/>
    <frame tileid="219" duration="150"/>
    <frame tileid="227" duration="150"/>
    <frame tileid="235" duration="150"/>
    <frame tileid="243" duration="150"/>
    <frame tileid="251" duration="150"/>
   </animation>
  </tile>
  <tile id="196">
   <animation>
    <frame tileid="196" duration="150"/>
    <frame tileid="204" duration="150"/>
    <frame tileid="212" duration="150"/>
    <frame tileid="220" duration="150"/>
    <frame tileid="228" duration="150"/>
    <frame tileid="236" duration="150"/>
    <frame tileid="244" duration="150"/>
    <frame tileid="252" duration="150"/>
   </animation>
  </tile>
  <tile id="197">
   <animation>
    <frame tileid="197" duration="150"/>
    <frame tileid="205" duration="150"/>
    <frame tileid="213" duration="150"/>
    <frame tileid="221" duration="150"/>
    <frame tileid="229" duration="150"/>
    <frame tileid="237" duration="150"/>
    <frame tileid="245" duration="150"/>
    <frame tileid="253" duration="150"/>
   </animation>
  </tile>
  <tile id="258">
   <animation>
    <frame tileid="258" duration="150"/>
    <frame tileid="266" duration="150"/>
    <frame tileid="274" duration="150"/>
    <frame tileid="282" duration="150"/>
    <frame tileid="290" duration="150"/>
    <frame tileid="298" duration="150"/>
    <frame tileid="306" duration="150"/>
    <frame tileid="314" duration="150"/>
   </animation>
  </tile>
  <tile id="259">
   <animation>
    <frame tileid="259" duration="150"/>
    <frame tileid="267" duration="150"/>
    <frame tileid="275" duration="150"/>
    <frame tileid="283" duration="150"/>
    <frame tileid="291" duration="150"/>
    <frame tileid="299" duration="150"/>
    <frame tileid="307" duration="150"/>
    <frame tileid="315" duration="150"/>
   </animation>
  </tile>
  <tile id="260">
   <animation>
    <frame tileid="260" duration="150"/>
    <frame tileid="268" duration="150"/>
    <frame tileid="276" duration="150"/>
    <frame tileid="284" duration="150"/>
    <frame tileid="292" duration="150"/>
    <frame tileid="300" duration="150"/>
    <frame tileid="308" duration="150"/>
    <frame tileid="316" duration="150"/>
   </animation>
  </tile>
  <tile id="261">
   <animation>
    <frame tileid="261" duration="150"/>
    <frame tileid="269" duration="150"/>
    <frame tileid="277" duration="150"/>
    <frame tileid="285" duration="150"/>
    <frame tileid="293" duration="150"/>
    <frame tileid="301" duration="150"/>
    <frame tileid="309" duration="150"/>
    <frame tileid="317" duration="150"/>
   </animation>
  </tile>
  <tile id="322">
   <animation>
    <frame tileid="322" duration="150"/>
    <frame tileid="330" duration="150"/>
    <frame tileid="338" duration="150"/>
    <frame tileid="346" duration="150"/>
    <frame tileid="354" duration="150"/>
    <frame tileid="362" duration="150"/>
    <frame tileid="370" duration="150"/>
    <frame tileid="378" duration="150"/>
   </animation>
  </tile>
  <tile id="323">
   <animation>
    <frame tileid="323" duration="150"/>
    <frame tileid="331" duration="150"/>
    <frame tileid="339" duration="150"/>
    <frame tileid="347" duration="150"/>
    <frame tileid="355" duration="150"/>
    <frame tileid="363" duration="150"/>
    <frame tileid="371" duration="150"/>
    <frame tileid="379" duration="150"/>
   </animation>
  </tile>
  <tile id="324">
   <animation>
    <frame tileid="324" duration="150"/>
    <frame tileid="332" duration="150"/>
    <frame tileid="340" duration="150"/>
    <frame tileid="348" duration="150"/>
    <frame tileid="356" duration="150"/>
    <frame tileid="364" duration="150"/>
    <frame tileid="372" duration="150"/>
    <frame tileid="380" duration="150"/>
   </animation>
  </tile>
  <tile id="325">
   <animation>
    <frame tileid="325" duration="150"/>
    <frame tileid="333" duration="150"/>
    <frame tileid="341" duration="150"/>
    <frame tileid="349" duration="150"/>
    <frame tileid="357" duration="150"/>
    <frame tileid="365" duration="150"/>
    <frame tileid="373" duration="150"/>
    <frame tileid="381" duration="150"/>
   </animation>
  </tile>
  <tile id="388">
   <animation>
    <frame tileid="388" duration="150"/>
    <frame tileid="396" duration="150"/>
    <frame tileid="404" duration="150"/>
    <frame tileid="412" duration="150"/>
    <frame tileid="420" duration="150"/>
    <frame tileid="428" duration="150"/>
    <frame tileid="436" duration="150"/>
    <frame tileid="444" duration="150"/>
   </animation>
  </tile>
  <tile id="579">
   <animation>
    <frame tileid="579" duration="150"/>
    <frame tileid="587" duration="150"/>
    <frame tileid="595" duration="150"/>
    <frame tileid="603" duration="150"/>
    <frame tileid="611" duration="150"/>
    <frame tileid="619" duration="150"/>
    <frame tileid="627" duration="150"/>
    <frame tileid="635" duration="150"/>
   </animation>
  </tile>
  <tile id="580">
   <animation>
    <frame tileid="580" duration="150"/>
    <frame tileid="588" duration="150"/>
    <frame tileid="596" duration="150"/>
    <frame tileid="604" duration="150"/>
    <frame tileid="612" duration="150"/>
    <frame tileid="620" duration="150"/>
    <frame tileid="628" duration="150"/>
    <frame tileid="636" duration="150"/>
   </animation>
  </tile>
  <tile id="642">
   <animation>
    <frame tileid="642" duration="150"/>
    <frame tileid="650" duration="150"/>
    <frame tileid="658" duration="150"/>
    <frame tileid="666" duration="150"/>
    <frame tileid="674" duration="150"/>
    <frame tileid="682" duration="150"/>
    <frame tileid="690" duration="150"/>
    <frame tileid="698" duration="150"/>
   </animation>
  </tile>
  <tile id="643">
   <animation>
    <frame tileid="643" duration="150"/>
    <frame tileid="651" duration="150"/>
    <frame tileid="659" duration="150"/>
    <frame tileid="667" duration="150"/>
    <frame tileid="675" duration="150"/>
    <frame tileid="683" duration="150"/>
    <frame tileid="691" duration="150"/>
    <frame tileid="699" duration="150"/>
   </animation>
  </tile>
  <tile id="644">
   <animation>
    <frame tileid="644" duration="150"/>
    <frame tileid="652" duration="150"/>
    <frame tileid="660" duration="150"/>
    <frame tileid="668" duration="150"/>
    <frame tileid="676" duration="150"/>
    <frame tileid="684" duration="150"/>
    <frame tileid="692" duration="150"/>
    <frame tileid="700" duration="150"/>
   </animation>
  </tile>
  <tile id="645">
   <animation>
    <frame tileid="645" duration="150"/>
    <frame tileid="653" duration="150"/>
    <frame tileid="661" duration="150"/>
    <frame tileid="669" duration="150"/>
    <frame tileid="677" duration="150"/>
    <frame tileid="685" duration="150"/>
    <frame tileid="693" duration="150"/>
    <frame tileid="701" duration="150"/>
   </animation>
  </tile>
  <tile id="706">
   <animation>
    <frame tileid="706" duration="150"/>
    <frame tileid="714" duration="150"/>
    <frame tileid="722" duration="150"/>
    <frame tileid="730" duration="150"/>
    <frame tileid="738" duration="150"/>
    <frame tileid="746" duration="150"/>
    <frame tileid="754" duration="150"/>
    <frame tileid="762" duration="150"/>
   </animation>
  </tile>
  <tile id="707">
   <animation>
    <frame tileid="707" duration="150"/>
    <frame tileid="715" duration="150"/>
    <frame tileid="723" duration="150"/>
    <frame tileid="731" duration="150"/>
    <frame tileid="739" duration="150"/>
    <frame tileid="747" duration="150"/>
    <frame tileid="755" duration="150"/>
    <frame tileid="763" duration="150"/>
   </animation>
  </tile>
  <tile id="708">
   <animation>
    <frame tileid="708" duration="150"/>
    <frame tileid="716" duration="150"/>
    <frame tileid="724" duration="150"/>
    <frame tileid="732" duration="150"/>
    <frame tileid="740" duration="150"/>
    <frame tileid="748" duration="150"/>
    <frame tileid="756" duration="150"/>
    <frame tileid="764" duration="150"/>
   </animation>
  </tile>
  <tile id="709">
   <animation>
    <frame tileid="709" duration="150"/>
    <frame tileid="717" duration="150"/>
    <frame tileid="725" duration="150"/>
    <frame tileid="733" duration="150"/>
    <frame tileid="741" duration="150"/>
    <frame tileid="749" duration="150"/>
    <frame tileid="757" duration="150"/>
    <frame tileid="765" duration="150"/>
   </animation>
  </tile>
  <tile id="771">
   <animation>
    <frame tileid="771" duration="150"/>
    <frame tileid="779" duration="150"/>
    <frame tileid="787" duration="150"/>
    <frame tileid="795" duration="150"/>
    <frame tileid="803" duration="150"/>
    <frame tileid="811" duration="150"/>
    <frame tileid="819" duration="150"/>
    <frame tileid="827" duration="150"/>
   </animation>
  </tile>
  <tile id="772">
   <animation>
    <frame tileid="772" duration="150"/>
    <frame tileid="780" duration="150"/>
    <frame tileid="788" duration="150"/>
    <frame tileid="796" duration="150"/>
    <frame tileid="804" duration="150"/>
    <frame tileid="812" duration="150"/>
    <frame tileid="820" duration="150"/>
    <frame tileid="828" duration="150"/>
   </animation>
  </tile>
  <tile id="773">
   <animation>
    <frame tileid="773" duration="150"/>
    <frame tileid="781" duration="150"/>
    <frame tileid="789" duration="150"/>
    <frame tileid="797" duration="150"/>
    <frame tileid="805" duration="150"/>
    <frame tileid="813" duration="150"/>
    <frame tileid="821" duration="150"/>
    <frame tileid="829" duration="150"/>
   </animation>
  </tile>
  <tile id="1093">
   <animation>
    <frame tileid="1093" duration="150"/>
    <frame tileid="1101" duration="150"/>
    <frame tileid="1109" duration="150"/>
    <frame tileid="1117" duration="150"/>
    <frame tileid="1125" duration="150"/>
    <frame tileid="1133" duration="150"/>
    <frame tileid="1141" duration="150"/>
    <frame tileid="1149" duration="150"/>
   </animation>
  </tile>
  <tile id="1094">
   <animation>
    <frame tileid="1094" duration="150"/>
    <frame tileid="1102" duration="150"/>
    <frame tileid="1110" duration="150"/>
    <frame tileid="1118" duration="150"/>
    <frame tileid="1126" duration="150"/>
    <frame tileid="1134" duration="150"/>
    <frame tileid="1142" duration="150"/>
    <frame tileid="1150" duration="150"/>
   </animation>
  </tile>
  <tile id="1154">
   <animation>
    <frame tileid="1154" duration="150"/>
    <frame tileid="1162" duration="150"/>
    <frame tileid="1170" duration="150"/>
    <frame tileid="1178" duration="150"/>
    <frame tileid="1186" duration="150"/>
    <frame tileid="1194" duration="150"/>
    <frame tileid="1202" duration="150"/>
    <frame tileid="1210" duration="150"/>
   </animation>
  </tile>
  <tile id="1155">
   <animation>
    <frame tileid="1155" duration="150"/>
    <frame tileid="1163" duration="150"/>
    <frame tileid="1171" duration="150"/>
    <frame tileid="1179" duration="150"/>
    <frame tileid="1187" duration="150"/>
    <frame tileid="1195" duration="150"/>
    <frame tileid="1203" duration="150"/>
    <frame tileid="1211" duration="150"/>
   </animation>
  </tile>
  <tile id="1156">
   <animation>
    <frame tileid="1156" duration="150"/>
    <frame tileid="1164" duration="150"/>
    <frame tileid="1172" duration="150"/>
    <frame tileid="1180" duration="150"/>
    <frame tileid="1188" duration="150"/>
    <frame tileid="1196" duration="150"/>
    <frame tileid="1204" duration="150"/>
    <frame tileid="1212" duration="150"/>
   </animation>
  </tile>
  <tile id="1157">
   <animation>
    <frame tileid="1157" duration="150"/>
    <frame tileid="1165" duration="150"/>
    <frame tileid="1173" duration="150"/>
    <frame tileid="1181" duration="150"/>
    <frame tileid="1189" duration="150"/>
    <frame tileid="1197" duration="150"/>
    <frame tileid="1205" duration="150"/>
    <frame tileid="1213" duration="150"/>
   </animation>
  </tile>
  <tile id="1158">
   <animation>
    <frame tileid="1158" duration="150"/>
    <frame tileid="1166" duration="150"/>
    <frame tileid="1174" duration="150"/>
    <frame tileid="1182" duration="150"/>
    <frame tileid="1190" duration="150"/>
    <frame tileid="1198" duration="150"/>
    <frame tileid="1206" duration="150"/>
    <frame tileid="1214" duration="150"/>
   </animation>
  </tile>
  <tile id="1216">
   <animation>
    <frame tileid="1216" duration="150"/>
    <frame tileid="1224" duration="150"/>
    <frame tileid="1232" duration="150"/>
    <frame tileid="1240" duration="150"/>
    <frame tileid="1248" duration="150"/>
    <frame tileid="1256" duration="150"/>
    <frame tileid="1264" duration="150"/>
    <frame tileid="1272" duration="150"/>
   </animation>
  </tile>
  <tile id="1217">
   <animation>
    <frame tileid="1217" duration="150"/>
    <frame tileid="1225" duration="150"/>
    <frame tileid="1233" duration="150"/>
    <frame tileid="1241" duration="150"/>
    <frame tileid="1249" duration="150"/>
    <frame tileid="1257" duration="150"/>
    <frame tileid="1265" duration="150"/>
    <frame tileid="1273" duration="150"/>
   </animation>
  </tile>
  <tile id="1218">
   <animation>
    <frame tileid="1218" duration="150"/>
    <frame tileid="1226" duration="150"/>
    <frame tileid="1234" duration="150"/>
    <frame tileid="1242" duration="150"/>
    <frame tileid="1250" duration="150"/>
    <frame tileid="1258" duration="150"/>
    <frame tileid="1266" duration="150"/>
    <frame tileid="1274" duration="150"/>
   </animation>
  </tile>
  <tile id="1219">
   <animation>
    <frame tileid="1219" duration="150"/>
    <frame tileid="1227" duration="150"/>
    <frame tileid="1235" duration="150"/>
    <frame tileid="1243" duration="150"/>
    <frame tileid="1251" duration="150"/>
    <frame tileid="1259" duration="150"/>
    <frame tileid="1267" duration="150"/>
    <frame tileid="1275" duration="150"/>
   </animation>
  </tile>
  <tile id="1220">
   <animation>
    <frame tileid="1220" duration="150"/>
    <frame tileid="1228" duration="150"/>
    <frame tileid="1236" duration="150"/>
    <frame tileid="1244" duration="150"/>
    <frame tileid="1252" duration="150"/>
    <frame tileid="1260" duration="150"/>
    <frame tileid="1268" duration="150"/>
    <frame tileid="1276" duration="150"/>
   </animation>
  </tile>
  <tile id="1221">
   <animation>
    <frame tileid="1221" duration="150"/>
    <frame tileid="1229" duration="150"/>
    <frame tileid="1237" duration="150"/>
    <frame tileid="1245" duration="150"/>
    <frame tileid="1253" duration="150"/>
    <frame tileid="1261" duration="150"/>
    <frame tileid="1269" duration="150"/>
    <frame tileid="1277" duration="150"/>
   </animation>
  </tile>
  <tile id="1222">
   <animation>
    <frame tileid="1222" duration="150"/>
    <frame tileid="1230" duration="150"/>
    <frame tileid="1238" duration="150"/>
    <frame tileid="1246" duration="150"/>
    <frame tileid="1254" duration="150"/>
    <frame tileid="1262" duration="150"/>
    <frame tileid="1270" duration="150"/>
    <frame tileid="1278" duration="150"/>
   </animation>
  </tile>
  <tile id="1280">
   <animation>
    <frame tileid="1280" duration="150"/>
    <frame tileid="1288" duration="150"/>
    <frame tileid="1296" duration="150"/>
    <frame tileid="1304" duration="150"/>
    <frame tileid="1312" duration="150"/>
    <frame tileid="1320" duration="150"/>
    <frame tileid="1328" duration="150"/>
    <frame tileid="1336" duration="150"/>
   </animation>
  </tile>
  <tile id="1281">
   <animation>
    <frame tileid="1281" duration="150"/>
    <frame tileid="1289" duration="150"/>
    <frame tileid="1297" duration="150"/>
    <frame tileid="1305" duration="150"/>
    <frame tileid="1313" duration="150"/>
    <frame tileid="1321" duration="150"/>
    <frame tileid="1329" duration="150"/>
    <frame tileid="1337" duration="150"/>
   </animation>
  </tile>
  <tile id="1282">
   <animation>
    <frame tileid="1282" duration="150"/>
    <frame tileid="1290" duration="150"/>
    <frame tileid="1298" duration="150"/>
    <frame tileid="1306" duration="150"/>
    <frame tileid="1314" duration="150"/>
    <frame tileid="1322" duration="150"/>
    <frame tileid="1330" duration="150"/>
    <frame tileid="1338" duration="150"/>
   </animation>
  </tile>
  <tile id="1283">
   <animation>
    <frame tileid="1283" duration="150"/>
    <frame tileid="1291" duration="150"/>
    <frame tileid="1299" duration="150"/>
    <frame tileid="1307" duration="150"/>
    <frame tileid="1315" duration="150"/>
    <frame tileid="1323" duration="150"/>
    <frame tileid="1331" duration="150"/>
    <frame tileid="1339" duration="150"/>
   </animation>
  </tile>
  <tile id="1284">
   <animation>
    <frame tileid="1284" duration="150"/>
    <frame tileid="1292" duration="150"/>
    <frame tileid="1300" duration="150"/>
    <frame tileid="1308" duration="150"/>
    <frame tileid="1316" duration="150"/>
    <frame tileid="1324" duration="150"/>
    <frame tileid="1332" duration="150"/>
    <frame tileid="1340" duration="150"/>
   </animation>
  </tile>
  <tile id="1285">
   <animation>
    <frame tileid="1285" duration="150"/>
    <frame tileid="1293" duration="150"/>
    <frame tileid="1301" duration="150"/>
    <frame tileid="1309" duration="150"/>
    <frame tileid="1317" duration="150"/>
    <frame tileid="1325" duration="150"/>
    <frame tileid="1333" duration="150"/>
    <frame tileid="1341" duration="150"/>
   </animation>
  </tile>
  <tile id="1286">
   <animation>
    <frame tileid="1286" duration="150"/>
    <frame tileid="1294" duration="150"/>
    <frame tileid="1302" duration="150"/>
    <frame tileid="1310" duration="150"/>
    <frame tileid="1318" duration="150"/>
    <frame tileid="1326" duration="150"/>
    <frame tileid="1334" duration="150"/>
    <frame tileid="1342" duration="150"/>
   </animation>
  </tile>
  <tile id="1344">
   <animation>
    <frame tileid="1344" duration="150"/>
    <frame tileid="1352" duration="150"/>
    <frame tileid="1360" duration="150"/>
    <frame tileid="1368" duration="150"/>
    <frame tileid="1376" duration="150"/>
    <frame tileid="1384" duration="150"/>
    <frame tileid="1392" duration="150"/>
    <frame tileid="1400" duration="150"/>
   </animation>
  </tile>
  <tile id="1345">
   <animation>
    <frame tileid="1345" duration="150"/>
    <frame tileid="1353" duration="150"/>
    <frame tileid="1361" duration="150"/>
    <frame tileid="1369" duration="150"/>
    <frame tileid="1377" duration="150"/>
    <frame tileid="1385" duration="150"/>
    <frame tileid="1393" duration="150"/>
    <frame tileid="1401" duration="150"/>
   </animation>
  </tile>
  <tile id="1346">
   <animation>
    <frame tileid="1346" duration="150"/>
    <frame tileid="1354" duration="150"/>
    <frame tileid="1362" duration="150"/>
    <frame tileid="1370" duration="150"/>
    <frame tileid="1378" duration="150"/>
    <frame tileid="1386" duration="150"/>
    <frame tileid="1394" duration="150"/>
    <frame tileid="1402" duration="150"/>
   </animation>
  </tile>
  <tile id="1601">
   <animation>
    <frame tileid="1601" duration="150"/>
    <frame tileid="1609" duration="150"/>
    <frame tileid="1617" duration="150"/>
    <frame tileid="1625" duration="150"/>
    <frame tileid="1633" duration="150"/>
    <frame tileid="1641" duration="150"/>
    <frame tileid="1649" duration="150"/>
    <frame tileid="1657" duration="150"/>
   </animation>
  </tile>
  <tile id="1602">
   <animation>
    <frame tileid="1602" duration="150"/>
    <frame tileid="1610" duration="150"/>
    <frame tileid="1618" duration="150"/>
    <frame tileid="1626" duration="150"/>
    <frame tileid="1634" duration="150"/>
    <frame tileid="1642" duration="150"/>
    <frame tileid="1650" duration="150"/>
    <frame tileid="1658" duration="150"/>
   </animation>
  </tile>
  <tile id="1603">
   <animation>
    <frame tileid="1603" duration="150"/>
    <frame tileid="1611" duration="150"/>
    <frame tileid="1619" duration="150"/>
    <frame tileid="1627" duration="150"/>
    <frame tileid="1635" duration="150"/>
    <frame tileid="1643" duration="150"/>
    <frame tileid="1651" duration="150"/>
    <frame tileid="1659" duration="150"/>
   </animation>
  </tile>
  <tile id="1604">
   <animation>
    <frame tileid="1604" duration="150"/>
    <frame tileid="1612" duration="150"/>
    <frame tileid="1620" duration="150"/>
    <frame tileid="1628" duration="150"/>
    <frame tileid="1636" duration="150"/>
    <frame tileid="1644" duration="150"/>
    <frame tileid="1652" duration="150"/>
    <frame tileid="1660" duration="150"/>
   </animation>
  </tile>
  <tile id="1665">
   <animation>
    <frame tileid="1665" duration="150"/>
    <frame tileid="1673" duration="150"/>
    <frame tileid="1681" duration="150"/>
    <frame tileid="1689" duration="150"/>
    <frame tileid="1697" duration="150"/>
    <frame tileid="1705" duration="150"/>
    <frame tileid="1713" duration="150"/>
    <frame tileid="1721" duration="150"/>
   </animation>
  </tile>
  <tile id="1666">
   <animation>
    <frame tileid="1666" duration="150"/>
    <frame tileid="1674" duration="150"/>
    <frame tileid="1682" duration="150"/>
    <frame tileid="1690" duration="150"/>
    <frame tileid="1698" duration="150"/>
    <frame tileid="1706" duration="150"/>
    <frame tileid="1714" duration="150"/>
    <frame tileid="1722" duration="150"/>
   </animation>
  </tile>
  <tile id="1667">
   <animation>
    <frame tileid="1667" duration="150"/>
    <frame tileid="1675" duration="150"/>
    <frame tileid="1683" duration="150"/>
    <frame tileid="1691" duration="150"/>
    <frame tileid="1699" duration="150"/>
    <frame tileid="1707" duration="150"/>
    <frame tileid="1715" duration="150"/>
    <frame tileid="1723" duration="150"/>
   </animation>
  </tile>
  <tile id="1668">
   <animation>
    <frame tileid="1668" duration="150"/>
    <frame tileid="1676" duration="150"/>
    <frame tileid="1684" duration="150"/>
    <frame tileid="1692" duration="150"/>
    <frame tileid="1700" duration="150"/>
    <frame tileid="1708" duration="150"/>
    <frame tileid="1716" duration="150"/>
    <frame tileid="1724" duration="150"/>
   </animation>
  </tile>
  <tile id="1669">
   <animation>
    <frame tileid="1669" duration="150"/>
    <frame tileid="1677" duration="150"/>
    <frame tileid="1685" duration="150"/>
    <frame tileid="1693" duration="150"/>
    <frame tileid="1701" duration="150"/>
    <frame tileid="1709" duration="150"/>
    <frame tileid="1717" duration="150"/>
    <frame tileid="1725" duration="150"/>
   </animation>
  </tile>
  <tile id="1729">
   <animation>
    <frame tileid="1729" duration="150"/>
    <frame tileid="1737" duration="150"/>
    <frame tileid="1745" duration="150"/>
    <frame tileid="1753" duration="150"/>
    <frame tileid="1761" duration="150"/>
    <frame tileid="1769" duration="150"/>
    <frame tileid="1777" duration="150"/>
    <frame tileid="1785" duration="150"/>
   </animation>
  </tile>
  <tile id="1730">
   <animation>
    <frame tileid="1730" duration="150"/>
    <frame tileid="1738" duration="150"/>
    <frame tileid="1746" duration="150"/>
    <frame tileid="1754" duration="150"/>
    <frame tileid="1762" duration="150"/>
    <frame tileid="1770" duration="150"/>
    <frame tileid="1778" duration="150"/>
    <frame tileid="1786" duration="150"/>
   </animation>
  </tile>
  <tile id="1731">
   <animation>
    <frame tileid="1731" duration="150"/>
    <frame tileid="1739" duration="150"/>
    <frame tileid="1747" duration="150"/>
    <frame tileid="1755" duration="150"/>
    <frame tileid="1763" duration="150"/>
    <frame tileid="1771" duration="150"/>
    <frame tileid="1779" duration="150"/>
    <frame tileid="1787" duration="150"/>
   </animation>
  </tile>
  <tile id="1732">
   <animation>
    <frame tileid="1732" duration="150"/>
    <frame tileid="1740" duration="150"/>
    <frame tileid="1748" duration="150"/>
    <frame tileid="1756" duration="150"/>
    <frame tileid="1764" duration="150"/>
    <frame tileid="1772" duration="150"/>
    <frame tileid="1780" duration="150"/>
    <frame tileid="1788" duration="150"/>
   </animation>
  </tile>
  <tile id="1733">
   <animation>
    <frame tileid="1733" duration="150"/>
    <frame tileid="1741" duration="150"/>
    <frame tileid="1749" duration="150"/>
    <frame tileid="1757" duration="150"/>
    <frame tileid="1765" duration="150"/>
    <frame tileid="1773" duration="150"/>
    <frame tileid="1781" duration="150"/>
    <frame tileid="1789" duration="150"/>
   </animation>
  </tile>
  <tile id="1734">
   <animation>
    <frame tileid="1734" duration="150"/>
    <frame tileid="1742" duration="150"/>
    <frame tileid="1750" duration="150"/>
    <frame tileid="1758" duration="150"/>
    <frame tileid="1766" duration="150"/>
    <frame tileid="1774" duration="150"/>
    <frame tileid="1782" duration="150"/>
    <frame tileid="1790" duration="150"/>
   </animation>
  </tile>
  <tile id="1735">
   <animation>
    <frame tileid="1735" duration="150"/>
    <frame tileid="1743" duration="150"/>
    <frame tileid="1751" duration="150"/>
    <frame tileid="1759" duration="150"/>
    <frame tileid="1767" duration="150"/>
    <frame tileid="1775" duration="150"/>
    <frame tileid="1783" duration="150"/>
    <frame tileid="1791" duration="150"/>
   </animation>
  </tile>
  <tile id="1793">
   <animation>
    <frame tileid="1793" duration="150"/>
    <frame tileid="1801" duration="150"/>
    <frame tileid="1809" duration="150"/>
    <frame tileid="1817" duration="150"/>
    <frame tileid="1825" duration="150"/>
    <frame tileid="1833" duration="150"/>
    <frame tileid="1841" duration="150"/>
    <frame tileid="1849" duration="150"/>
   </animation>
  </tile>
  <tile id="1794">
   <animation>
    <frame tileid="1794" duration="150"/>
    <frame tileid="1802" duration="150"/>
    <frame tileid="1810" duration="150"/>
    <frame tileid="1818" duration="150"/>
    <frame tileid="1826" duration="150"/>
    <frame tileid="1834" duration="150"/>
    <frame tileid="1842" duration="150"/>
    <frame tileid="1850" duration="150"/>
   </animation>
  </tile>
  <tile id="1795">
   <animation>
    <frame tileid="1795" duration="150"/>
    <frame tileid="1803" duration="150"/>
    <frame tileid="1811" duration="150"/>
    <frame tileid="1819" duration="150"/>
    <frame tileid="1827" duration="150"/>
    <frame tileid="1835" duration="150"/>
    <frame tileid="1843" duration="150"/>
    <frame tileid="1851" duration="150"/>
   </animation>
  </tile>
  <tile id="1796">
   <animation>
    <frame tileid="1796" duration="150"/>
    <frame tileid="1804" duration="150"/>
    <frame tileid="1812" duration="150"/>
    <frame tileid="1820" duration="150"/>
    <frame tileid="1828" duration="150"/>
    <frame tileid="1836" duration="150"/>
    <frame tileid="1844" duration="150"/>
    <frame tileid="1852" duration="150"/>
   </animation>
  </tile>
  <tile id="1797">
   <animation>
    <frame tileid="1797" duration="150"/>
    <frame tileid="1805" duration="150"/>
    <frame tileid="1813" duration="150"/>
    <frame tileid="1821" duration="150"/>
    <frame tileid="1829" duration="150"/>
    <frame tileid="1837" duration="150"/>
    <frame tileid="1845" duration="150"/>
    <frame tileid="1853" duration="150"/>
   </animation>
  </tile>
  <tile id="1798">
   <animation>
    <frame tileid="1798" duration="150"/>
    <frame tileid="1806" duration="150"/>
    <frame tileid="1814" duration="150"/>
    <frame tileid="1822" duration="150"/>
    <frame tileid="1830" duration="150"/>
    <frame tileid="1838" duration="150"/>
    <frame tileid="1846" duration="150"/>
    <frame tileid="1854" duration="150"/>
   </animation>
  </tile>
  <tile id="1799">
   <animation>
    <frame tileid="1799" duration="150"/>
    <frame tileid="1807" duration="150"/>
    <frame tileid="1815" duration="150"/>
    <frame tileid="1823" duration="150"/>
    <frame tileid="1831" duration="150"/>
    <frame tileid="1839" duration="150"/>
    <frame tileid="1847" duration="150"/>
    <frame tileid="1855" duration="150"/>
   </animation>
  </tile>
  <tile id="1861">
   <animation>
    <frame tileid="1861" duration="150"/>
    <frame tileid="1869" duration="150"/>
    <frame tileid="1877" duration="150"/>
    <frame tileid="1885" duration="150"/>
    <frame tileid="1893" duration="150"/>
    <frame tileid="1901" duration="150"/>
    <frame tileid="1909" duration="150"/>
    <frame tileid="1917" duration="150"/>
   </animation>
  </tile>
  <tile id="1862">
   <animation>
    <frame tileid="1862" duration="150"/>
    <frame tileid="1870" duration="150"/>
    <frame tileid="1878" duration="150"/>
    <frame tileid="1886" duration="150"/>
    <frame tileid="1894" duration="150"/>
    <frame tileid="1902" duration="150"/>
    <frame tileid="1910" duration="150"/>
    <frame tileid="1918" duration="150"/>
   </animation>
  </tile>
  <tile id="1863">
   <animation>
    <frame tileid="1863" duration="150"/>
    <frame tileid="1871" duration="150"/>
    <frame tileid="1879" duration="150"/>
    <frame tileid="1887" duration="150"/>
    <frame tileid="1895" duration="150"/>
    <frame tileid="1903" duration="150"/>
    <frame tileid="1911" duration="150"/>
    <frame tileid="1919" duration="150"/>
   </animation>
  </tile>
 </tileset>
 <tileset firstgid="11009" name="Rat2_Walk_full" tilewidth="16" tileheight="16" tilecount="1536" columns="48">
  <image source="Rat2_Walk_body.png" width="768" height="512"/>
  <tile id="99">
   <animation>
    <frame tileid="99" duration="150"/>
    <frame tileid="107" duration="150"/>
    <frame tileid="115" duration="150"/>
    <frame tileid="123" duration="150"/>
    <frame tileid="131" duration="150"/>
    <frame tileid="139" duration="150"/>
   </animation>
  </tile>
  <tile id="100">
   <animation>
    <frame tileid="100" duration="150"/>
    <frame tileid="108" duration="150"/>
    <frame tileid="116" duration="150"/>
    <frame tileid="124" duration="150"/>
    <frame tileid="132" duration="150"/>
    <frame tileid="140" duration="150"/>
   </animation>
  </tile>
  <tile id="146">
   <animation>
    <frame tileid="146" duration="150"/>
    <frame tileid="154" duration="150"/>
    <frame tileid="162" duration="150"/>
    <frame tileid="170" duration="150"/>
    <frame tileid="178" duration="150"/>
    <frame tileid="186" duration="150"/>
   </animation>
  </tile>
  <tile id="147">
   <animation>
    <frame tileid="147" duration="150"/>
    <frame tileid="155" duration="150"/>
    <frame tileid="163" duration="150"/>
    <frame tileid="171" duration="150"/>
    <frame tileid="179" duration="150"/>
    <frame tileid="187" duration="150"/>
   </animation>
  </tile>
  <tile id="148">
   <animation>
    <frame tileid="148" duration="150"/>
    <frame tileid="156" duration="150"/>
    <frame tileid="164" duration="150"/>
    <frame tileid="172" duration="150"/>
    <frame tileid="180" duration="150"/>
    <frame tileid="188" duration="150"/>
   </animation>
  </tile>
  <tile id="149">
   <animation>
    <frame tileid="149" duration="150"/>
    <frame tileid="157" duration="150"/>
    <frame tileid="165" duration="150"/>
    <frame tileid="173" duration="150"/>
    <frame tileid="181" duration="150"/>
    <frame tileid="189" duration="150"/>
   </animation>
  </tile>
  <tile id="195">
   <animation>
    <frame tileid="195" duration="150"/>
    <frame tileid="203" duration="150"/>
    <frame tileid="211" duration="150"/>
    <frame tileid="219" duration="150"/>
    <frame tileid="227" duration="150"/>
    <frame tileid="235" duration="150"/>
   </animation>
  </tile>
  <tile id="196">
   <animation>
    <frame tileid="196" duration="150"/>
    <frame tileid="204" duration="150"/>
    <frame tileid="212" duration="150"/>
    <frame tileid="220" duration="150"/>
    <frame tileid="228" duration="150"/>
    <frame tileid="236" duration="150"/>
   </animation>
  </tile>
  <tile id="483">
   <animation>
    <frame tileid="483" duration="150"/>
    <frame tileid="491" duration="150"/>
    <frame tileid="499" duration="150"/>
    <frame tileid="507" duration="150"/>
    <frame tileid="515" duration="150"/>
    <frame tileid="523" duration="150"/>
   </animation>
  </tile>
  <tile id="484">
   <animation>
    <frame tileid="484" duration="150"/>
    <frame tileid="492" duration="150"/>
    <frame tileid="500" duration="150"/>
    <frame tileid="508" duration="150"/>
    <frame tileid="516" duration="150"/>
    <frame tileid="524" duration="150"/>
   </animation>
  </tile>
  <tile id="530">
   <animation>
    <frame tileid="530" duration="150"/>
    <frame tileid="538" duration="150"/>
    <frame tileid="546" duration="150"/>
    <frame tileid="554" duration="150"/>
    <frame tileid="562" duration="150"/>
    <frame tileid="570" duration="150"/>
   </animation>
  </tile>
  <tile id="531">
   <animation>
    <frame tileid="531" duration="150"/>
    <frame tileid="539" duration="150"/>
    <frame tileid="547" duration="150"/>
    <frame tileid="555" duration="150"/>
    <frame tileid="563" duration="150"/>
    <frame tileid="571" duration="150"/>
   </animation>
  </tile>
  <tile id="532">
   <animation>
    <frame tileid="532" duration="150"/>
    <frame tileid="540" duration="150"/>
    <frame tileid="548" duration="150"/>
    <frame tileid="556" duration="150"/>
    <frame tileid="564" duration="150"/>
    <frame tileid="572" duration="150"/>
   </animation>
  </tile>
  <tile id="533">
   <animation>
    <frame tileid="533" duration="150"/>
    <frame tileid="541" duration="150"/>
    <frame tileid="549" duration="150"/>
    <frame tileid="557" duration="150"/>
    <frame tileid="565" duration="150"/>
    <frame tileid="573" duration="150"/>
   </animation>
  </tile>
  <tile id="578">
   <animation>
    <frame tileid="578" duration="150"/>
    <frame tileid="586" duration="150"/>
    <frame tileid="594" duration="150"/>
    <frame tileid="602" duration="150"/>
    <frame tileid="610" duration="150"/>
    <frame tileid="618" duration="150"/>
   </animation>
  </tile>
  <tile id="579">
   <animation>
    <frame tileid="579" duration="150"/>
    <frame tileid="587" duration="150"/>
    <frame tileid="595" duration="150"/>
    <frame tileid="603" duration="150"/>
    <frame tileid="611" duration="150"/>
    <frame tileid="619" duration="150"/>
   </animation>
  </tile>
  <tile id="580">
   <animation>
    <frame tileid="580" duration="150"/>
    <frame tileid="588" duration="150"/>
    <frame tileid="596" duration="150"/>
    <frame tileid="604" duration="150"/>
    <frame tileid="612" duration="150"/>
    <frame tileid="620" duration="150"/>
   </animation>
  </tile>
  <tile id="581">
   <animation>
    <frame tileid="581" duration="150"/>
    <frame tileid="589" duration="150"/>
    <frame tileid="597" duration="150"/>
    <frame tileid="605" duration="150"/>
    <frame tileid="613" duration="150"/>
    <frame tileid="621" duration="150"/>
   </animation>
  </tile>
  <tile id="627">
   <animation>
    <frame tileid="627" duration="150"/>
    <frame tileid="635" duration="150"/>
    <frame tileid="643" duration="150"/>
    <frame tileid="651" duration="150"/>
    <frame tileid="659" duration="150"/>
    <frame tileid="667" duration="150"/>
   </animation>
  </tile>
  <tile id="628">
   <animation>
    <frame tileid="628" duration="150"/>
    <frame tileid="636" duration="150"/>
    <frame tileid="644" duration="150"/>
    <frame tileid="652" duration="150"/>
    <frame tileid="660" duration="150"/>
    <frame tileid="668" duration="150"/>
   </animation>
  </tile>
  <tile id="867">
   <animation>
    <frame tileid="867" duration="150"/>
    <frame tileid="875" duration="150"/>
    <frame tileid="883" duration="150"/>
    <frame tileid="891" duration="150"/>
    <frame tileid="899" duration="150"/>
    <frame tileid="907" duration="150"/>
   </animation>
  </tile>
  <tile id="868">
   <animation>
    <frame tileid="868" duration="150"/>
    <frame tileid="876" duration="150"/>
    <frame tileid="884" duration="150"/>
    <frame tileid="892" duration="150"/>
    <frame tileid="900" duration="150"/>
    <frame tileid="908" duration="150"/>
   </animation>
  </tile>
  <tile id="914">
   <animation>
    <frame tileid="914" duration="150"/>
    <frame tileid="922" duration="150"/>
    <frame tileid="930" duration="150"/>
    <frame tileid="938" duration="150"/>
    <frame tileid="946" duration="150"/>
    <frame tileid="954" duration="150"/>
   </animation>
  </tile>
  <tile id="915">
   <animation>
    <frame tileid="915" duration="150"/>
    <frame tileid="923" duration="150"/>
    <frame tileid="931" duration="150"/>
    <frame tileid="939" duration="150"/>
    <frame tileid="947" duration="150"/>
    <frame tileid="955" duration="150"/>
   </animation>
  </tile>
  <tile id="916">
   <animation>
    <frame tileid="916" duration="150"/>
    <frame tileid="924" duration="150"/>
    <frame tileid="932" duration="150"/>
    <frame tileid="940" duration="150"/>
    <frame tileid="948" duration="150"/>
    <frame tileid="956" duration="150"/>
   </animation>
  </tile>
  <tile id="917">
   <animation>
    <frame tileid="917" duration="150"/>
    <frame tileid="925" duration="150"/>
    <frame tileid="933" duration="150"/>
    <frame tileid="941" duration="150"/>
    <frame tileid="949" duration="150"/>
    <frame tileid="957" duration="150"/>
   </animation>
  </tile>
  <tile id="962">
   <animation>
    <frame tileid="962" duration="150"/>
    <frame tileid="970" duration="150"/>
    <frame tileid="978" duration="150"/>
    <frame tileid="986" duration="150"/>
    <frame tileid="994" duration="150"/>
    <frame tileid="1002" duration="150"/>
   </animation>
  </tile>
  <tile id="963">
   <animation>
    <frame tileid="963" duration="150"/>
    <frame tileid="971" duration="150"/>
    <frame tileid="979" duration="150"/>
    <frame tileid="987" duration="150"/>
    <frame tileid="995" duration="150"/>
    <frame tileid="1003" duration="150"/>
   </animation>
  </tile>
  <tile id="964">
   <animation>
    <frame tileid="964" duration="150"/>
    <frame tileid="972" duration="150"/>
    <frame tileid="980" duration="150"/>
    <frame tileid="988" duration="150"/>
    <frame tileid="996" duration="150"/>
    <frame tileid="1004" duration="150"/>
   </animation>
  </tile>
  <tile id="965">
   <animation>
    <frame tileid="965" duration="150"/>
    <frame tileid="973" duration="150"/>
    <frame tileid="981" duration="150"/>
    <frame tileid="989" duration="150"/>
    <frame tileid="997" duration="150"/>
    <frame tileid="1005" duration="150"/>
   </animation>
  </tile>
  <tile id="966">
   <animation>
    <frame tileid="966" duration="150"/>
    <frame tileid="974" duration="150"/>
    <frame tileid="982" duration="150"/>
    <frame tileid="990" duration="150"/>
    <frame tileid="998" duration="150"/>
    <frame tileid="1006" duration="150"/>
   </animation>
  </tile>
  <tile id="1251">
   <animation>
    <frame tileid="1251" duration="150"/>
    <frame tileid="1259" duration="150"/>
    <frame tileid="1267" duration="150"/>
    <frame tileid="1275" duration="150"/>
    <frame tileid="1283" duration="150"/>
    <frame tileid="1291" duration="150"/>
   </animation>
  </tile>
  <tile id="1252">
   <animation>
    <frame tileid="1252" duration="150"/>
    <frame tileid="1260" duration="150"/>
    <frame tileid="1268" duration="150"/>
    <frame tileid="1276" duration="150"/>
    <frame tileid="1284" duration="150"/>
    <frame tileid="1292" duration="150"/>
   </animation>
  </tile>
  <tile id="1298">
   <animation>
    <frame tileid="1298" duration="150"/>
    <frame tileid="1306" duration="150"/>
    <frame tileid="1314" duration="150"/>
    <frame tileid="1322" duration="150"/>
    <frame tileid="1330" duration="150"/>
    <frame tileid="1338" duration="150"/>
   </animation>
  </tile>
  <tile id="1299">
   <animation>
    <frame tileid="1299" duration="150"/>
    <frame tileid="1307" duration="150"/>
    <frame tileid="1315" duration="150"/>
    <frame tileid="1323" duration="150"/>
    <frame tileid="1331" duration="150"/>
    <frame tileid="1339" duration="150"/>
   </animation>
  </tile>
  <tile id="1300">
   <animation>
    <frame tileid="1300" duration="150"/>
    <frame tileid="1308" duration="150"/>
    <frame tileid="1316" duration="150"/>
    <frame tileid="1324" duration="150"/>
    <frame tileid="1332" duration="150"/>
    <frame tileid="1340" duration="150"/>
   </animation>
  </tile>
  <tile id="1301">
   <animation>
    <frame tileid="1301" duration="150"/>
    <frame tileid="1309" duration="150"/>
    <frame tileid="1317" duration="150"/>
    <frame tileid="1325" duration="150"/>
    <frame tileid="1333" duration="150"/>
    <frame tileid="1341" duration="150"/>
   </animation>
  </tile>
  <tile id="1345">
   <animation>
    <frame tileid="1345" duration="150"/>
    <frame tileid="1353" duration="150"/>
    <frame tileid="1361" duration="150"/>
    <frame tileid="1369" duration="150"/>
    <frame tileid="1377" duration="150"/>
    <frame tileid="1385" duration="150"/>
   </animation>
  </tile>
  <tile id="1346">
   <animation>
    <frame tileid="1346" duration="150"/>
    <frame tileid="1354" duration="150"/>
    <frame tileid="1362" duration="150"/>
    <frame tileid="1370" duration="150"/>
    <frame tileid="1378" duration="150"/>
    <frame tileid="1386" duration="150"/>
   </animation>
  </tile>
  <tile id="1347">
   <animation>
    <frame tileid="1347" duration="150"/>
    <frame tileid="1355" duration="150"/>
    <frame tileid="1363" duration="150"/>
    <frame tileid="1371" duration="150"/>
    <frame tileid="1379" duration="150"/>
    <frame tileid="1387" duration="150"/>
   </animation>
  </tile>
  <tile id="1348">
   <animation>
    <frame tileid="1348" duration="150"/>
    <frame tileid="1356" duration="150"/>
    <frame tileid="1364" duration="150"/>
    <frame tileid="1372" duration="150"/>
    <frame tileid="1380" duration="150"/>
    <frame tileid="1388" duration="150"/>
   </animation>
  </tile>
  <tile id="1349">
   <animation>
    <frame tileid="1349" duration="150"/>
    <frame tileid="1357" duration="150"/>
    <frame tileid="1365" duration="150"/>
    <frame tileid="1373" duration="150"/>
    <frame tileid="1381" duration="150"/>
    <frame tileid="1389" duration="150"/>
   </animation>
  </tile>
 </tileset>
 <tileset firstgid="12545" name="Rat2_Death_full" tilewidth="16" tileheight="16" tilecount="1280" columns="40">
  <image source="Rat2_Death_body.png" width="640" height="512"/>
  <tile id="83">
   <animation>
    <frame tileid="83" duration="150"/>
    <frame tileid="91" duration="150"/>
    <frame tileid="99" duration="150"/>
    <frame tileid="107" duration="150"/>
    <frame tileid="115" duration="150"/>
   </animation>
  </tile>
  <tile id="84">
   <animation>
    <frame tileid="84" duration="150"/>
    <frame tileid="92" duration="150"/>
    <frame tileid="100" duration="150"/>
    <frame tileid="108" duration="150"/>
    <frame tileid="116" duration="150"/>
   </animation>
  </tile>
  <tile id="122">
   <animation>
    <frame tileid="122" duration="150"/>
    <frame tileid="130" duration="150"/>
    <frame tileid="138" duration="150"/>
    <frame tileid="146" duration="150"/>
    <frame tileid="154" duration="150"/>
   </animation>
  </tile>
  <tile id="123">
   <animation>
    <frame tileid="123" duration="150"/>
    <frame tileid="131" duration="150"/>
    <frame tileid="139" duration="150"/>
    <frame tileid="147" duration="150"/>
    <frame tileid="155" duration="150"/>
   </animation>
  </tile>
  <tile id="124">
   <animation>
    <frame tileid="124" duration="150"/>
    <frame tileid="132" duration="150"/>
    <frame tileid="140" duration="150"/>
    <frame tileid="148" duration="150"/>
    <frame tileid="156" duration="150"/>
   </animation>
  </tile>
  <tile id="125">
   <animation>
    <frame tileid="125" duration="150"/>
    <frame tileid="133" duration="150"/>
    <frame tileid="141" duration="150"/>
    <frame tileid="149" duration="150"/>
    <frame tileid="157" duration="150"/>
   </animation>
  </tile>
  <tile id="163">
   <animation>
    <frame tileid="163" duration="150"/>
    <frame tileid="171" duration="150"/>
    <frame tileid="179" duration="150"/>
    <frame tileid="187" duration="150"/>
    <frame tileid="195" duration="150"/>
   </animation>
  </tile>
  <tile id="164">
   <animation>
    <frame tileid="164" duration="150"/>
    <frame tileid="172" duration="150"/>
    <frame tileid="180" duration="150"/>
    <frame tileid="188" duration="150"/>
    <frame tileid="196" duration="150"/>
   </animation>
  </tile>
  <tile id="203">
   <animation>
    <frame tileid="203" duration="150"/>
    <frame tileid="211" duration="150"/>
    <frame tileid="219" duration="150"/>
    <frame tileid="227" duration="150"/>
    <frame tileid="235" duration="150"/>
   </animation>
  </tile>
  <tile id="204">
   <animation>
    <frame tileid="204" duration="150"/>
    <frame tileid="212" duration="150"/>
    <frame tileid="220" duration="150"/>
    <frame tileid="228" duration="150"/>
    <frame tileid="236" duration="150"/>
   </animation>
  </tile>
  <tile id="403">
   <animation>
    <frame tileid="403" duration="150"/>
    <frame tileid="411" duration="150"/>
    <frame tileid="419" duration="150"/>
    <frame tileid="427" duration="150"/>
    <frame tileid="435" duration="150"/>
   </animation>
  </tile>
  <tile id="404">
   <animation>
    <frame tileid="404" duration="150"/>
    <frame tileid="412" duration="150"/>
    <frame tileid="420" duration="150"/>
    <frame tileid="428" duration="150"/>
    <frame tileid="436" duration="150"/>
   </animation>
  </tile>
  <tile id="442">
   <animation>
    <frame tileid="442" duration="150"/>
    <frame tileid="450" duration="150"/>
    <frame tileid="458" duration="150"/>
    <frame tileid="466" duration="150"/>
    <frame tileid="474" duration="150"/>
   </animation>
  </tile>
  <tile id="443">
   <animation>
    <frame tileid="443" duration="150"/>
    <frame tileid="451" duration="150"/>
    <frame tileid="459" duration="150"/>
    <frame tileid="467" duration="150"/>
    <frame tileid="475" duration="150"/>
   </animation>
  </tile>
  <tile id="444">
   <animation>
    <frame tileid="444" duration="150"/>
    <frame tileid="452" duration="150"/>
    <frame tileid="460" duration="150"/>
    <frame tileid="468" duration="150"/>
    <frame tileid="476" duration="150"/>
   </animation>
  </tile>
  <tile id="445">
   <animation>
    <frame tileid="445" duration="150"/>
    <frame tileid="453" duration="150"/>
    <frame tileid="461" duration="150"/>
    <frame tileid="469" duration="150"/>
    <frame tileid="477" duration="150"/>
   </animation>
  </tile>
  <tile id="483">
   <animation>
    <frame tileid="483" duration="150"/>
    <frame tileid="491" duration="150"/>
    <frame tileid="499" duration="150"/>
    <frame tileid="507" duration="150"/>
    <frame tileid="515" duration="150"/>
   </animation>
  </tile>
  <tile id="484">
   <animation>
    <frame tileid="484" duration="150"/>
    <frame tileid="492" duration="150"/>
    <frame tileid="500" duration="150"/>
    <frame tileid="508" duration="150"/>
    <frame tileid="516" duration="150"/>
   </animation>
  </tile>
  <tile id="524">
   <animation>
    <frame tileid="524" duration="150"/>
    <frame tileid="532" duration="150"/>
    <frame tileid="540" duration="150"/>
    <frame tileid="548" duration="150"/>
    <frame tileid="556" duration="150"/>
   </animation>
  </tile>
  <tile id="722">
   <animation>
    <frame tileid="722" duration="150"/>
    <frame tileid="730" duration="150"/>
    <frame tileid="738" duration="150"/>
    <frame tileid="746" duration="150"/>
    <frame tileid="754" duration="150"/>
   </animation>
  </tile>
  <tile id="723">
   <animation>
    <frame tileid="723" duration="150"/>
    <frame tileid="731" duration="150"/>
    <frame tileid="739" duration="150"/>
    <frame tileid="747" duration="150"/>
    <frame tileid="755" duration="150"/>
   </animation>
  </tile>
  <tile id="724">
   <animation>
    <frame tileid="724" duration="150"/>
    <frame tileid="732" duration="150"/>
    <frame tileid="740" duration="150"/>
    <frame tileid="748" duration="150"/>
    <frame tileid="756" duration="150"/>
   </animation>
  </tile>
  <tile id="762">
   <animation>
    <frame tileid="762" duration="150"/>
    <frame tileid="770" duration="150"/>
    <frame tileid="778" duration="150"/>
    <frame tileid="786" duration="150"/>
    <frame tileid="794" duration="150"/>
   </animation>
  </tile>
  <tile id="763">
   <animation>
    <frame tileid="763" duration="150"/>
    <frame tileid="771" duration="150"/>
    <frame tileid="779" duration="150"/>
    <frame tileid="787" duration="150"/>
    <frame tileid="795" duration="150"/>
   </animation>
  </tile>
  <tile id="764">
   <animation>
    <frame tileid="764" duration="150"/>
    <frame tileid="772" duration="150"/>
    <frame tileid="780" duration="150"/>
    <frame tileid="788" duration="150"/>
    <frame tileid="796" duration="150"/>
   </animation>
  </tile>
  <tile id="765">
   <animation>
    <frame tileid="765" duration="150"/>
    <frame tileid="773" duration="150"/>
    <frame tileid="781" duration="150"/>
    <frame tileid="789" duration="150"/>
    <frame tileid="797" duration="150"/>
   </animation>
  </tile>
  <tile id="766">
   <animation>
    <frame tileid="766" duration="150"/>
    <frame tileid="774" duration="150"/>
    <frame tileid="782" duration="150"/>
    <frame tileid="790" duration="150"/>
    <frame tileid="798" duration="150"/>
   </animation>
  </tile>
  <tile id="802">
   <animation>
    <frame tileid="802" duration="150"/>
    <frame tileid="810" duration="150"/>
    <frame tileid="818" duration="150"/>
    <frame tileid="826" duration="150"/>
    <frame tileid="834" duration="150"/>
   </animation>
  </tile>
  <tile id="803">
   <animation>
    <frame tileid="803" duration="150"/>
    <frame tileid="811" duration="150"/>
    <frame tileid="819" duration="150"/>
    <frame tileid="827" duration="150"/>
    <frame tileid="835" duration="150"/>
   </animation>
  </tile>
  <tile id="804">
   <animation>
    <frame tileid="804" duration="150"/>
    <frame tileid="812" duration="150"/>
    <frame tileid="820" duration="150"/>
    <frame tileid="828" duration="150"/>
    <frame tileid="836" duration="150"/>
   </animation>
  </tile>
  <tile id="805">
   <animation>
    <frame tileid="805" duration="150"/>
    <frame tileid="813" duration="150"/>
    <frame tileid="821" duration="150"/>
    <frame tileid="829" duration="150"/>
    <frame tileid="837" duration="150"/>
   </animation>
  </tile>
  <tile id="806">
   <animation>
    <frame tileid="806" duration="150"/>
    <frame tileid="814" duration="150"/>
    <frame tileid="822" duration="150"/>
    <frame tileid="830" duration="150"/>
    <frame tileid="838" duration="150"/>
   </animation>
  </tile>
  <tile id="1043">
   <animation>
    <frame tileid="1043" duration="150"/>
    <frame tileid="1051" duration="150"/>
    <frame tileid="1059" duration="150"/>
    <frame tileid="1067" duration="150"/>
    <frame tileid="1075" duration="150"/>
   </animation>
  </tile>
  <tile id="1044">
   <animation>
    <frame tileid="1044" duration="150"/>
    <frame tileid="1052" duration="150"/>
    <frame tileid="1060" duration="150"/>
    <frame tileid="1068" duration="150"/>
    <frame tileid="1076" duration="150"/>
   </animation>
  </tile>
  <tile id="1045">
   <animation>
    <frame tileid="1045" duration="150"/>
    <frame tileid="1053" duration="150"/>
    <frame tileid="1061" duration="150"/>
    <frame tileid="1069" duration="150"/>
    <frame tileid="1077" duration="150"/>
   </animation>
  </tile>
  <tile id="1081">
   <animation>
    <frame tileid="1081" duration="150"/>
    <frame tileid="1089" duration="150"/>
    <frame tileid="1097" duration="150"/>
    <frame tileid="1105" duration="150"/>
    <frame tileid="1113" duration="150"/>
   </animation>
  </tile>
  <tile id="1082">
   <animation>
    <frame tileid="1082" duration="150"/>
    <frame tileid="1090" duration="150"/>
    <frame tileid="1098" duration="150"/>
    <frame tileid="1106" duration="150"/>
    <frame tileid="1114" duration="150"/>
   </animation>
  </tile>
  <tile id="1083">
   <animation>
    <frame tileid="1083" duration="150"/>
    <frame tileid="1091" duration="150"/>
    <frame tileid="1099" duration="150"/>
    <frame tileid="1107" duration="150"/>
    <frame tileid="1115" duration="150"/>
   </animation>
  </tile>
  <tile id="1084">
   <animation>
    <frame tileid="1084" duration="150"/>
    <frame tileid="1092" duration="150"/>
    <frame tileid="1100" duration="150"/>
    <frame tileid="1108" duration="150"/>
    <frame tileid="1116" duration="150"/>
   </animation>
  </tile>
  <tile id="1085">
   <animation>
    <frame tileid="1085" duration="150"/>
    <frame tileid="1093" duration="150"/>
    <frame tileid="1101" duration="150"/>
    <frame tileid="1109" duration="150"/>
    <frame tileid="1117" duration="150"/>
   </animation>
  </tile>
  <tile id="1121">
   <animation>
    <frame tileid="1121" duration="150"/>
    <frame tileid="1129" duration="150"/>
    <frame tileid="1137" duration="150"/>
    <frame tileid="1145" duration="150"/>
    <frame tileid="1153" duration="150"/>
   </animation>
  </tile>
  <tile id="1122">
   <animation>
    <frame tileid="1122" duration="150"/>
    <frame tileid="1130" duration="150"/>
    <frame tileid="1138" duration="150"/>
    <frame tileid="1146" duration="150"/>
    <frame tileid="1154" duration="150"/>
   </animation>
  </tile>
  <tile id="1123">
   <animation>
    <frame tileid="1123" duration="150"/>
    <frame tileid="1131" duration="150"/>
    <frame tileid="1139" duration="150"/>
    <frame tileid="1147" duration="150"/>
    <frame tileid="1155" duration="150"/>
   </animation>
  </tile>
  <tile id="1124">
   <animation>
    <frame tileid="1124" duration="150"/>
    <frame tileid="1132" duration="150"/>
    <frame tileid="1140" duration="150"/>
    <frame tileid="1148" duration="150"/>
    <frame tileid="1156" duration="150"/>
   </animation>
  </tile>
  <tile id="1125">
   <animation>
    <frame tileid="1125" duration="150"/>
    <frame tileid="1133" duration="150"/>
    <frame tileid="1141" duration="150"/>
    <frame tileid="1149" duration="150"/>
    <frame tileid="1157" duration="150"/>
   </animation>
  </tile>
 </tileset>
 <tileset firstgid="13825" name="Rat2_Hurt_full" tilewidth="16" tileheight="16" tilecount="1024" columns="32">
  <image source="Rat2_Hurt_body.png" width="512" height="512"/>
  <tile id="67">
   <animation>
    <frame tileid="67" duration="150"/>
    <frame tileid="75" duration="150"/>
    <frame tileid="83" duration="150"/>
    <frame tileid="91" duration="150"/>
   </animation>
  </tile>
  <tile id="68">
   <animation>
    <frame tileid="68" duration="150"/>
    <frame tileid="76" duration="150"/>
    <frame tileid="84" duration="150"/>
    <frame tileid="92" duration="150"/>
   </animation>
  </tile>
  <tile id="98">
   <animation>
    <frame tileid="98" duration="150"/>
    <frame tileid="106" duration="150"/>
    <frame tileid="114" duration="150"/>
    <frame tileid="122" duration="150"/>
   </animation>
  </tile>
  <tile id="99">
   <animation>
    <frame tileid="99" duration="150"/>
    <frame tileid="107" duration="150"/>
    <frame tileid="115" duration="150"/>
    <frame tileid="123" duration="150"/>
   </animation>
  </tile>
  <tile id="100">
   <animation>
    <frame tileid="100" duration="150"/>
    <frame tileid="108" duration="150"/>
    <frame tileid="116" duration="150"/>
    <frame tileid="124" duration="150"/>
   </animation>
  </tile>
  <tile id="101">
   <animation>
    <frame tileid="101" duration="150"/>
    <frame tileid="109" duration="150"/>
    <frame tileid="117" duration="150"/>
    <frame tileid="125" duration="150"/>
   </animation>
  </tile>
  <tile id="131">
   <animation>
    <frame tileid="131" duration="150"/>
    <frame tileid="139" duration="150"/>
    <frame tileid="147" duration="150"/>
    <frame tileid="155" duration="150"/>
   </animation>
  </tile>
  <tile id="132">
   <animation>
    <frame tileid="132" duration="150"/>
    <frame tileid="140" duration="150"/>
    <frame tileid="148" duration="150"/>
    <frame tileid="156" duration="150"/>
   </animation>
  </tile>
  <tile id="323">
   <animation>
    <frame tileid="323" duration="150"/>
    <frame tileid="331" duration="150"/>
    <frame tileid="339" duration="150"/>
    <frame tileid="347" duration="150"/>
   </animation>
  </tile>
  <tile id="324">
   <animation>
    <frame tileid="324" duration="150"/>
    <frame tileid="332" duration="150"/>
    <frame tileid="340" duration="150"/>
    <frame tileid="348" duration="150"/>
   </animation>
  </tile>
  <tile id="354">
   <animation>
    <frame tileid="354" duration="150"/>
    <frame tileid="362" duration="150"/>
    <frame tileid="370" duration="150"/>
    <frame tileid="378" duration="150"/>
   </animation>
  </tile>
  <tile id="355">
   <animation>
    <frame tileid="355" duration="150"/>
    <frame tileid="363" duration="150"/>
    <frame tileid="371" duration="150"/>
    <frame tileid="379" duration="150"/>
   </animation>
  </tile>
  <tile id="356">
   <animation>
    <frame tileid="356" duration="150"/>
    <frame tileid="364" duration="150"/>
    <frame tileid="372" duration="150"/>
    <frame tileid="380" duration="150"/>
   </animation>
  </tile>
  <tile id="357">
   <animation>
    <frame tileid="357" duration="150"/>
    <frame tileid="365" duration="150"/>
    <frame tileid="373" duration="150"/>
    <frame tileid="381" duration="150"/>
   </animation>
  </tile>
  <tile id="387">
   <animation>
    <frame tileid="387" duration="150"/>
    <frame tileid="395" duration="150"/>
    <frame tileid="403" duration="150"/>
    <frame tileid="411" duration="150"/>
   </animation>
  </tile>
  <tile id="388">
   <animation>
    <frame tileid="388" duration="150"/>
    <frame tileid="396" duration="150"/>
    <frame tileid="404" duration="150"/>
    <frame tileid="412" duration="150"/>
   </animation>
  </tile>
  <tile id="578">
   <animation>
    <frame tileid="578" duration="150"/>
    <frame tileid="586" duration="150"/>
    <frame tileid="594" duration="150"/>
    <frame tileid="602" duration="150"/>
   </animation>
  </tile>
  <tile id="579">
   <animation>
    <frame tileid="579" duration="150"/>
    <frame tileid="587" duration="150"/>
    <frame tileid="595" duration="150"/>
    <frame tileid="603" duration="150"/>
   </animation>
  </tile>
  <tile id="580">
   <animation>
    <frame tileid="580" duration="150"/>
    <frame tileid="588" duration="150"/>
    <frame tileid="596" duration="150"/>
    <frame tileid="604" duration="150"/>
   </animation>
  </tile>
  <tile id="610">
   <animation>
    <frame tileid="610" duration="150"/>
    <frame tileid="618" duration="150"/>
    <frame tileid="626" duration="150"/>
    <frame tileid="634" duration="150"/>
   </animation>
  </tile>
  <tile id="611">
   <animation>
    <frame tileid="611" duration="150"/>
    <frame tileid="619" duration="150"/>
    <frame tileid="627" duration="150"/>
    <frame tileid="635" duration="150"/>
   </animation>
  </tile>
  <tile id="612">
   <animation>
    <frame tileid="612" duration="150"/>
    <frame tileid="620" duration="150"/>
    <frame tileid="628" duration="150"/>
    <frame tileid="636" duration="150"/>
   </animation>
  </tile>
  <tile id="613">
   <animation>
    <frame tileid="613" duration="150"/>
    <frame tileid="621" duration="150"/>
    <frame tileid="629" duration="150"/>
    <frame tileid="637" duration="150"/>
   </animation>
  </tile>
  <tile id="642">
   <animation>
    <frame tileid="642" duration="150"/>
    <frame tileid="650" duration="150"/>
    <frame tileid="658" duration="150"/>
    <frame tileid="666" duration="150"/>
   </animation>
  </tile>
  <tile id="643">
   <animation>
    <frame tileid="643" duration="150"/>
    <frame tileid="651" duration="150"/>
    <frame tileid="659" duration="150"/>
    <frame tileid="667" duration="150"/>
   </animation>
  </tile>
  <tile id="644">
   <animation>
    <frame tileid="644" duration="150"/>
    <frame tileid="652" duration="150"/>
    <frame tileid="660" duration="150"/>
    <frame tileid="668" duration="150"/>
   </animation>
  </tile>
  <tile id="645">
   <animation>
    <frame tileid="645" duration="150"/>
    <frame tileid="653" duration="150"/>
    <frame tileid="661" duration="150"/>
    <frame tileid="669" duration="150"/>
   </animation>
  </tile>
  <tile id="646">
   <animation>
    <frame tileid="646" duration="150"/>
    <frame tileid="654" duration="150"/>
    <frame tileid="662" duration="150"/>
    <frame tileid="670" duration="150"/>
   </animation>
  </tile>
  <tile id="835">
   <animation>
    <frame tileid="835" duration="150"/>
    <frame tileid="843" duration="150"/>
    <frame tileid="851" duration="150"/>
    <frame tileid="859" duration="150"/>
   </animation>
  </tile>
  <tile id="836">
   <animation>
    <frame tileid="836" duration="150"/>
    <frame tileid="844" duration="150"/>
    <frame tileid="852" duration="150"/>
    <frame tileid="860" duration="150"/>
   </animation>
  </tile>
  <tile id="837">
   <animation>
    <frame tileid="837" duration="150"/>
    <frame tileid="845" duration="150"/>
    <frame tileid="853" duration="150"/>
    <frame tileid="861" duration="150"/>
   </animation>
  </tile>
  <tile id="866">
   <animation>
    <frame tileid="866" duration="150"/>
    <frame tileid="874" duration="150"/>
    <frame tileid="882" duration="150"/>
    <frame tileid="890" duration="150"/>
   </animation>
  </tile>
  <tile id="867">
   <animation>
    <frame tileid="867" duration="150"/>
    <frame tileid="875" duration="150"/>
    <frame tileid="883" duration="150"/>
    <frame tileid="891" duration="150"/>
   </animation>
  </tile>
  <tile id="868">
   <animation>
    <frame tileid="868" duration="150"/>
    <frame tileid="876" duration="150"/>
    <frame tileid="884" duration="150"/>
    <frame tileid="892" duration="150"/>
   </animation>
  </tile>
  <tile id="869">
   <animation>
    <frame tileid="869" duration="150"/>
    <frame tileid="877" duration="150"/>
    <frame tileid="885" duration="150"/>
    <frame tileid="893" duration="150"/>
   </animation>
  </tile>
  <tile id="897">
   <animation>
    <frame tileid="897" duration="150"/>
    <frame tileid="905" duration="150"/>
    <frame tileid="913" duration="150"/>
    <frame tileid="921" duration="150"/>
   </animation>
  </tile>
  <tile id="898">
   <animation>
    <frame tileid="898" duration="150"/>
    <frame tileid="906" duration="150"/>
    <frame tileid="914" duration="150"/>
    <frame tileid="922" duration="150"/>
   </animation>
  </tile>
  <tile id="899">
   <animation>
    <frame tileid="899" duration="150"/>
    <frame tileid="907" duration="150"/>
    <frame tileid="915" duration="150"/>
    <frame tileid="923" duration="150"/>
   </animation>
  </tile>
  <tile id="900">
   <animation>
    <frame tileid="900" duration="150"/>
    <frame tileid="908" duration="150"/>
    <frame tileid="916" duration="150"/>
    <frame tileid="924" duration="150"/>
   </animation>
  </tile>
  <tile id="901">
   <animation>
    <frame tileid="901" duration="150"/>
    <frame tileid="909" duration="150"/>
    <frame tileid="917" duration="150"/>
    <frame tileid="925" duration="150"/>
   </animation>
  </tile>
 </tileset>
 <tileset firstgid="14849" name="Rat2_Idle_full" tilewidth="16" tileheight="16" tilecount="1536" columns="48">
  <image source="Rat2_Idle_body.png" width="768" height="512"/>
  <tile id="99">
   <animation>
    <frame tileid="99" duration="150"/>
    <frame tileid="107" duration="150"/>
    <frame tileid="115" duration="150"/>
    <frame tileid="123" duration="150"/>
    <frame tileid="131" duration="150"/>
    <frame tileid="139" duration="150"/>
   </animation>
  </tile>
  <tile id="100">
   <animation>
    <frame tileid="100" duration="150"/>
    <frame tileid="108" duration="150"/>
    <frame tileid="116" duration="150"/>
    <frame tileid="124" duration="150"/>
    <frame tileid="132" duration="150"/>
    <frame tileid="140" duration="150"/>
   </animation>
  </tile>
  <tile id="146">
   <animation>
    <frame tileid="146" duration="150"/>
    <frame tileid="154" duration="150"/>
    <frame tileid="162" duration="150"/>
    <frame tileid="170" duration="150"/>
    <frame tileid="178" duration="150"/>
    <frame tileid="186" duration="150"/>
   </animation>
  </tile>
  <tile id="147">
   <animation>
    <frame tileid="147" duration="150"/>
    <frame tileid="155" duration="150"/>
    <frame tileid="163" duration="150"/>
    <frame tileid="171" duration="150"/>
    <frame tileid="179" duration="150"/>
    <frame tileid="187" duration="150"/>
   </animation>
  </tile>
  <tile id="148">
   <animation>
    <frame tileid="148" duration="150"/>
    <frame tileid="156" duration="150"/>
    <frame tileid="164" duration="150"/>
    <frame tileid="172" duration="150"/>
    <frame tileid="180" duration="150"/>
    <frame tileid="188" duration="150"/>
   </animation>
  </tile>
  <tile id="149">
   <animation>
    <frame tileid="149" duration="150"/>
    <frame tileid="157" duration="150"/>
    <frame tileid="165" duration="150"/>
    <frame tileid="173" duration="150"/>
    <frame tileid="181" duration="150"/>
    <frame tileid="189" duration="150"/>
   </animation>
  </tile>
  <tile id="195">
   <animation>
    <frame tileid="195" duration="150"/>
    <frame tileid="203" duration="150"/>
    <frame tileid="211" duration="150"/>
    <frame tileid="219" duration="150"/>
    <frame tileid="227" duration="150"/>
    <frame tileid="235" duration="150"/>
   </animation>
  </tile>
  <tile id="196">
   <animation>
    <frame tileid="196" duration="150"/>
    <frame tileid="204" duration="150"/>
    <frame tileid="212" duration="150"/>
    <frame tileid="220" duration="150"/>
    <frame tileid="228" duration="150"/>
    <frame tileid="236" duration="150"/>
   </animation>
  </tile>
  <tile id="483">
   <animation>
    <frame tileid="483" duration="150"/>
    <frame tileid="491" duration="150"/>
    <frame tileid="499" duration="150"/>
    <frame tileid="507" duration="150"/>
    <frame tileid="515" duration="150"/>
    <frame tileid="523" duration="150"/>
   </animation>
  </tile>
  <tile id="484">
   <animation>
    <frame tileid="484" duration="150"/>
    <frame tileid="492" duration="150"/>
    <frame tileid="500" duration="150"/>
    <frame tileid="508" duration="150"/>
    <frame tileid="516" duration="150"/>
    <frame tileid="524" duration="150"/>
   </animation>
  </tile>
  <tile id="530">
   <animation>
    <frame tileid="530" duration="150"/>
    <frame tileid="538" duration="150"/>
    <frame tileid="546" duration="150"/>
    <frame tileid="554" duration="150"/>
    <frame tileid="562" duration="150"/>
    <frame tileid="570" duration="150"/>
   </animation>
  </tile>
  <tile id="531">
   <animation>
    <frame tileid="531" duration="150"/>
    <frame tileid="539" duration="150"/>
    <frame tileid="547" duration="150"/>
    <frame tileid="555" duration="150"/>
    <frame tileid="563" duration="150"/>
    <frame tileid="571" duration="150"/>
   </animation>
  </tile>
  <tile id="532">
   <animation>
    <frame tileid="532" duration="150"/>
    <frame tileid="540" duration="150"/>
    <frame tileid="548" duration="150"/>
    <frame tileid="556" duration="150"/>
    <frame tileid="564" duration="150"/>
    <frame tileid="572" duration="150"/>
   </animation>
  </tile>
  <tile id="533">
   <animation>
    <frame tileid="533" duration="150"/>
    <frame tileid="541" duration="150"/>
    <frame tileid="549" duration="150"/>
    <frame tileid="557" duration="150"/>
    <frame tileid="565" duration="150"/>
    <frame tileid="573" duration="150"/>
   </animation>
  </tile>
  <tile id="579">
   <animation>
    <frame tileid="579" duration="150"/>
    <frame tileid="587" duration="150"/>
    <frame tileid="595" duration="150"/>
    <frame tileid="603" duration="150"/>
    <frame tileid="611" duration="150"/>
    <frame tileid="619" duration="150"/>
   </animation>
  </tile>
  <tile id="580">
   <animation>
    <frame tileid="580" duration="150"/>
    <frame tileid="588" duration="150"/>
    <frame tileid="596" duration="150"/>
    <frame tileid="604" duration="150"/>
    <frame tileid="612" duration="150"/>
    <frame tileid="620" duration="150"/>
   </animation>
  </tile>
  <tile id="866">
   <animation>
    <frame tileid="866" duration="150"/>
    <frame tileid="874" duration="150"/>
    <frame tileid="882" duration="150"/>
    <frame tileid="890" duration="150"/>
    <frame tileid="898" duration="150"/>
    <frame tileid="906" duration="150"/>
   </animation>
  </tile>
  <tile id="867">
   <animation>
    <frame tileid="867" duration="150"/>
    <frame tileid="875" duration="150"/>
    <frame tileid="883" duration="150"/>
    <frame tileid="891" duration="150"/>
    <frame tileid="899" duration="150"/>
    <frame tileid="907" duration="150"/>
   </animation>
  </tile>
  <tile id="868">
   <animation>
    <frame tileid="868" duration="150"/>
    <frame tileid="876" duration="150"/>
    <frame tileid="884" duration="150"/>
    <frame tileid="892" duration="150"/>
    <frame tileid="900" duration="150"/>
    <frame tileid="908" duration="150"/>
   </animation>
  </tile>
  <tile id="869">
   <animation>
    <frame tileid="869" duration="150"/>
    <frame tileid="877" duration="150"/>
    <frame tileid="885" duration="150"/>
    <frame tileid="893" duration="150"/>
    <frame tileid="901" duration="150"/>
    <frame tileid="909" duration="150"/>
   </animation>
  </tile>
  <tile id="914">
   <animation>
    <frame tileid="914" duration="150"/>
    <frame tileid="922" duration="150"/>
    <frame tileid="930" duration="150"/>
    <frame tileid="938" duration="150"/>
    <frame tileid="946" duration="150"/>
    <frame tileid="954" duration="150"/>
   </animation>
  </tile>
  <tile id="915">
   <animation>
    <frame tileid="915" duration="150"/>
    <frame tileid="923" duration="150"/>
    <frame tileid="931" duration="150"/>
    <frame tileid="939" duration="150"/>
    <frame tileid="947" duration="150"/>
    <frame tileid="955" duration="150"/>
   </animation>
  </tile>
  <tile id="916">
   <animation>
    <frame tileid="916" duration="150"/>
    <frame tileid="924" duration="150"/>
    <frame tileid="932" duration="150"/>
    <frame tileid="940" duration="150"/>
    <frame tileid="948" duration="150"/>
    <frame tileid="956" duration="150"/>
   </animation>
  </tile>
  <tile id="917">
   <animation>
    <frame tileid="917" duration="150"/>
    <frame tileid="925" duration="150"/>
    <frame tileid="933" duration="150"/>
    <frame tileid="941" duration="150"/>
    <frame tileid="949" duration="150"/>
    <frame tileid="957" duration="150"/>
   </animation>
  </tile>
  <tile id="962">
   <animation>
    <frame tileid="962" duration="150"/>
    <frame tileid="970" duration="150"/>
    <frame tileid="978" duration="150"/>
    <frame tileid="986" duration="150"/>
    <frame tileid="994" duration="150"/>
    <frame tileid="1002" duration="150"/>
   </animation>
  </tile>
  <tile id="963">
   <animation>
    <frame tileid="963" duration="150"/>
    <frame tileid="971" duration="150"/>
    <frame tileid="979" duration="150"/>
    <frame tileid="987" duration="150"/>
    <frame tileid="995" duration="150"/>
    <frame tileid="1003" duration="150"/>
   </animation>
  </tile>
  <tile id="964">
   <animation>
    <frame tileid="964" duration="150"/>
    <frame tileid="972" duration="150"/>
    <frame tileid="980" duration="150"/>
    <frame tileid="988" duration="150"/>
    <frame tileid="996" duration="150"/>
    <frame tileid="1004" duration="150"/>
   </animation>
  </tile>
  <tile id="965">
   <animation>
    <frame tileid="965" duration="150"/>
    <frame tileid="973" duration="150"/>
    <frame tileid="981" duration="150"/>
    <frame tileid="989" duration="150"/>
    <frame tileid="997" duration="150"/>
    <frame tileid="1005" duration="150"/>
   </animation>
  </tile>
  <tile id="966">
   <animation>
    <frame tileid="966" duration="150"/>
    <frame tileid="974" duration="150"/>
    <frame tileid="982" duration="150"/>
    <frame tileid="990" duration="150"/>
    <frame tileid="998" duration="150"/>
    <frame tileid="1006" duration="150"/>
   </animation>
  </tile>
  <tile id="1250">
   <animation>
    <frame tileid="1250" duration="150"/>
    <frame tileid="1258" duration="150"/>
    <frame tileid="1266" duration="150"/>
    <frame tileid="1274" duration="150"/>
    <frame tileid="1282" duration="150"/>
    <frame tileid="1290" duration="150"/>
   </animation>
  </tile>
  <tile id="1251">
   <animation>
    <frame tileid="1251" duration="150"/>
    <frame tileid="1259" duration="150"/>
    <frame tileid="1267" duration="150"/>
    <frame tileid="1275" duration="150"/>
    <frame tileid="1283" duration="150"/>
    <frame tileid="1291" duration="150"/>
   </animation>
  </tile>
  <tile id="1252">
   <animation>
    <frame tileid="1252" duration="150"/>
    <frame tileid="1260" duration="150"/>
    <frame tileid="1268" duration="150"/>
    <frame tileid="1276" duration="150"/>
    <frame tileid="1284" duration="150"/>
    <frame tileid="1292" duration="150"/>
   </animation>
  </tile>
  <tile id="1253">
   <animation>
    <frame tileid="1253" duration="150"/>
    <frame tileid="1261" duration="150"/>
    <frame tileid="1269" duration="150"/>
    <frame tileid="1277" duration="150"/>
    <frame tileid="1285" duration="150"/>
    <frame tileid="1293" duration="150"/>
   </animation>
  </tile>
  <tile id="1298">
   <animation>
    <frame tileid="1298" duration="150"/>
    <frame tileid="1306" duration="150"/>
    <frame tileid="1314" duration="150"/>
    <frame tileid="1322" duration="150"/>
    <frame tileid="1330" duration="150"/>
    <frame tileid="1338" duration="150"/>
   </animation>
  </tile>
  <tile id="1299">
   <animation>
    <frame tileid="1299" duration="150"/>
    <frame tileid="1307" duration="150"/>
    <frame tileid="1315" duration="150"/>
    <frame tileid="1323" duration="150"/>
    <frame tileid="1331" duration="150"/>
    <frame tileid="1339" duration="150"/>
   </animation>
  </tile>
  <tile id="1300">
   <animation>
    <frame tileid="1300" duration="150"/>
    <frame tileid="1308" duration="150"/>
    <frame tileid="1316" duration="150"/>
    <frame tileid="1324" duration="150"/>
    <frame tileid="1332" duration="150"/>
    <frame tileid="1340" duration="150"/>
   </animation>
  </tile>
  <tile id="1301">
   <animation>
    <frame tileid="1301" duration="150"/>
    <frame tileid="1309" duration="150"/>
    <frame tileid="1317" duration="150"/>
    <frame tileid="1325" duration="150"/>
    <frame tileid="1333" duration="150"/>
    <frame tileid="1341" duration="150"/>
   </animation>
  </tile>
  <tile id="1345">
   <animation>
    <frame tileid="1345" duration="150"/>
    <frame tileid="1353" duration="150"/>
    <frame tileid="1361" duration="150"/>
    <frame tileid="1369" duration="150"/>
    <frame tileid="1377" duration="150"/>
    <frame tileid="1385" duration="150"/>
   </animation>
  </tile>
  <tile id="1346">
   <animation>
    <frame tileid="1346" duration="150"/>
    <frame tileid="1354" duration="150"/>
    <frame tileid="1362" duration="150"/>
    <frame tileid="1370" duration="150"/>
    <frame tileid="1378" duration="150"/>
    <frame tileid="1386" duration="150"/>
   </animation>
  </tile>
  <tile id="1347">
   <animation>
    <frame tileid="1347" duration="150"/>
    <frame tileid="1355" duration="150"/>
    <frame tileid="1363" duration="150"/>
    <frame tileid="1371" duration="150"/>
    <frame tileid="1379" duration="150"/>
    <frame tileid="1387" duration="150"/>
   </animation>
  </tile>
  <tile id="1348">
   <animation>
    <frame tileid="1348" duration="150"/>
    <frame tileid="1356" duration="150"/>
    <frame tileid="1364" duration="150"/>
    <frame tileid="1372" duration="150"/>
    <frame tileid="1380" duration="150"/>
    <frame tileid="1388" duration="150"/>
   </animation>
  </tile>
  <tile id="1349">
   <animation>
    <frame tileid="1349" duration="150"/>
    <frame tileid="1357" duration="150"/>
    <frame tileid="1365" duration="150"/>
    <frame tileid="1373" duration="150"/>
    <frame tileid="1381" duration="150"/>
    <frame tileid="1389" duration="150"/>
   </animation>
  </tile>
 </tileset>
 <tileset firstgid="16385" name="Rat2_Run_full" tilewidth="16" tileheight="16" tilecount="1536" columns="48">
  <image source="Rat2_Run_body.png" width="768" height="512"/>
  <tile id="98">
   <animation>
    <frame tileid="98" duration="150"/>
    <frame tileid="106" duration="150"/>
    <frame tileid="114" duration="150"/>
    <frame tileid="122" duration="150"/>
    <frame tileid="130" duration="150"/>
    <frame tileid="138" duration="150"/>
   </animation>
  </tile>
  <tile id="99">
   <animation>
    <frame tileid="99" duration="150"/>
    <frame tileid="107" duration="150"/>
    <frame tileid="115" duration="150"/>
    <frame tileid="123" duration="150"/>
    <frame tileid="131" duration="150"/>
    <frame tileid="139" duration="150"/>
   </animation>
  </tile>
  <tile id="100">
   <animation>
    <frame tileid="100" duration="150"/>
    <frame tileid="108" duration="150"/>
    <frame tileid="116" duration="150"/>
    <frame tileid="124" duration="150"/>
    <frame tileid="132" duration="150"/>
    <frame tileid="140" duration="150"/>
   </animation>
  </tile>
  <tile id="101">
   <animation>
    <frame tileid="101" duration="150"/>
    <frame tileid="109" duration="150"/>
    <frame tileid="117" duration="150"/>
    <frame tileid="125" duration="150"/>
    <frame tileid="133" duration="150"/>
    <frame tileid="141" duration="150"/>
   </animation>
  </tile>
  <tile id="146">
   <animation>
    <frame tileid="146" duration="150"/>
    <frame tileid="154" duration="150"/>
    <frame tileid="162" duration="150"/>
    <frame tileid="170" duration="150"/>
    <frame tileid="178" duration="150"/>
    <frame tileid="186" duration="150"/>
   </animation>
  </tile>
  <tile id="147">
   <animation>
    <frame tileid="147" duration="150"/>
    <frame tileid="155" duration="150"/>
    <frame tileid="163" duration="150"/>
    <frame tileid="171" duration="150"/>
    <frame tileid="179" duration="150"/>
    <frame tileid="187" duration="150"/>
   </animation>
  </tile>
  <tile id="148">
   <animation>
    <frame tileid="148" duration="150"/>
    <frame tileid="156" duration="150"/>
    <frame tileid="164" duration="150"/>
    <frame tileid="172" duration="150"/>
    <frame tileid="180" duration="150"/>
    <frame tileid="188" duration="150"/>
   </animation>
  </tile>
  <tile id="149">
   <animation>
    <frame tileid="149" duration="150"/>
    <frame tileid="157" duration="150"/>
    <frame tileid="165" duration="150"/>
    <frame tileid="173" duration="150"/>
    <frame tileid="181" duration="150"/>
    <frame tileid="189" duration="150"/>
   </animation>
  </tile>
  <tile id="195">
   <animation>
    <frame tileid="195" duration="150"/>
    <frame tileid="203" duration="150"/>
    <frame tileid="211" duration="150"/>
    <frame tileid="219" duration="150"/>
    <frame tileid="227" duration="150"/>
    <frame tileid="235" duration="150"/>
   </animation>
  </tile>
  <tile id="196">
   <animation>
    <frame tileid="196" duration="150"/>
    <frame tileid="204" duration="150"/>
    <frame tileid="212" duration="150"/>
    <frame tileid="220" duration="150"/>
    <frame tileid="228" duration="150"/>
    <frame tileid="236" duration="150"/>
   </animation>
  </tile>
  <tile id="482">
   <animation>
    <frame tileid="482" duration="150"/>
    <frame tileid="490" duration="150"/>
    <frame tileid="498" duration="150"/>
    <frame tileid="506" duration="150"/>
    <frame tileid="514" duration="150"/>
    <frame tileid="522" duration="150"/>
   </animation>
  </tile>
  <tile id="483">
   <animation>
    <frame tileid="483" duration="150"/>
    <frame tileid="491" duration="150"/>
    <frame tileid="499" duration="150"/>
    <frame tileid="507" duration="150"/>
    <frame tileid="515" duration="150"/>
    <frame tileid="523" duration="150"/>
   </animation>
  </tile>
  <tile id="484">
   <animation>
    <frame tileid="484" duration="150"/>
    <frame tileid="492" duration="150"/>
    <frame tileid="500" duration="150"/>
    <frame tileid="508" duration="150"/>
    <frame tileid="516" duration="150"/>
    <frame tileid="524" duration="150"/>
   </animation>
  </tile>
  <tile id="485">
   <animation>
    <frame tileid="485" duration="150"/>
    <frame tileid="493" duration="150"/>
    <frame tileid="501" duration="150"/>
    <frame tileid="509" duration="150"/>
    <frame tileid="517" duration="150"/>
    <frame tileid="525" duration="150"/>
   </animation>
  </tile>
  <tile id="530">
   <animation>
    <frame tileid="530" duration="150"/>
    <frame tileid="538" duration="150"/>
    <frame tileid="546" duration="150"/>
    <frame tileid="554" duration="150"/>
    <frame tileid="562" duration="150"/>
    <frame tileid="570" duration="150"/>
   </animation>
  </tile>
  <tile id="531">
   <animation>
    <frame tileid="531" duration="150"/>
    <frame tileid="539" duration="150"/>
    <frame tileid="547" duration="150"/>
    <frame tileid="555" duration="150"/>
    <frame tileid="563" duration="150"/>
    <frame tileid="571" duration="150"/>
   </animation>
  </tile>
  <tile id="532">
   <animation>
    <frame tileid="532" duration="150"/>
    <frame tileid="540" duration="150"/>
    <frame tileid="548" duration="150"/>
    <frame tileid="556" duration="150"/>
    <frame tileid="564" duration="150"/>
    <frame tileid="572" duration="150"/>
   </animation>
  </tile>
  <tile id="533">
   <animation>
    <frame tileid="533" duration="150"/>
    <frame tileid="541" duration="150"/>
    <frame tileid="549" duration="150"/>
    <frame tileid="557" duration="150"/>
    <frame tileid="565" duration="150"/>
    <frame tileid="573" duration="150"/>
   </animation>
  </tile>
  <tile id="579">
   <animation>
    <frame tileid="579" duration="150"/>
    <frame tileid="587" duration="150"/>
    <frame tileid="595" duration="150"/>
    <frame tileid="603" duration="150"/>
    <frame tileid="611" duration="150"/>
    <frame tileid="619" duration="150"/>
   </animation>
  </tile>
  <tile id="580">
   <animation>
    <frame tileid="580" duration="150"/>
    <frame tileid="588" duration="150"/>
    <frame tileid="596" duration="150"/>
    <frame tileid="604" duration="150"/>
    <frame tileid="612" duration="150"/>
    <frame tileid="620" duration="150"/>
   </animation>
  </tile>
  <tile id="866">
   <animation>
    <frame tileid="866" duration="150"/>
    <frame tileid="874" duration="150"/>
    <frame tileid="882" duration="150"/>
    <frame tileid="890" duration="150"/>
    <frame tileid="898" duration="150"/>
    <frame tileid="906" duration="150"/>
   </animation>
  </tile>
  <tile id="867">
   <animation>
    <frame tileid="867" duration="150"/>
    <frame tileid="875" duration="150"/>
    <frame tileid="883" duration="150"/>
    <frame tileid="891" duration="150"/>
    <frame tileid="899" duration="150"/>
    <frame tileid="907" duration="150"/>
   </animation>
  </tile>
  <tile id="868">
   <animation>
    <frame tileid="868" duration="150"/>
    <frame tileid="876" duration="150"/>
    <frame tileid="884" duration="150"/>
    <frame tileid="892" duration="150"/>
    <frame tileid="900" duration="150"/>
    <frame tileid="908" duration="150"/>
   </animation>
  </tile>
  <tile id="869">
   <animation>
    <frame tileid="869" duration="150"/>
    <frame tileid="877" duration="150"/>
    <frame tileid="885" duration="150"/>
    <frame tileid="893" duration="150"/>
    <frame tileid="901" duration="150"/>
    <frame tileid="909" duration="150"/>
   </animation>
  </tile>
  <tile id="914">
   <animation>
    <frame tileid="914" duration="150"/>
    <frame tileid="922" duration="150"/>
    <frame tileid="930" duration="150"/>
    <frame tileid="938" duration="150"/>
    <frame tileid="946" duration="150"/>
    <frame tileid="954" duration="150"/>
   </animation>
  </tile>
  <tile id="915">
   <animation>
    <frame tileid="915" duration="150"/>
    <frame tileid="923" duration="150"/>
    <frame tileid="931" duration="150"/>
    <frame tileid="939" duration="150"/>
    <frame tileid="947" duration="150"/>
    <frame tileid="955" duration="150"/>
   </animation>
  </tile>
  <tile id="916">
   <animation>
    <frame tileid="916" duration="150"/>
    <frame tileid="924" duration="150"/>
    <frame tileid="932" duration="150"/>
    <frame tileid="940" duration="150"/>
    <frame tileid="948" duration="150"/>
    <frame tileid="956" duration="150"/>
   </animation>
  </tile>
  <tile id="917">
   <animation>
    <frame tileid="917" duration="150"/>
    <frame tileid="925" duration="150"/>
    <frame tileid="933" duration="150"/>
    <frame tileid="941" duration="150"/>
    <frame tileid="949" duration="150"/>
    <frame tileid="957" duration="150"/>
   </animation>
  </tile>
  <tile id="918">
   <animation>
    <frame tileid="918" duration="150"/>
    <frame tileid="926" duration="150"/>
    <frame tileid="934" duration="150"/>
    <frame tileid="942" duration="150"/>
    <frame tileid="950" duration="150"/>
    <frame tileid="958" duration="150"/>
   </animation>
  </tile>
  <tile id="962">
   <animation>
    <frame tileid="962" duration="150"/>
    <frame tileid="970" duration="150"/>
    <frame tileid="978" duration="150"/>
    <frame tileid="986" duration="150"/>
    <frame tileid="994" duration="150"/>
    <frame tileid="1002" duration="150"/>
   </animation>
  </tile>
  <tile id="963">
   <animation>
    <frame tileid="963" duration="150"/>
    <frame tileid="971" duration="150"/>
    <frame tileid="979" duration="150"/>
    <frame tileid="987" duration="150"/>
    <frame tileid="995" duration="150"/>
    <frame tileid="1003" duration="150"/>
   </animation>
  </tile>
  <tile id="964">
   <animation>
    <frame tileid="964" duration="150"/>
    <frame tileid="972" duration="150"/>
    <frame tileid="980" duration="150"/>
    <frame tileid="988" duration="150"/>
    <frame tileid="996" duration="150"/>
    <frame tileid="1004" duration="150"/>
   </animation>
  </tile>
  <tile id="965">
   <animation>
    <frame tileid="965" duration="150"/>
    <frame tileid="973" duration="150"/>
    <frame tileid="981" duration="150"/>
    <frame tileid="989" duration="150"/>
    <frame tileid="997" duration="150"/>
    <frame tileid="1005" duration="150"/>
   </animation>
  </tile>
  <tile id="966">
   <animation>
    <frame tileid="966" duration="150"/>
    <frame tileid="974" duration="150"/>
    <frame tileid="982" duration="150"/>
    <frame tileid="990" duration="150"/>
    <frame tileid="998" duration="150"/>
    <frame tileid="1006" duration="150"/>
   </animation>
  </tile>
  <tile id="1250">
   <animation>
    <frame tileid="1250" duration="150"/>
    <frame tileid="1258" duration="150"/>
    <frame tileid="1266" duration="150"/>
    <frame tileid="1273" duration="150"/>
    <frame tileid="1282" duration="150"/>
    <frame tileid="1290" duration="150"/>
   </animation>
  </tile>
  <tile id="1251">
   <animation>
    <frame tileid="1251" duration="150"/>
    <frame tileid="1259" duration="150"/>
    <frame tileid="1267" duration="150"/>
    <frame tileid="1275" duration="150"/>
    <frame tileid="1283" duration="150"/>
    <frame tileid="1291" duration="150"/>
   </animation>
  </tile>
  <tile id="1252">
   <animation>
    <frame tileid="1252" duration="150"/>
    <frame tileid="1260" duration="150"/>
    <frame tileid="1268" duration="150"/>
    <frame tileid="1276" duration="150"/>
    <frame tileid="1284" duration="150"/>
    <frame tileid="1292" duration="150"/>
   </animation>
  </tile>
  <tile id="1253">
   <animation>
    <frame tileid="1253" duration="150"/>
    <frame tileid="1261" duration="150"/>
    <frame tileid="1269" duration="150"/>
    <frame tileid="1277" duration="150"/>
    <frame tileid="1285" duration="150"/>
    <frame tileid="1293" duration="150"/>
   </animation>
  </tile>
  <tile id="1297">
   <animation>
    <frame tileid="1297" duration="150"/>
    <frame tileid="1305" duration="150"/>
    <frame tileid="1313" duration="150"/>
    <frame tileid="1321" duration="150"/>
    <frame tileid="1329" duration="150"/>
    <frame tileid="1337" duration="150"/>
   </animation>
  </tile>
  <tile id="1298">
   <animation>
    <frame tileid="1298" duration="150"/>
    <frame tileid="1306" duration="150"/>
    <frame tileid="1314" duration="150"/>
    <frame tileid="1322" duration="150"/>
    <frame tileid="1330" duration="150"/>
    <frame tileid="1338" duration="150"/>
   </animation>
  </tile>
  <tile id="1299">
   <animation>
    <frame tileid="1299" duration="150"/>
    <frame tileid="1307" duration="150"/>
    <frame tileid="1315" duration="150"/>
    <frame tileid="1323" duration="150"/>
    <frame tileid="1331" duration="150"/>
    <frame tileid="1339" duration="150"/>
   </animation>
  </tile>
  <tile id="1300">
   <animation>
    <frame tileid="1300" duration="150"/>
    <frame tileid="1308" duration="150"/>
    <frame tileid="1316" duration="150"/>
    <frame tileid="1324" duration="150"/>
    <frame tileid="1332" duration="150"/>
    <frame tileid="1340" duration="150"/>
   </animation>
  </tile>
  <tile id="1301">
   <animation>
    <frame tileid="1301" duration="150"/>
    <frame tileid="1309" duration="150"/>
    <frame tileid="1317" duration="150"/>
    <frame tileid="1325" duration="150"/>
    <frame tileid="1333" duration="150"/>
    <frame tileid="1341" duration="150"/>
   </animation>
  </tile>
  <tile id="1345">
   <animation>
    <frame tileid="1345" duration="150"/>
    <frame tileid="1353" duration="150"/>
    <frame tileid="1361" duration="150"/>
    <frame tileid="1369" duration="150"/>
    <frame tileid="1377" duration="150"/>
    <frame tileid="1385" duration="150"/>
   </animation>
  </tile>
  <tile id="1346">
   <animation>
    <frame tileid="1346" duration="150"/>
    <frame tileid="1354" duration="150"/>
    <frame tileid="1362" duration="150"/>
    <frame tileid="1370" duration="150"/>
    <frame tileid="1378" duration="150"/>
    <frame tileid="1386" duration="150"/>
   </animation>
  </tile>
  <tile id="1347">
   <animation>
    <frame tileid="1347" duration="150"/>
    <frame tileid="1355" duration="150"/>
    <frame tileid="1363" duration="150"/>
    <frame tileid="1371" duration="150"/>
    <frame tileid="1379" duration="150"/>
    <frame tileid="1387" duration="150"/>
   </animation>
  </tile>
  <tile id="1348">
   <animation>
    <frame tileid="1348" duration="150"/>
    <frame tileid="1356" duration="150"/>
    <frame tileid="1364" duration="150"/>
    <frame tileid="1372" duration="150"/>
    <frame tileid="1380" duration="150"/>
    <frame tileid="1388" duration="150"/>
   </animation>
  </tile>
  <tile id="1349">
   <animation>
    <frame tileid="1349" duration="150"/>
    <frame tileid="1357" duration="150"/>
    <frame tileid="1365" duration="150"/>
    <frame tileid="1373" duration="150"/>
    <frame tileid="1381" duration="150"/>
    <frame tileid="1389" duration="150"/>
   </animation>
  </tile>
 </tileset>
 <tileset firstgid="17921" name="Rat2_Idle_full" tilewidth="16" tileheight="16" tilecount="1536" columns="48">
  <image source="Rat2_Idle_head.png" width="768" height="512"/>
  <tile id="99">
   <animation>
    <frame tileid="99" duration="150"/>
    <frame tileid="107" duration="150"/>
    <frame tileid="115" duration="150"/>
    <frame tileid="123" duration="150"/>
    <frame tileid="131" duration="150"/>
    <frame tileid="139" duration="150"/>
   </animation>
  </tile>
  <tile id="100">
   <animation>
    <frame tileid="100" duration="150"/>
    <frame tileid="108" duration="150"/>
    <frame tileid="116" duration="150"/>
    <frame tileid="124" duration="150"/>
    <frame tileid="132" duration="150"/>
    <frame tileid="140" duration="150"/>
   </animation>
  </tile>
  <tile id="146">
   <animation>
    <frame tileid="146" duration="150"/>
    <frame tileid="154" duration="150"/>
    <frame tileid="162" duration="150"/>
    <frame tileid="170" duration="150"/>
    <frame tileid="178" duration="150"/>
    <frame tileid="186" duration="150"/>
   </animation>
  </tile>
  <tile id="147">
   <animation>
    <frame tileid="147" duration="150"/>
    <frame tileid="155" duration="150"/>
    <frame tileid="163" duration="150"/>
    <frame tileid="171" duration="150"/>
    <frame tileid="179" duration="150"/>
    <frame tileid="187" duration="150"/>
   </animation>
  </tile>
  <tile id="148">
   <animation>
    <frame tileid="148" duration="150"/>
    <frame tileid="156" duration="150"/>
    <frame tileid="164" duration="150"/>
    <frame tileid="172" duration="150"/>
    <frame tileid="180" duration="150"/>
    <frame tileid="188" duration="150"/>
   </animation>
  </tile>
  <tile id="149">
   <animation>
    <frame tileid="149" duration="150"/>
    <frame tileid="157" duration="150"/>
    <frame tileid="165" duration="150"/>
    <frame tileid="173" duration="150"/>
    <frame tileid="181" duration="150"/>
    <frame tileid="189" duration="150"/>
   </animation>
  </tile>
  <tile id="195">
   <animation>
    <frame tileid="195" duration="150"/>
    <frame tileid="203" duration="150"/>
    <frame tileid="211" duration="150"/>
    <frame tileid="219" duration="150"/>
    <frame tileid="227" duration="150"/>
    <frame tileid="235" duration="150"/>
   </animation>
  </tile>
  <tile id="196">
   <animation>
    <frame tileid="196" duration="150"/>
    <frame tileid="204" duration="150"/>
    <frame tileid="212" duration="150"/>
    <frame tileid="220" duration="150"/>
    <frame tileid="228" duration="150"/>
    <frame tileid="236" duration="150"/>
   </animation>
  </tile>
  <tile id="483">
   <animation>
    <frame tileid="483" duration="150"/>
    <frame tileid="491" duration="150"/>
    <frame tileid="499" duration="150"/>
    <frame tileid="507" duration="150"/>
    <frame tileid="515" duration="150"/>
    <frame tileid="523" duration="150"/>
   </animation>
  </tile>
  <tile id="484">
   <animation>
    <frame tileid="484" duration="150"/>
    <frame tileid="492" duration="150"/>
    <frame tileid="500" duration="150"/>
    <frame tileid="508" duration="150"/>
    <frame tileid="516" duration="150"/>
    <frame tileid="524" duration="150"/>
   </animation>
  </tile>
  <tile id="530">
   <animation>
    <frame tileid="530" duration="150"/>
    <frame tileid="538" duration="150"/>
    <frame tileid="546" duration="150"/>
    <frame tileid="554" duration="150"/>
    <frame tileid="562" duration="150"/>
    <frame tileid="570" duration="150"/>
   </animation>
  </tile>
  <tile id="531">
   <animation>
    <frame tileid="531" duration="150"/>
    <frame tileid="539" duration="150"/>
    <frame tileid="547" duration="150"/>
    <frame tileid="555" duration="150"/>
    <frame tileid="563" duration="150"/>
    <frame tileid="571" duration="150"/>
   </animation>
  </tile>
  <tile id="532">
   <animation>
    <frame tileid="532" duration="150"/>
    <frame tileid="540" duration="150"/>
    <frame tileid="548" duration="150"/>
    <frame tileid="556" duration="150"/>
    <frame tileid="564" duration="150"/>
    <frame tileid="572" duration="150"/>
   </animation>
  </tile>
  <tile id="533">
   <animation>
    <frame tileid="533" duration="150"/>
    <frame tileid="541" duration="150"/>
    <frame tileid="549" duration="150"/>
    <frame tileid="557" duration="150"/>
    <frame tileid="565" duration="150"/>
    <frame tileid="573" duration="150"/>
   </animation>
  </tile>
  <tile id="579">
   <animation>
    <frame tileid="579" duration="150"/>
    <frame tileid="587" duration="150"/>
    <frame tileid="595" duration="150"/>
    <frame tileid="603" duration="150"/>
    <frame tileid="611" duration="150"/>
    <frame tileid="619" duration="150"/>
   </animation>
  </tile>
  <tile id="580">
   <animation>
    <frame tileid="580" duration="150"/>
    <frame tileid="588" duration="150"/>
    <frame tileid="596" duration="150"/>
    <frame tileid="604" duration="150"/>
    <frame tileid="612" duration="150"/>
    <frame tileid="620" duration="150"/>
   </animation>
  </tile>
  <tile id="866">
   <animation>
    <frame tileid="866" duration="150"/>
    <frame tileid="874" duration="150"/>
    <frame tileid="882" duration="150"/>
    <frame tileid="890" duration="150"/>
    <frame tileid="898" duration="150"/>
    <frame tileid="906" duration="150"/>
   </animation>
  </tile>
  <tile id="867">
   <animation>
    <frame tileid="867" duration="150"/>
    <frame tileid="875" duration="150"/>
    <frame tileid="883" duration="150"/>
    <frame tileid="891" duration="150"/>
    <frame tileid="899" duration="150"/>
    <frame tileid="907" duration="150"/>
   </animation>
  </tile>
  <tile id="868">
   <animation>
    <frame tileid="868" duration="150"/>
    <frame tileid="876" duration="150"/>
    <frame tileid="884" duration="150"/>
    <frame tileid="892" duration="150"/>
    <frame tileid="900" duration="150"/>
    <frame tileid="908" duration="150"/>
   </animation>
  </tile>
  <tile id="869">
   <animation>
    <frame tileid="869" duration="150"/>
    <frame tileid="877" duration="150"/>
    <frame tileid="885" duration="150"/>
    <frame tileid="893" duration="150"/>
    <frame tileid="901" duration="150"/>
    <frame tileid="909" duration="150"/>
   </animation>
  </tile>
  <tile id="914">
   <animation>
    <frame tileid="914" duration="150"/>
    <frame tileid="922" duration="150"/>
    <frame tileid="930" duration="150"/>
    <frame tileid="938" duration="150"/>
    <frame tileid="946" duration="150"/>
    <frame tileid="954" duration="150"/>
   </animation>
  </tile>
  <tile id="915">
   <animation>
    <frame tileid="915" duration="150"/>
    <frame tileid="923" duration="150"/>
    <frame tileid="931" duration="150"/>
    <frame tileid="939" duration="150"/>
    <frame tileid="947" duration="150"/>
    <frame tileid="955" duration="150"/>
   </animation>
  </tile>
  <tile id="916">
   <animation>
    <frame tileid="916" duration="150"/>
    <frame tileid="924" duration="150"/>
    <frame tileid="932" duration="150"/>
    <frame tileid="940" duration="150"/>
    <frame tileid="948" duration="150"/>
    <frame tileid="956" duration="150"/>
   </animation>
  </tile>
  <tile id="917">
   <animation>
    <frame tileid="917" duration="150"/>
    <frame tileid="925" duration="150"/>
    <frame tileid="933" duration="150"/>
    <frame tileid="941" duration="150"/>
    <frame tileid="949" duration="150"/>
    <frame tileid="957" duration="150"/>
   </animation>
  </tile>
  <tile id="962">
   <animation>
    <frame tileid="962" duration="150"/>
    <frame tileid="970" duration="150"/>
    <frame tileid="978" duration="150"/>
    <frame tileid="986" duration="150"/>
    <frame tileid="994" duration="150"/>
    <frame tileid="1002" duration="150"/>
   </animation>
  </tile>
  <tile id="963">
   <animation>
    <frame tileid="963" duration="150"/>
    <frame tileid="971" duration="150"/>
    <frame tileid="979" duration="150"/>
    <frame tileid="987" duration="150"/>
    <frame tileid="995" duration="150"/>
    <frame tileid="1003" duration="150"/>
   </animation>
  </tile>
  <tile id="964">
   <animation>
    <frame tileid="964" duration="150"/>
    <frame tileid="972" duration="150"/>
    <frame tileid="980" duration="150"/>
    <frame tileid="988" duration="150"/>
    <frame tileid="996" duration="150"/>
    <frame tileid="1004" duration="150"/>
   </animation>
  </tile>
  <tile id="965">
   <animation>
    <frame tileid="965" duration="150"/>
    <frame tileid="973" duration="150"/>
    <frame tileid="981" duration="150"/>
    <frame tileid="989" duration="150"/>
    <frame tileid="997" duration="150"/>
    <frame tileid="1005" duration="150"/>
   </animation>
  </tile>
  <tile id="966">
   <animation>
    <frame tileid="966" duration="150"/>
    <frame tileid="974" duration="150"/>
    <frame tileid="982" duration="150"/>
    <frame tileid="990" duration="150"/>
    <frame tileid="998" duration="150"/>
    <frame tileid="1006" duration="150"/>
   </animation>
  </tile>
  <tile id="1250">
   <animation>
    <frame tileid="1250" duration="150"/>
    <frame tileid="1258" duration="150"/>
    <frame tileid="1266" duration="150"/>
    <frame tileid="1274" duration="150"/>
    <frame tileid="1282" duration="150"/>
    <frame tileid="1290" duration="150"/>
   </animation>
  </tile>
  <tile id="1251">
   <animation>
    <frame tileid="1251" duration="150"/>
    <frame tileid="1259" duration="150"/>
    <frame tileid="1267" duration="150"/>
    <frame tileid="1275" duration="150"/>
    <frame tileid="1283" duration="150"/>
    <frame tileid="1291" duration="150"/>
   </animation>
  </tile>
  <tile id="1252">
   <animation>
    <frame tileid="1252" duration="150"/>
    <frame tileid="1260" duration="150"/>
    <frame tileid="1268" duration="150"/>
    <frame tileid="1276" duration="150"/>
    <frame tileid="1284" duration="150"/>
    <frame tileid="1292" duration="150"/>
   </animation>
  </tile>
  <tile id="1253">
   <animation>
    <frame tileid="1253" duration="150"/>
    <frame tileid="1261" duration="150"/>
    <frame tileid="1269" duration="150"/>
    <frame tileid="1277" duration="150"/>
    <frame tileid="1285" duration="150"/>
    <frame tileid="1293" duration="150"/>
   </animation>
  </tile>
  <tile id="1298">
   <animation>
    <frame tileid="1298" duration="150"/>
    <frame tileid="1306" duration="150"/>
    <frame tileid="1314" duration="150"/>
    <frame tileid="1322" duration="150"/>
    <frame tileid="1330" duration="150"/>
    <frame tileid="1338" duration="150"/>
   </animation>
  </tile>
  <tile id="1299">
   <animation>
    <frame tileid="1299" duration="150"/>
    <frame tileid="1307" duration="150"/>
    <frame tileid="1315" duration="150"/>
    <frame tileid="1323" duration="150"/>
    <frame tileid="1331" duration="150"/>
    <frame tileid="1339" duration="150"/>
   </animation>
  </tile>
  <tile id="1300">
   <animation>
    <frame tileid="1300" duration="150"/>
    <frame tileid="1308" duration="150"/>
    <frame tileid="1316" duration="150"/>
    <frame tileid="1324" duration="150"/>
    <frame tileid="1332" duration="150"/>
    <frame tileid="1340" duration="150"/>
   </animation>
  </tile>
  <tile id="1301">
   <animation>
    <frame tileid="1301" duration="150"/>
    <frame tileid="1309" duration="150"/>
    <frame tileid="1317" duration="150"/>
    <frame tileid="1325" duration="150"/>
    <frame tileid="1333" duration="150"/>
    <frame tileid="1341" duration="150"/>
   </animation>
  </tile>
  <tile id="1345">
   <animation>
    <frame tileid="1345" duration="150"/>
    <frame tileid="1353" duration="150"/>
    <frame tileid="1361" duration="150"/>
    <frame tileid="1369" duration="150"/>
    <frame tileid="1377" duration="150"/>
    <frame tileid="1385" duration="150"/>
   </animation>
  </tile>
  <tile id="1346">
   <animation>
    <frame tileid="1346" duration="150"/>
    <frame tileid="1354" duration="150"/>
    <frame tileid="1362" duration="150"/>
    <frame tileid="1370" duration="150"/>
    <frame tileid="1378" duration="150"/>
    <frame tileid="1386" duration="150"/>
   </animation>
  </tile>
  <tile id="1347">
   <animation>
    <frame tileid="1347" duration="150"/>
    <frame tileid="1355" duration="150"/>
    <frame tileid="1363" duration="150"/>
    <frame tileid="1371" duration="150"/>
    <frame tileid="1379" duration="150"/>
    <frame tileid="1387" duration="150"/>
   </animation>
  </tile>
  <tile id="1348">
   <animation>
    <frame tileid="1348" duration="150"/>
    <frame tileid="1356" duration="150"/>
    <frame tileid="1364" duration="150"/>
    <frame tileid="1372" duration="150"/>
    <frame tileid="1380" duration="150"/>
    <frame tileid="1388" duration="150"/>
   </animation>
  </tile>
  <tile id="1349">
   <animation>
    <frame tileid="1349" duration="150"/>
    <frame tileid="1357" duration="150"/>
    <frame tileid="1365" duration="150"/>
    <frame tileid="1373" duration="150"/>
    <frame tileid="1381" duration="150"/>
    <frame tileid="1389" duration="150"/>
   </animation>
  </tile>
 </tileset>
 <tileset firstgid="19457" name="Rat2_Hurt_full" tilewidth="16" tileheight="16" tilecount="1024" columns="32">
  <image source="Rat2_Hurt_head.png" width="512" height="512"/>
  <tile id="67">
   <animation>
    <frame tileid="67" duration="150"/>
    <frame tileid="75" duration="150"/>
    <frame tileid="83" duration="150"/>
    <frame tileid="91" duration="150"/>
   </animation>
  </tile>
  <tile id="68">
   <animation>
    <frame tileid="68" duration="150"/>
    <frame tileid="76" duration="150"/>
    <frame tileid="84" duration="150"/>
    <frame tileid="92" duration="150"/>
   </animation>
  </tile>
  <tile id="98">
   <animation>
    <frame tileid="98" duration="150"/>
    <frame tileid="106" duration="150"/>
    <frame tileid="114" duration="150"/>
    <frame tileid="122" duration="150"/>
   </animation>
  </tile>
  <tile id="99">
   <animation>
    <frame tileid="99" duration="150"/>
    <frame tileid="107" duration="150"/>
    <frame tileid="115" duration="150"/>
    <frame tileid="123" duration="150"/>
   </animation>
  </tile>
  <tile id="100">
   <animation>
    <frame tileid="100" duration="150"/>
    <frame tileid="108" duration="150"/>
    <frame tileid="116" duration="150"/>
    <frame tileid="124" duration="150"/>
   </animation>
  </tile>
  <tile id="101">
   <animation>
    <frame tileid="101" duration="150"/>
    <frame tileid="109" duration="150"/>
    <frame tileid="117" duration="150"/>
    <frame tileid="125" duration="150"/>
   </animation>
  </tile>
  <tile id="131">
   <animation>
    <frame tileid="131" duration="150"/>
    <frame tileid="139" duration="150"/>
    <frame tileid="147" duration="150"/>
    <frame tileid="155" duration="150"/>
   </animation>
  </tile>
  <tile id="132">
   <animation>
    <frame tileid="132" duration="150"/>
    <frame tileid="140" duration="150"/>
    <frame tileid="148" duration="150"/>
    <frame tileid="156" duration="150"/>
   </animation>
  </tile>
  <tile id="323">
   <animation>
    <frame tileid="323" duration="150"/>
    <frame tileid="331" duration="150"/>
    <frame tileid="339" duration="150"/>
    <frame tileid="347" duration="150"/>
   </animation>
  </tile>
  <tile id="324">
   <animation>
    <frame tileid="324" duration="150"/>
    <frame tileid="332" duration="150"/>
    <frame tileid="340" duration="150"/>
    <frame tileid="348" duration="150"/>
   </animation>
  </tile>
  <tile id="354">
   <animation>
    <frame tileid="354" duration="150"/>
    <frame tileid="362" duration="150"/>
    <frame tileid="370" duration="150"/>
    <frame tileid="378" duration="150"/>
   </animation>
  </tile>
  <tile id="355">
   <animation>
    <frame tileid="355" duration="150"/>
    <frame tileid="363" duration="150"/>
    <frame tileid="371" duration="150"/>
    <frame tileid="379" duration="150"/>
   </animation>
  </tile>
  <tile id="356">
   <animation>
    <frame tileid="356" duration="150"/>
    <frame tileid="364" duration="150"/>
    <frame tileid="372" duration="150"/>
    <frame tileid="380" duration="150"/>
   </animation>
  </tile>
  <tile id="357">
   <animation>
    <frame tileid="357" duration="150"/>
    <frame tileid="365" duration="150"/>
    <frame tileid="373" duration="150"/>
    <frame tileid="381" duration="150"/>
   </animation>
  </tile>
  <tile id="387">
   <animation>
    <frame tileid="387" duration="150"/>
    <frame tileid="395" duration="150"/>
    <frame tileid="403" duration="150"/>
    <frame tileid="411" duration="150"/>
   </animation>
  </tile>
  <tile id="388">
   <animation>
    <frame tileid="388" duration="150"/>
    <frame tileid="396" duration="150"/>
    <frame tileid="404" duration="150"/>
    <frame tileid="412" duration="150"/>
   </animation>
  </tile>
  <tile id="578">
   <animation>
    <frame tileid="578" duration="150"/>
    <frame tileid="586" duration="150"/>
    <frame tileid="594" duration="150"/>
    <frame tileid="602" duration="150"/>
   </animation>
  </tile>
  <tile id="579">
   <animation>
    <frame tileid="579" duration="150"/>
    <frame tileid="587" duration="150"/>
    <frame tileid="595" duration="150"/>
    <frame tileid="603" duration="150"/>
   </animation>
  </tile>
  <tile id="580">
   <animation>
    <frame tileid="580" duration="150"/>
    <frame tileid="588" duration="150"/>
    <frame tileid="596" duration="150"/>
    <frame tileid="604" duration="150"/>
   </animation>
  </tile>
  <tile id="610">
   <animation>
    <frame tileid="610" duration="150"/>
    <frame tileid="618" duration="150"/>
    <frame tileid="626" duration="150"/>
    <frame tileid="634" duration="150"/>
   </animation>
  </tile>
  <tile id="611">
   <animation>
    <frame tileid="611" duration="150"/>
    <frame tileid="619" duration="150"/>
    <frame tileid="627" duration="150"/>
    <frame tileid="635" duration="150"/>
   </animation>
  </tile>
  <tile id="612">
   <animation>
    <frame tileid="612" duration="150"/>
    <frame tileid="620" duration="150"/>
    <frame tileid="628" duration="150"/>
    <frame tileid="636" duration="150"/>
   </animation>
  </tile>
  <tile id="613">
   <animation>
    <frame tileid="613" duration="150"/>
    <frame tileid="621" duration="150"/>
    <frame tileid="629" duration="150"/>
    <frame tileid="637" duration="150"/>
   </animation>
  </tile>
  <tile id="642">
   <animation>
    <frame tileid="642" duration="150"/>
    <frame tileid="650" duration="150"/>
    <frame tileid="658" duration="150"/>
    <frame tileid="666" duration="150"/>
   </animation>
  </tile>
  <tile id="643">
   <animation>
    <frame tileid="643" duration="150"/>
    <frame tileid="651" duration="150"/>
    <frame tileid="659" duration="150"/>
    <frame tileid="667" duration="150"/>
   </animation>
  </tile>
  <tile id="644">
   <animation>
    <frame tileid="644" duration="150"/>
    <frame tileid="652" duration="150"/>
    <frame tileid="660" duration="150"/>
    <frame tileid="668" duration="150"/>
   </animation>
  </tile>
  <tile id="645">
   <animation>
    <frame tileid="645" duration="150"/>
    <frame tileid="653" duration="150"/>
    <frame tileid="661" duration="150"/>
    <frame tileid="669" duration="150"/>
   </animation>
  </tile>
  <tile id="646">
   <animation>
    <frame tileid="646" duration="150"/>
    <frame tileid="654" duration="150"/>
    <frame tileid="662" duration="150"/>
    <frame tileid="670" duration="150"/>
   </animation>
  </tile>
  <tile id="835">
   <animation>
    <frame tileid="835" duration="150"/>
    <frame tileid="843" duration="150"/>
    <frame tileid="851" duration="150"/>
    <frame tileid="859" duration="150"/>
   </animation>
  </tile>
  <tile id="836">
   <animation>
    <frame tileid="836" duration="150"/>
    <frame tileid="844" duration="150"/>
    <frame tileid="852" duration="150"/>
    <frame tileid="860" duration="150"/>
   </animation>
  </tile>
  <tile id="837">
   <animation>
    <frame tileid="837" duration="150"/>
    <frame tileid="845" duration="150"/>
    <frame tileid="853" duration="150"/>
    <frame tileid="861" duration="150"/>
   </animation>
  </tile>
  <tile id="866">
   <animation>
    <frame tileid="866" duration="150"/>
    <frame tileid="874" duration="150"/>
    <frame tileid="882" duration="150"/>
    <frame tileid="890" duration="150"/>
   </animation>
  </tile>
  <tile id="867">
   <animation>
    <frame tileid="867" duration="150"/>
    <frame tileid="875" duration="150"/>
    <frame tileid="883" duration="150"/>
    <frame tileid="891" duration="150"/>
   </animation>
  </tile>
  <tile id="868">
   <animation>
    <frame tileid="868" duration="150"/>
    <frame tileid="876" duration="150"/>
    <frame tileid="884" duration="150"/>
    <frame tileid="892" duration="150"/>
   </animation>
  </tile>
  <tile id="869">
   <animation>
    <frame tileid="869" duration="150"/>
    <frame tileid="877" duration="150"/>
    <frame tileid="885" duration="150"/>
    <frame tileid="893" duration="150"/>
   </animation>
  </tile>
  <tile id="897">
   <animation>
    <frame tileid="897" duration="150"/>
    <frame tileid="905" duration="150"/>
    <frame tileid="913" duration="150"/>
    <frame tileid="921" duration="150"/>
   </animation>
  </tile>
  <tile id="898">
   <animation>
    <frame tileid="898" duration="150"/>
    <frame tileid="906" duration="150"/>
    <frame tileid="914" duration="150"/>
    <frame tileid="922" duration="150"/>
   </animation>
  </tile>
  <tile id="899">
   <animation>
    <frame tileid="899" duration="150"/>
    <frame tileid="907" duration="150"/>
    <frame tileid="915" duration="150"/>
    <frame tileid="923" duration="150"/>
   </animation>
  </tile>
  <tile id="900">
   <animation>
    <frame tileid="900" duration="150"/>
    <frame tileid="908" duration="150"/>
    <frame tileid="916" duration="150"/>
    <frame tileid="924" duration="150"/>
   </animation>
  </tile>
  <tile id="901">
   <animation>
    <frame tileid="901" duration="150"/>
    <frame tileid="909" duration="150"/>
    <frame tileid="917" duration="150"/>
    <frame tileid="925" duration="150"/>
   </animation>
  </tile>
 </tileset>
 <tileset firstgid="20481" name="Rat2_Walk_full" tilewidth="16" tileheight="16" tilecount="1536" columns="48">
  <image source="Rat2_Walk_head.png" width="768" height="512"/>
  <tile id="99">
   <animation>
    <frame tileid="99" duration="150"/>
    <frame tileid="107" duration="150"/>
    <frame tileid="115" duration="150"/>
    <frame tileid="123" duration="150"/>
    <frame tileid="131" duration="150"/>
    <frame tileid="139" duration="150"/>
   </animation>
  </tile>
  <tile id="100">
   <animation>
    <frame tileid="100" duration="150"/>
    <frame tileid="108" duration="150"/>
    <frame tileid="116" duration="150"/>
    <frame tileid="124" duration="150"/>
    <frame tileid="132" duration="150"/>
    <frame tileid="140" duration="150"/>
   </animation>
  </tile>
  <tile id="146">
   <animation>
    <frame tileid="146" duration="150"/>
    <frame tileid="154" duration="150"/>
    <frame tileid="162" duration="150"/>
    <frame tileid="170" duration="150"/>
    <frame tileid="178" duration="150"/>
    <frame tileid="186" duration="150"/>
   </animation>
  </tile>
  <tile id="147">
   <animation>
    <frame tileid="147" duration="150"/>
    <frame tileid="155" duration="150"/>
    <frame tileid="163" duration="150"/>
    <frame tileid="171" duration="150"/>
    <frame tileid="179" duration="150"/>
    <frame tileid="187" duration="150"/>
   </animation>
  </tile>
  <tile id="148">
   <animation>
    <frame tileid="148" duration="150"/>
    <frame tileid="156" duration="150"/>
    <frame tileid="164" duration="150"/>
    <frame tileid="172" duration="150"/>
    <frame tileid="180" duration="150"/>
    <frame tileid="188" duration="150"/>
   </animation>
  </tile>
  <tile id="149">
   <animation>
    <frame tileid="149" duration="150"/>
    <frame tileid="157" duration="150"/>
    <frame tileid="165" duration="150"/>
    <frame tileid="173" duration="150"/>
    <frame tileid="181" duration="150"/>
    <frame tileid="189" duration="150"/>
   </animation>
  </tile>
  <tile id="195">
   <animation>
    <frame tileid="195" duration="150"/>
    <frame tileid="203" duration="150"/>
    <frame tileid="211" duration="150"/>
    <frame tileid="219" duration="150"/>
    <frame tileid="227" duration="150"/>
    <frame tileid="235" duration="150"/>
   </animation>
  </tile>
  <tile id="196">
   <animation>
    <frame tileid="196" duration="150"/>
    <frame tileid="204" duration="150"/>
    <frame tileid="212" duration="150"/>
    <frame tileid="220" duration="150"/>
    <frame tileid="228" duration="150"/>
    <frame tileid="236" duration="150"/>
   </animation>
  </tile>
  <tile id="483">
   <animation>
    <frame tileid="483" duration="150"/>
    <frame tileid="491" duration="150"/>
    <frame tileid="499" duration="150"/>
    <frame tileid="507" duration="150"/>
    <frame tileid="515" duration="150"/>
    <frame tileid="523" duration="150"/>
   </animation>
  </tile>
  <tile id="484">
   <animation>
    <frame tileid="484" duration="150"/>
    <frame tileid="492" duration="150"/>
    <frame tileid="500" duration="150"/>
    <frame tileid="508" duration="150"/>
    <frame tileid="516" duration="150"/>
    <frame tileid="524" duration="150"/>
   </animation>
  </tile>
  <tile id="530">
   <animation>
    <frame tileid="530" duration="150"/>
    <frame tileid="538" duration="150"/>
    <frame tileid="546" duration="150"/>
    <frame tileid="554" duration="150"/>
    <frame tileid="562" duration="150"/>
    <frame tileid="570" duration="150"/>
   </animation>
  </tile>
  <tile id="531">
   <animation>
    <frame tileid="531" duration="150"/>
    <frame tileid="539" duration="150"/>
    <frame tileid="547" duration="150"/>
    <frame tileid="555" duration="150"/>
    <frame tileid="563" duration="150"/>
    <frame tileid="571" duration="150"/>
   </animation>
  </tile>
  <tile id="532">
   <animation>
    <frame tileid="532" duration="150"/>
    <frame tileid="540" duration="150"/>
    <frame tileid="548" duration="150"/>
    <frame tileid="556" duration="150"/>
    <frame tileid="564" duration="150"/>
    <frame tileid="572" duration="150"/>
   </animation>
  </tile>
  <tile id="533">
   <animation>
    <frame tileid="533" duration="150"/>
    <frame tileid="541" duration="150"/>
    <frame tileid="549" duration="150"/>
    <frame tileid="557" duration="150"/>
    <frame tileid="565" duration="150"/>
    <frame tileid="573" duration="150"/>
   </animation>
  </tile>
  <tile id="578">
   <animation>
    <frame tileid="578" duration="150"/>
    <frame tileid="586" duration="150"/>
    <frame tileid="594" duration="150"/>
    <frame tileid="602" duration="150"/>
    <frame tileid="610" duration="150"/>
    <frame tileid="618" duration="150"/>
   </animation>
  </tile>
  <tile id="579">
   <animation>
    <frame tileid="579" duration="150"/>
    <frame tileid="587" duration="150"/>
    <frame tileid="595" duration="150"/>
    <frame tileid="603" duration="150"/>
    <frame tileid="611" duration="150"/>
    <frame tileid="619" duration="150"/>
   </animation>
  </tile>
  <tile id="580">
   <animation>
    <frame tileid="580" duration="150"/>
    <frame tileid="588" duration="150"/>
    <frame tileid="596" duration="150"/>
    <frame tileid="604" duration="150"/>
    <frame tileid="612" duration="150"/>
    <frame tileid="620" duration="150"/>
   </animation>
  </tile>
  <tile id="581">
   <animation>
    <frame tileid="581" duration="150"/>
    <frame tileid="589" duration="150"/>
    <frame tileid="597" duration="150"/>
    <frame tileid="605" duration="150"/>
    <frame tileid="613" duration="150"/>
    <frame tileid="621" duration="150"/>
   </animation>
  </tile>
  <tile id="627">
   <animation>
    <frame tileid="627" duration="150"/>
    <frame tileid="635" duration="150"/>
    <frame tileid="643" duration="150"/>
    <frame tileid="651" duration="150"/>
    <frame tileid="659" duration="150"/>
    <frame tileid="667" duration="150"/>
   </animation>
  </tile>
  <tile id="628">
   <animation>
    <frame tileid="628" duration="150"/>
    <frame tileid="636" duration="150"/>
    <frame tileid="644" duration="150"/>
    <frame tileid="652" duration="150"/>
    <frame tileid="660" duration="150"/>
    <frame tileid="668" duration="150"/>
   </animation>
  </tile>
  <tile id="867">
   <animation>
    <frame tileid="867" duration="150"/>
    <frame tileid="875" duration="150"/>
    <frame tileid="883" duration="150"/>
    <frame tileid="891" duration="150"/>
    <frame tileid="899" duration="150"/>
    <frame tileid="907" duration="150"/>
   </animation>
  </tile>
  <tile id="868">
   <animation>
    <frame tileid="868" duration="150"/>
    <frame tileid="876" duration="150"/>
    <frame tileid="884" duration="150"/>
    <frame tileid="892" duration="150"/>
    <frame tileid="900" duration="150"/>
    <frame tileid="908" duration="150"/>
   </animation>
  </tile>
  <tile id="914">
   <animation>
    <frame tileid="914" duration="150"/>
    <frame tileid="922" duration="150"/>
    <frame tileid="930" duration="150"/>
    <frame tileid="938" duration="150"/>
    <frame tileid="946" duration="150"/>
    <frame tileid="954" duration="150"/>
   </animation>
  </tile>
  <tile id="915">
   <animation>
    <frame tileid="915" duration="150"/>
    <frame tileid="923" duration="150"/>
    <frame tileid="931" duration="150"/>
    <frame tileid="939" duration="150"/>
    <frame tileid="947" duration="150"/>
    <frame tileid="955" duration="150"/>
   </animation>
  </tile>
  <tile id="916">
   <animation>
    <frame tileid="916" duration="150"/>
    <frame tileid="924" duration="150"/>
    <frame tileid="932" duration="150"/>
    <frame tileid="940" duration="150"/>
    <frame tileid="948" duration="150"/>
    <frame tileid="956" duration="150"/>
   </animation>
  </tile>
  <tile id="917">
   <animation>
    <frame tileid="917" duration="150"/>
    <frame tileid="925" duration="150"/>
    <frame tileid="933" duration="150"/>
    <frame tileid="941" duration="150"/>
    <frame tileid="949" duration="150"/>
    <frame tileid="957" duration="150"/>
   </animation>
  </tile>
  <tile id="962">
   <animation>
    <frame tileid="962" duration="150"/>
    <frame tileid="970" duration="150"/>
    <frame tileid="978" duration="150"/>
    <frame tileid="986" duration="150"/>
    <frame tileid="994" duration="150"/>
    <frame tileid="1002" duration="150"/>
   </animation>
  </tile>
  <tile id="963">
   <animation>
    <frame tileid="963" duration="150"/>
    <frame tileid="971" duration="150"/>
    <frame tileid="979" duration="150"/>
    <frame tileid="987" duration="150"/>
    <frame tileid="995" duration="150"/>
    <frame tileid="1003" duration="150"/>
   </animation>
  </tile>
  <tile id="964">
   <animation>
    <frame tileid="964" duration="150"/>
    <frame tileid="972" duration="150"/>
    <frame tileid="980" duration="150"/>
    <frame tileid="988" duration="150"/>
    <frame tileid="996" duration="150"/>
    <frame tileid="1004" duration="150"/>
   </animation>
  </tile>
  <tile id="965">
   <animation>
    <frame tileid="965" duration="150"/>
    <frame tileid="973" duration="150"/>
    <frame tileid="981" duration="150"/>
    <frame tileid="989" duration="150"/>
    <frame tileid="997" duration="150"/>
    <frame tileid="1005" duration="150"/>
   </animation>
  </tile>
  <tile id="966">
   <animation>
    <frame tileid="966" duration="150"/>
    <frame tileid="974" duration="150"/>
    <frame tileid="982" duration="150"/>
    <frame tileid="990" duration="150"/>
    <frame tileid="998" duration="150"/>
    <frame tileid="1006" duration="150"/>
   </animation>
  </tile>
  <tile id="1251">
   <animation>
    <frame tileid="1251" duration="150"/>
    <frame tileid="1259" duration="150"/>
    <frame tileid="1267" duration="150"/>
    <frame tileid="1275" duration="150"/>
    <frame tileid="1283" duration="150"/>
    <frame tileid="1291" duration="150"/>
   </animation>
  </tile>
  <tile id="1252">
   <animation>
    <frame tileid="1252" duration="150"/>
    <frame tileid="1260" duration="150"/>
    <frame tileid="1268" duration="150"/>
    <frame tileid="1276" duration="150"/>
    <frame tileid="1284" duration="150"/>
    <frame tileid="1292" duration="150"/>
   </animation>
  </tile>
  <tile id="1298">
   <animation>
    <frame tileid="1298" duration="150"/>
    <frame tileid="1306" duration="150"/>
    <frame tileid="1314" duration="150"/>
    <frame tileid="1322" duration="150"/>
    <frame tileid="1330" duration="150"/>
    <frame tileid="1338" duration="150"/>
   </animation>
  </tile>
  <tile id="1299">
   <animation>
    <frame tileid="1299" duration="150"/>
    <frame tileid="1307" duration="150"/>
    <frame tileid="1315" duration="150"/>
    <frame tileid="1323" duration="150"/>
    <frame tileid="1331" duration="150"/>
    <frame tileid="1339" duration="150"/>
   </animation>
  </tile>
  <tile id="1300">
   <animation>
    <frame tileid="1300" duration="150"/>
    <frame tileid="1308" duration="150"/>
    <frame tileid="1316" duration="150"/>
    <frame tileid="1324" duration="150"/>
    <frame tileid="1332" duration="150"/>
    <frame tileid="1340" duration="150"/>
   </animation>
  </tile>
  <tile id="1301">
   <animation>
    <frame tileid="1301" duration="150"/>
    <frame tileid="1309" duration="150"/>
    <frame tileid="1317" duration="150"/>
    <frame tileid="1325" duration="150"/>
    <frame tileid="1333" duration="150"/>
    <frame tileid="1341" duration="150"/>
   </animation>
  </tile>
  <tile id="1345">
   <animation>
    <frame tileid="1345" duration="150"/>
    <frame tileid="1353" duration="150"/>
    <frame tileid="1361" duration="150"/>
    <frame tileid="1369" duration="150"/>
    <frame tileid="1377" duration="150"/>
    <frame tileid="1385" duration="150"/>
   </animation>
  </tile>
  <tile id="1346">
   <animation>
    <frame tileid="1346" duration="150"/>
    <frame tileid="1354" duration="150"/>
    <frame tileid="1362" duration="150"/>
    <frame tileid="1370" duration="150"/>
    <frame tileid="1378" duration="150"/>
    <frame tileid="1386" duration="150"/>
   </animation>
  </tile>
  <tile id="1347">
   <animation>
    <frame tileid="1347" duration="150"/>
    <frame tileid="1355" duration="150"/>
    <frame tileid="1363" duration="150"/>
    <frame tileid="1371" duration="150"/>
    <frame tileid="1379" duration="150"/>
    <frame tileid="1387" duration="150"/>
   </animation>
  </tile>
  <tile id="1348">
   <animation>
    <frame tileid="1348" duration="150"/>
    <frame tileid="1356" duration="150"/>
    <frame tileid="1364" duration="150"/>
    <frame tileid="1372" duration="150"/>
    <frame tileid="1380" duration="150"/>
    <frame tileid="1388" duration="150"/>
   </animation>
  </tile>
  <tile id="1349">
   <animation>
    <frame tileid="1349" duration="150"/>
    <frame tileid="1357" duration="150"/>
    <frame tileid="1365" duration="150"/>
    <frame tileid="1373" duration="150"/>
    <frame tileid="1381" duration="150"/>
    <frame tileid="1389" duration="150"/>
   </animation>
  </tile>
 </tileset>
 <tileset firstgid="22017" name="Rat2_Death_full" tilewidth="16" tileheight="16" tilecount="1280" columns="40">
  <image source="Rat2_Death_head.png" width="640" height="512"/>
  <tile id="83">
   <animation>
    <frame tileid="83" duration="150"/>
    <frame tileid="91" duration="150"/>
    <frame tileid="99" duration="150"/>
    <frame tileid="107" duration="150"/>
    <frame tileid="115" duration="150"/>
   </animation>
  </tile>
  <tile id="84">
   <animation>
    <frame tileid="84" duration="150"/>
    <frame tileid="92" duration="150"/>
    <frame tileid="100" duration="150"/>
    <frame tileid="108" duration="150"/>
    <frame tileid="116" duration="150"/>
   </animation>
  </tile>
  <tile id="122">
   <animation>
    <frame tileid="122" duration="150"/>
    <frame tileid="130" duration="150"/>
    <frame tileid="138" duration="150"/>
    <frame tileid="146" duration="150"/>
    <frame tileid="154" duration="150"/>
   </animation>
  </tile>
  <tile id="123">
   <animation>
    <frame tileid="123" duration="150"/>
    <frame tileid="131" duration="150"/>
    <frame tileid="139" duration="150"/>
    <frame tileid="147" duration="150"/>
    <frame tileid="155" duration="150"/>
   </animation>
  </tile>
  <tile id="124">
   <animation>
    <frame tileid="124" duration="150"/>
    <frame tileid="132" duration="150"/>
    <frame tileid="140" duration="150"/>
    <frame tileid="148" duration="150"/>
    <frame tileid="156" duration="150"/>
   </animation>
  </tile>
  <tile id="125">
   <animation>
    <frame tileid="125" duration="150"/>
    <frame tileid="133" duration="150"/>
    <frame tileid="141" duration="150"/>
    <frame tileid="149" duration="150"/>
    <frame tileid="157" duration="150"/>
   </animation>
  </tile>
  <tile id="163">
   <animation>
    <frame tileid="163" duration="150"/>
    <frame tileid="171" duration="150"/>
    <frame tileid="179" duration="150"/>
    <frame tileid="187" duration="150"/>
    <frame tileid="195" duration="150"/>
   </animation>
  </tile>
  <tile id="164">
   <animation>
    <frame tileid="164" duration="150"/>
    <frame tileid="172" duration="150"/>
    <frame tileid="180" duration="150"/>
    <frame tileid="188" duration="150"/>
    <frame tileid="196" duration="150"/>
   </animation>
  </tile>
  <tile id="203">
   <animation>
    <frame tileid="203" duration="150"/>
    <frame tileid="211" duration="150"/>
    <frame tileid="219" duration="150"/>
    <frame tileid="227" duration="150"/>
    <frame tileid="235" duration="150"/>
   </animation>
  </tile>
  <tile id="204">
   <animation>
    <frame tileid="204" duration="150"/>
    <frame tileid="212" duration="150"/>
    <frame tileid="220" duration="150"/>
    <frame tileid="228" duration="150"/>
    <frame tileid="236" duration="150"/>
   </animation>
  </tile>
  <tile id="403">
   <animation>
    <frame tileid="403" duration="150"/>
    <frame tileid="411" duration="150"/>
    <frame tileid="419" duration="150"/>
    <frame tileid="427" duration="150"/>
    <frame tileid="435" duration="150"/>
   </animation>
  </tile>
  <tile id="404">
   <animation>
    <frame tileid="404" duration="150"/>
    <frame tileid="412" duration="150"/>
    <frame tileid="420" duration="150"/>
    <frame tileid="428" duration="150"/>
    <frame tileid="436" duration="150"/>
   </animation>
  </tile>
  <tile id="442">
   <animation>
    <frame tileid="442" duration="150"/>
    <frame tileid="450" duration="150"/>
    <frame tileid="458" duration="150"/>
    <frame tileid="466" duration="150"/>
    <frame tileid="474" duration="150"/>
   </animation>
  </tile>
  <tile id="443">
   <animation>
    <frame tileid="443" duration="150"/>
    <frame tileid="451" duration="150"/>
    <frame tileid="459" duration="150"/>
    <frame tileid="467" duration="150"/>
    <frame tileid="475" duration="150"/>
   </animation>
  </tile>
  <tile id="444">
   <animation>
    <frame tileid="444" duration="150"/>
    <frame tileid="452" duration="150"/>
    <frame tileid="460" duration="150"/>
    <frame tileid="468" duration="150"/>
    <frame tileid="476" duration="150"/>
   </animation>
  </tile>
  <tile id="445">
   <animation>
    <frame tileid="445" duration="150"/>
    <frame tileid="453" duration="150"/>
    <frame tileid="461" duration="150"/>
    <frame tileid="469" duration="150"/>
    <frame tileid="477" duration="150"/>
   </animation>
  </tile>
  <tile id="483">
   <animation>
    <frame tileid="483" duration="150"/>
    <frame tileid="491" duration="150"/>
    <frame tileid="499" duration="150"/>
    <frame tileid="507" duration="150"/>
    <frame tileid="515" duration="150"/>
   </animation>
  </tile>
  <tile id="484">
   <animation>
    <frame tileid="484" duration="150"/>
    <frame tileid="492" duration="150"/>
    <frame tileid="500" duration="150"/>
    <frame tileid="508" duration="150"/>
    <frame tileid="516" duration="150"/>
   </animation>
  </tile>
  <tile id="524">
   <animation>
    <frame tileid="524" duration="150"/>
    <frame tileid="532" duration="150"/>
    <frame tileid="540" duration="150"/>
    <frame tileid="548" duration="150"/>
    <frame tileid="556" duration="150"/>
   </animation>
  </tile>
  <tile id="722">
   <animation>
    <frame tileid="722" duration="150"/>
    <frame tileid="730" duration="150"/>
    <frame tileid="738" duration="150"/>
    <frame tileid="746" duration="150"/>
    <frame tileid="754" duration="150"/>
   </animation>
  </tile>
  <tile id="723">
   <animation>
    <frame tileid="723" duration="150"/>
    <frame tileid="731" duration="150"/>
    <frame tileid="739" duration="150"/>
    <frame tileid="747" duration="150"/>
    <frame tileid="755" duration="150"/>
   </animation>
  </tile>
  <tile id="724">
   <animation>
    <frame tileid="724" duration="150"/>
    <frame tileid="732" duration="150"/>
    <frame tileid="740" duration="150"/>
    <frame tileid="748" duration="150"/>
    <frame tileid="756" duration="150"/>
   </animation>
  </tile>
  <tile id="762">
   <animation>
    <frame tileid="762" duration="150"/>
    <frame tileid="770" duration="150"/>
    <frame tileid="778" duration="150"/>
    <frame tileid="786" duration="150"/>
    <frame tileid="794" duration="150"/>
   </animation>
  </tile>
  <tile id="763">
   <animation>
    <frame tileid="763" duration="150"/>
    <frame tileid="771" duration="150"/>
    <frame tileid="779" duration="150"/>
    <frame tileid="787" duration="150"/>
    <frame tileid="795" duration="150"/>
   </animation>
  </tile>
  <tile id="764">
   <animation>
    <frame tileid="764" duration="150"/>
    <frame tileid="772" duration="150"/>
    <frame tileid="780" duration="150"/>
    <frame tileid="788" duration="150"/>
    <frame tileid="796" duration="150"/>
   </animation>
  </tile>
  <tile id="765">
   <animation>
    <frame tileid="765" duration="150"/>
    <frame tileid="773" duration="150"/>
    <frame tileid="781" duration="150"/>
    <frame tileid="789" duration="150"/>
    <frame tileid="797" duration="150"/>
   </animation>
  </tile>
  <tile id="766">
   <animation>
    <frame tileid="766" duration="150"/>
    <frame tileid="774" duration="150"/>
    <frame tileid="782" duration="150"/>
    <frame tileid="790" duration="150"/>
    <frame tileid="798" duration="150"/>
   </animation>
  </tile>
  <tile id="802">
   <animation>
    <frame tileid="802" duration="150"/>
    <frame tileid="810" duration="150"/>
    <frame tileid="818" duration="150"/>
    <frame tileid="826" duration="150"/>
    <frame tileid="834" duration="150"/>
   </animation>
  </tile>
  <tile id="803">
   <animation>
    <frame tileid="803" duration="150"/>
    <frame tileid="811" duration="150"/>
    <frame tileid="819" duration="150"/>
    <frame tileid="827" duration="150"/>
    <frame tileid="835" duration="150"/>
   </animation>
  </tile>
  <tile id="804">
   <animation>
    <frame tileid="804" duration="150"/>
    <frame tileid="812" duration="150"/>
    <frame tileid="820" duration="150"/>
    <frame tileid="828" duration="150"/>
    <frame tileid="836" duration="150"/>
   </animation>
  </tile>
  <tile id="805">
   <animation>
    <frame tileid="805" duration="150"/>
    <frame tileid="813" duration="150"/>
    <frame tileid="821" duration="150"/>
    <frame tileid="829" duration="150"/>
    <frame tileid="837" duration="150"/>
   </animation>
  </tile>
  <tile id="806">
   <animation>
    <frame tileid="806" duration="150"/>
    <frame tileid="814" duration="150"/>
    <frame tileid="822" duration="150"/>
    <frame tileid="830" duration="150"/>
    <frame tileid="838" duration="150"/>
   </animation>
  </tile>
  <tile id="1043">
   <animation>
    <frame tileid="1043" duration="150"/>
    <frame tileid="1051" duration="150"/>
    <frame tileid="1059" duration="150"/>
    <frame tileid="1067" duration="150"/>
    <frame tileid="1075" duration="150"/>
   </animation>
  </tile>
  <tile id="1044">
   <animation>
    <frame tileid="1044" duration="150"/>
    <frame tileid="1052" duration="150"/>
    <frame tileid="1060" duration="150"/>
    <frame tileid="1068" duration="150"/>
    <frame tileid="1076" duration="150"/>
   </animation>
  </tile>
  <tile id="1045">
   <animation>
    <frame tileid="1045" duration="150"/>
    <frame tileid="1053" duration="150"/>
    <frame tileid="1061" duration="150"/>
    <frame tileid="1069" duration="150"/>
    <frame tileid="1077" duration="150"/>
   </animation>
  </tile>
  <tile id="1081">
   <animation>
    <frame tileid="1081" duration="150"/>
    <frame tileid="1089" duration="150"/>
    <frame tileid="1097" duration="150"/>
    <frame tileid="1105" duration="150"/>
    <frame tileid="1113" duration="150"/>
   </animation>
  </tile>
  <tile id="1082">
   <animation>
    <frame tileid="1082" duration="150"/>
    <frame tileid="1090" duration="150"/>
    <frame tileid="1098" duration="150"/>
    <frame tileid="1106" duration="150"/>
    <frame tileid="1114" duration="150"/>
   </animation>
  </tile>
  <tile id="1083">
   <animation>
    <frame tileid="1083" duration="150"/>
    <frame tileid="1091" duration="150"/>
    <frame tileid="1099" duration="150"/>
    <frame tileid="1107" duration="150"/>
    <frame tileid="1115" duration="150"/>
   </animation>
  </tile>
  <tile id="1084">
   <animation>
    <frame tileid="1084" duration="150"/>
    <frame tileid="1092" duration="150"/>
    <frame tileid="1100" duration="150"/>
    <frame tileid="1108" duration="150"/>
    <frame tileid="1116" duration="150"/>
   </animation>
  </tile>
  <tile id="1085">
   <animation>
    <frame tileid="1085" duration="150"/>
    <frame tileid="1093" duration="150"/>
    <frame tileid="1101" duration="150"/>
    <frame tileid="1109" duration="150"/>
    <frame tileid="1117" duration="150"/>
   </animation>
  </tile>
  <tile id="1121">
   <animation>
    <frame tileid="1121" duration="150"/>
    <frame tileid="1129" duration="150"/>
    <frame tileid="1137" duration="150"/>
    <frame tileid="1145" duration="150"/>
    <frame tileid="1153" duration="150"/>
   </animation>
  </tile>
  <tile id="1122">
   <animation>
    <frame tileid="1122" duration="150"/>
    <frame tileid="1130" duration="150"/>
    <frame tileid="1138" duration="150"/>
    <frame tileid="1146" duration="150"/>
    <frame tileid="1154" duration="150"/>
   </animation>
  </tile>
  <tile id="1123">
   <animation>
    <frame tileid="1123" duration="150"/>
    <frame tileid="1131" duration="150"/>
    <frame tileid="1139" duration="150"/>
    <frame tileid="1147" duration="150"/>
    <frame tileid="1155" duration="150"/>
   </animation>
  </tile>
  <tile id="1124">
   <animation>
    <frame tileid="1124" duration="150"/>
    <frame tileid="1132" duration="150"/>
    <frame tileid="1140" duration="150"/>
    <frame tileid="1148" duration="150"/>
    <frame tileid="1156" duration="150"/>
   </animation>
  </tile>
  <tile id="1125">
   <animation>
    <frame tileid="1125" duration="150"/>
    <frame tileid="1133" duration="150"/>
    <frame tileid="1141" duration="150"/>
    <frame tileid="1149" duration="150"/>
    <frame tileid="1157" duration="150"/>
   </animation>
  </tile>
 </tileset>
 <tileset firstgid="23297" name="Rat2_Run_full" tilewidth="16" tileheight="16" tilecount="1536" columns="48">
  <image source="Rat2_Run_head.png" width="768" height="512"/>
  <tile id="98">
   <animation>
    <frame tileid="98" duration="150"/>
    <frame tileid="106" duration="150"/>
    <frame tileid="114" duration="150"/>
    <frame tileid="122" duration="150"/>
    <frame tileid="130" duration="150"/>
    <frame tileid="138" duration="150"/>
   </animation>
  </tile>
  <tile id="99">
   <animation>
    <frame tileid="99" duration="150"/>
    <frame tileid="107" duration="150"/>
    <frame tileid="115" duration="150"/>
    <frame tileid="123" duration="150"/>
    <frame tileid="131" duration="150"/>
    <frame tileid="139" duration="150"/>
   </animation>
  </tile>
  <tile id="100">
   <animation>
    <frame tileid="100" duration="150"/>
    <frame tileid="108" duration="150"/>
    <frame tileid="116" duration="150"/>
    <frame tileid="124" duration="150"/>
    <frame tileid="132" duration="150"/>
    <frame tileid="140" duration="150"/>
   </animation>
  </tile>
  <tile id="101">
   <animation>
    <frame tileid="101" duration="150"/>
    <frame tileid="109" duration="150"/>
    <frame tileid="117" duration="150"/>
    <frame tileid="125" duration="150"/>
    <frame tileid="133" duration="150"/>
    <frame tileid="141" duration="150"/>
   </animation>
  </tile>
  <tile id="146">
   <animation>
    <frame tileid="146" duration="150"/>
    <frame tileid="154" duration="150"/>
    <frame tileid="162" duration="150"/>
    <frame tileid="170" duration="150"/>
    <frame tileid="178" duration="150"/>
    <frame tileid="186" duration="150"/>
   </animation>
  </tile>
  <tile id="147">
   <animation>
    <frame tileid="147" duration="150"/>
    <frame tileid="155" duration="150"/>
    <frame tileid="163" duration="150"/>
    <frame tileid="171" duration="150"/>
    <frame tileid="179" duration="150"/>
    <frame tileid="187" duration="150"/>
   </animation>
  </tile>
  <tile id="148">
   <animation>
    <frame tileid="148" duration="150"/>
    <frame tileid="156" duration="150"/>
    <frame tileid="164" duration="150"/>
    <frame tileid="172" duration="150"/>
    <frame tileid="180" duration="150"/>
    <frame tileid="188" duration="150"/>
   </animation>
  </tile>
  <tile id="149">
   <animation>
    <frame tileid="149" duration="150"/>
    <frame tileid="157" duration="150"/>
    <frame tileid="165" duration="150"/>
    <frame tileid="173" duration="150"/>
    <frame tileid="181" duration="150"/>
    <frame tileid="189" duration="150"/>
   </animation>
  </tile>
  <tile id="195">
   <animation>
    <frame tileid="195" duration="150"/>
    <frame tileid="203" duration="150"/>
    <frame tileid="211" duration="150"/>
    <frame tileid="219" duration="150"/>
    <frame tileid="227" duration="150"/>
    <frame tileid="235" duration="150"/>
   </animation>
  </tile>
  <tile id="196">
   <animation>
    <frame tileid="196" duration="150"/>
    <frame tileid="204" duration="150"/>
    <frame tileid="212" duration="150"/>
    <frame tileid="220" duration="150"/>
    <frame tileid="228" duration="150"/>
    <frame tileid="236" duration="150"/>
   </animation>
  </tile>
  <tile id="482">
   <animation>
    <frame tileid="482" duration="150"/>
    <frame tileid="490" duration="150"/>
    <frame tileid="498" duration="150"/>
    <frame tileid="506" duration="150"/>
    <frame tileid="514" duration="150"/>
    <frame tileid="522" duration="150"/>
   </animation>
  </tile>
  <tile id="483">
   <animation>
    <frame tileid="483" duration="150"/>
    <frame tileid="491" duration="150"/>
    <frame tileid="499" duration="150"/>
    <frame tileid="507" duration="150"/>
    <frame tileid="515" duration="150"/>
    <frame tileid="523" duration="150"/>
   </animation>
  </tile>
  <tile id="484">
   <animation>
    <frame tileid="484" duration="150"/>
    <frame tileid="492" duration="150"/>
    <frame tileid="500" duration="150"/>
    <frame tileid="508" duration="150"/>
    <frame tileid="516" duration="150"/>
    <frame tileid="524" duration="150"/>
   </animation>
  </tile>
  <tile id="485">
   <animation>
    <frame tileid="485" duration="150"/>
    <frame tileid="493" duration="150"/>
    <frame tileid="501" duration="150"/>
    <frame tileid="509" duration="150"/>
    <frame tileid="517" duration="150"/>
    <frame tileid="525" duration="150"/>
   </animation>
  </tile>
  <tile id="530">
   <animation>
    <frame tileid="530" duration="150"/>
    <frame tileid="538" duration="150"/>
    <frame tileid="546" duration="150"/>
    <frame tileid="554" duration="150"/>
    <frame tileid="562" duration="150"/>
    <frame tileid="570" duration="150"/>
   </animation>
  </tile>
  <tile id="531">
   <animation>
    <frame tileid="531" duration="150"/>
    <frame tileid="539" duration="150"/>
    <frame tileid="547" duration="150"/>
    <frame tileid="555" duration="150"/>
    <frame tileid="563" duration="150"/>
    <frame tileid="571" duration="150"/>
   </animation>
  </tile>
  <tile id="532">
   <animation>
    <frame tileid="532" duration="150"/>
    <frame tileid="540" duration="150"/>
    <frame tileid="548" duration="150"/>
    <frame tileid="556" duration="150"/>
    <frame tileid="564" duration="150"/>
    <frame tileid="572" duration="150"/>
   </animation>
  </tile>
  <tile id="533">
   <animation>
    <frame tileid="533" duration="150"/>
    <frame tileid="541" duration="150"/>
    <frame tileid="549" duration="150"/>
    <frame tileid="557" duration="150"/>
    <frame tileid="565" duration="150"/>
    <frame tileid="573" duration="150"/>
   </animation>
  </tile>
  <tile id="579">
   <animation>
    <frame tileid="579" duration="150"/>
    <frame tileid="587" duration="150"/>
    <frame tileid="595" duration="150"/>
    <frame tileid="603" duration="150"/>
    <frame tileid="611" duration="150"/>
    <frame tileid="619" duration="150"/>
   </animation>
  </tile>
  <tile id="580">
   <animation>
    <frame tileid="580" duration="150"/>
    <frame tileid="588" duration="150"/>
    <frame tileid="596" duration="150"/>
    <frame tileid="604" duration="150"/>
    <frame tileid="612" duration="150"/>
    <frame tileid="620" duration="150"/>
   </animation>
  </tile>
  <tile id="866">
   <animation>
    <frame tileid="866" duration="150"/>
    <frame tileid="874" duration="150"/>
    <frame tileid="882" duration="150"/>
    <frame tileid="890" duration="150"/>
    <frame tileid="898" duration="150"/>
    <frame tileid="906" duration="150"/>
   </animation>
  </tile>
  <tile id="867">
   <animation>
    <frame tileid="867" duration="150"/>
    <frame tileid="875" duration="150"/>
    <frame tileid="883" duration="150"/>
    <frame tileid="891" duration="150"/>
    <frame tileid="899" duration="150"/>
    <frame tileid="907" duration="150"/>
   </animation>
  </tile>
  <tile id="868">
   <animation>
    <frame tileid="868" duration="150"/>
    <frame tileid="876" duration="150"/>
    <frame tileid="884" duration="150"/>
    <frame tileid="892" duration="150"/>
    <frame tileid="900" duration="150"/>
    <frame tileid="908" duration="150"/>
   </animation>
  </tile>
  <tile id="869">
   <animation>
    <frame tileid="869" duration="150"/>
    <frame tileid="877" duration="150"/>
    <frame tileid="885" duration="150"/>
    <frame tileid="893" duration="150"/>
    <frame tileid="901" duration="150"/>
    <frame tileid="909" duration="150"/>
   </animation>
  </tile>
  <tile id="914">
   <animation>
    <frame tileid="914" duration="150"/>
    <frame tileid="922" duration="150"/>
    <frame tileid="930" duration="150"/>
    <frame tileid="938" duration="150"/>
    <frame tileid="946" duration="150"/>
    <frame tileid="954" duration="150"/>
   </animation>
  </tile>
  <tile id="915">
   <animation>
    <frame tileid="915" duration="150"/>
    <frame tileid="923" duration="150"/>
    <frame tileid="931" duration="150"/>
    <frame tileid="939" duration="150"/>
    <frame tileid="947" duration="150"/>
    <frame tileid="955" duration="150"/>
   </animation>
  </tile>
  <tile id="916">
   <animation>
    <frame tileid="916" duration="150"/>
    <frame tileid="924" duration="150"/>
    <frame tileid="932" duration="150"/>
    <frame tileid="940" duration="150"/>
    <frame tileid="948" duration="150"/>
    <frame tileid="956" duration="150"/>
   </animation>
  </tile>
  <tile id="917">
   <animation>
    <frame tileid="917" duration="150"/>
    <frame tileid="925" duration="150"/>
    <frame tileid="933" duration="150"/>
    <frame tileid="941" duration="150"/>
    <frame tileid="949" duration="150"/>
    <frame tileid="957" duration="150"/>
   </animation>
  </tile>
  <tile id="918">
   <animation>
    <frame tileid="918" duration="150"/>
    <frame tileid="926" duration="150"/>
    <frame tileid="934" duration="150"/>
    <frame tileid="942" duration="150"/>
    <frame tileid="950" duration="150"/>
    <frame tileid="958" duration="150"/>
   </animation>
  </tile>
  <tile id="962">
   <animation>
    <frame tileid="962" duration="150"/>
    <frame tileid="970" duration="150"/>
    <frame tileid="978" duration="150"/>
    <frame tileid="986" duration="150"/>
    <frame tileid="994" duration="150"/>
    <frame tileid="1002" duration="150"/>
   </animation>
  </tile>
  <tile id="963">
   <animation>
    <frame tileid="963" duration="150"/>
    <frame tileid="971" duration="150"/>
    <frame tileid="979" duration="150"/>
    <frame tileid="987" duration="150"/>
    <frame tileid="995" duration="150"/>
    <frame tileid="1003" duration="150"/>
   </animation>
  </tile>
  <tile id="964">
   <animation>
    <frame tileid="964" duration="150"/>
    <frame tileid="972" duration="150"/>
    <frame tileid="980" duration="150"/>
    <frame tileid="988" duration="150"/>
    <frame tileid="996" duration="150"/>
    <frame tileid="1004" duration="150"/>
   </animation>
  </tile>
  <tile id="965">
   <animation>
    <frame tileid="965" duration="150"/>
    <frame tileid="973" duration="150"/>
    <frame tileid="981" duration="150"/>
    <frame tileid="989" duration="150"/>
    <frame tileid="997" duration="150"/>
    <frame tileid="1005" duration="150"/>
   </animation>
  </tile>
  <tile id="966">
   <animation>
    <frame tileid="966" duration="150"/>
    <frame tileid="974" duration="150"/>
    <frame tileid="982" duration="150"/>
    <frame tileid="990" duration="150"/>
    <frame tileid="998" duration="150"/>
    <frame tileid="1006" duration="150"/>
   </animation>
  </tile>
  <tile id="1250">
   <animation>
    <frame tileid="1250" duration="150"/>
    <frame tileid="1258" duration="150"/>
    <frame tileid="1266" duration="150"/>
    <frame tileid="1273" duration="150"/>
    <frame tileid="1282" duration="150"/>
    <frame tileid="1290" duration="150"/>
   </animation>
  </tile>
  <tile id="1251">
   <animation>
    <frame tileid="1251" duration="150"/>
    <frame tileid="1259" duration="150"/>
    <frame tileid="1267" duration="150"/>
    <frame tileid="1275" duration="150"/>
    <frame tileid="1283" duration="150"/>
    <frame tileid="1291" duration="150"/>
   </animation>
  </tile>
  <tile id="1252">
   <animation>
    <frame tileid="1252" duration="150"/>
    <frame tileid="1260" duration="150"/>
    <frame tileid="1268" duration="150"/>
    <frame tileid="1276" duration="150"/>
    <frame tileid="1284" duration="150"/>
    <frame tileid="1292" duration="150"/>
   </animation>
  </tile>
  <tile id="1253">
   <animation>
    <frame tileid="1253" duration="150"/>
    <frame tileid="1261" duration="150"/>
    <frame tileid="1269" duration="150"/>
    <frame tileid="1277" duration="150"/>
    <frame tileid="1285" duration="150"/>
    <frame tileid="1293" duration="150"/>
   </animation>
  </tile>
  <tile id="1297">
   <animation>
    <frame tileid="1297" duration="150"/>
    <frame tileid="1305" duration="150"/>
    <frame tileid="1313" duration="150"/>
    <frame tileid="1321" duration="150"/>
    <frame tileid="1329" duration="150"/>
    <frame tileid="1337" duration="150"/>
   </animation>
  </tile>
  <tile id="1298">
   <animation>
    <frame tileid="1298" duration="150"/>
    <frame tileid="1306" duration="150"/>
    <frame tileid="1314" duration="150"/>
    <frame tileid="1322" duration="150"/>
    <frame tileid="1330" duration="150"/>
    <frame tileid="1338" duration="150"/>
   </animation>
  </tile>
  <tile id="1299">
   <animation>
    <frame tileid="1299" duration="150"/>
    <frame tileid="1307" duration="150"/>
    <frame tileid="1315" duration="150"/>
    <frame tileid="1323" duration="150"/>
    <frame tileid="1331" duration="150"/>
    <frame tileid="1339" duration="150"/>
   </animation>
  </tile>
  <tile id="1300">
   <animation>
    <frame tileid="1300" duration="150"/>
    <frame tileid="1308" duration="150"/>
    <frame tileid="1316" duration="150"/>
    <frame tileid="1324" duration="150"/>
    <frame tileid="1332" duration="150"/>
    <frame tileid="1340" duration="150"/>
   </animation>
  </tile>
  <tile id="1301">
   <animation>
    <frame tileid="1301" duration="150"/>
    <frame tileid="1309" duration="150"/>
    <frame tileid="1317" duration="150"/>
    <frame tileid="1325" duration="150"/>
    <frame tileid="1333" duration="150"/>
    <frame tileid="1341" duration="150"/>
   </animation>
  </tile>
  <tile id="1345">
   <animation>
    <frame tileid="1345" duration="150"/>
    <frame tileid="1353" duration="150"/>
    <frame tileid="1361" duration="150"/>
    <frame tileid="1369" duration="150"/>
    <frame tileid="1377" duration="150"/>
    <frame tileid="1385" duration="150"/>
   </animation>
  </tile>
  <tile id="1346">
   <animation>
    <frame tileid="1346" duration="150"/>
    <frame tileid="1354" duration="150"/>
    <frame tileid="1362" duration="150"/>
    <frame tileid="1370" duration="150"/>
    <frame tileid="1378" duration="150"/>
    <frame tileid="1386" duration="150"/>
   </animation>
  </tile>
  <tile id="1347">
   <animation>
    <frame tileid="1347" duration="150"/>
    <frame tileid="1355" duration="150"/>
    <frame tileid="1363" duration="150"/>
    <frame tileid="1371" duration="150"/>
    <frame tileid="1379" duration="150"/>
    <frame tileid="1387" duration="150"/>
   </animation>
  </tile>
  <tile id="1348">
   <animation>
    <frame tileid="1348" duration="150"/>
    <frame tileid="1356" duration="150"/>
    <frame tileid="1364" duration="150"/>
    <frame tileid="1372" duration="150"/>
    <frame tileid="1380" duration="150"/>
    <frame tileid="1388" duration="150"/>
   </animation>
  </tile>
  <tile id="1349">
   <animation>
    <frame tileid="1349" duration="150"/>
    <frame tileid="1357" duration="150"/>
    <frame tileid="1365" duration="150"/>
    <frame tileid="1373" duration="150"/>
    <frame tileid="1381" duration="150"/>
    <frame tileid="1389" duration="150"/>
   </animation>
  </tile>
 </tileset>
 <tileset firstgid="24833" name="Rat2_Attack_full" tilewidth="16" tileheight="16" tilecount="2048" columns="64">
  <image source="Rat2_Attack_head.png" width="1024" height="512"/>
  <tile id="67">
   <animation>
    <frame tileid="67" duration="150"/>
    <frame tileid="75" duration="150"/>
    <frame tileid="83" duration="150"/>
    <frame tileid="91" duration="150"/>
    <frame tileid="99" duration="150"/>
    <frame tileid="107" duration="150"/>
    <frame tileid="115" duration="150"/>
    <frame tileid="123" duration="150"/>
   </animation>
  </tile>
  <tile id="68">
   <animation>
    <frame tileid="68" duration="150"/>
    <frame tileid="76" duration="150"/>
    <frame tileid="84" duration="150"/>
    <frame tileid="92" duration="150"/>
    <frame tileid="100" duration="150"/>
    <frame tileid="108" duration="150"/>
    <frame tileid="116" duration="150"/>
    <frame tileid="124" duration="150"/>
   </animation>
  </tile>
  <tile id="131">
   <animation>
    <frame tileid="131" duration="150"/>
    <frame tileid="139" duration="150"/>
    <frame tileid="147" duration="150"/>
    <frame tileid="155" duration="150"/>
    <frame tileid="163" duration="150"/>
    <frame tileid="171" duration="150"/>
    <frame tileid="179" duration="150"/>
    <frame tileid="187" duration="150"/>
   </animation>
  </tile>
  <tile id="132">
   <animation>
    <frame tileid="132" duration="150"/>
    <frame tileid="140" duration="150"/>
    <frame tileid="148" duration="150"/>
    <frame tileid="156" duration="150"/>
    <frame tileid="164" duration="150"/>
    <frame tileid="172" duration="150"/>
    <frame tileid="180" duration="150"/>
    <frame tileid="188" duration="150"/>
   </animation>
  </tile>
  <tile id="194">
   <animation>
    <frame tileid="194" duration="150"/>
    <frame tileid="202" duration="150"/>
    <frame tileid="210" duration="150"/>
    <frame tileid="218" duration="150"/>
    <frame tileid="226" duration="150"/>
    <frame tileid="234" duration="150"/>
    <frame tileid="242" duration="150"/>
    <frame tileid="250" duration="150"/>
   </animation>
  </tile>
  <tile id="195">
   <animation>
    <frame tileid="195" duration="150"/>
    <frame tileid="203" duration="150"/>
    <frame tileid="211" duration="150"/>
    <frame tileid="219" duration="150"/>
    <frame tileid="227" duration="150"/>
    <frame tileid="235" duration="150"/>
    <frame tileid="243" duration="150"/>
    <frame tileid="251" duration="150"/>
   </animation>
  </tile>
  <tile id="196">
   <animation>
    <frame tileid="196" duration="150"/>
    <frame tileid="204" duration="150"/>
    <frame tileid="212" duration="150"/>
    <frame tileid="220" duration="150"/>
    <frame tileid="228" duration="150"/>
    <frame tileid="236" duration="150"/>
    <frame tileid="244" duration="150"/>
    <frame tileid="252" duration="150"/>
   </animation>
  </tile>
  <tile id="197">
   <animation>
    <frame tileid="197" duration="150"/>
    <frame tileid="205" duration="150"/>
    <frame tileid="213" duration="150"/>
    <frame tileid="221" duration="150"/>
    <frame tileid="229" duration="150"/>
    <frame tileid="237" duration="150"/>
    <frame tileid="245" duration="150"/>
    <frame tileid="253" duration="150"/>
   </animation>
  </tile>
  <tile id="258">
   <animation>
    <frame tileid="258" duration="150"/>
    <frame tileid="266" duration="150"/>
    <frame tileid="274" duration="150"/>
    <frame tileid="282" duration="150"/>
    <frame tileid="290" duration="150"/>
    <frame tileid="298" duration="150"/>
    <frame tileid="306" duration="150"/>
    <frame tileid="314" duration="150"/>
   </animation>
  </tile>
  <tile id="259">
   <animation>
    <frame tileid="259" duration="150"/>
    <frame tileid="267" duration="150"/>
    <frame tileid="275" duration="150"/>
    <frame tileid="283" duration="150"/>
    <frame tileid="291" duration="150"/>
    <frame tileid="299" duration="150"/>
    <frame tileid="307" duration="150"/>
    <frame tileid="315" duration="150"/>
   </animation>
  </tile>
  <tile id="260">
   <animation>
    <frame tileid="260" duration="150"/>
    <frame tileid="268" duration="150"/>
    <frame tileid="276" duration="150"/>
    <frame tileid="284" duration="150"/>
    <frame tileid="292" duration="150"/>
    <frame tileid="300" duration="150"/>
    <frame tileid="308" duration="150"/>
    <frame tileid="316" duration="150"/>
   </animation>
  </tile>
  <tile id="261">
   <animation>
    <frame tileid="261" duration="150"/>
    <frame tileid="269" duration="150"/>
    <frame tileid="277" duration="150"/>
    <frame tileid="285" duration="150"/>
    <frame tileid="293" duration="150"/>
    <frame tileid="301" duration="150"/>
    <frame tileid="309" duration="150"/>
    <frame tileid="317" duration="150"/>
   </animation>
  </tile>
  <tile id="322">
   <animation>
    <frame tileid="322" duration="150"/>
    <frame tileid="330" duration="150"/>
    <frame tileid="338" duration="150"/>
    <frame tileid="346" duration="150"/>
    <frame tileid="354" duration="150"/>
    <frame tileid="362" duration="150"/>
    <frame tileid="370" duration="150"/>
    <frame tileid="378" duration="150"/>
   </animation>
  </tile>
  <tile id="323">
   <animation>
    <frame tileid="323" duration="150"/>
    <frame tileid="331" duration="150"/>
    <frame tileid="339" duration="150"/>
    <frame tileid="347" duration="150"/>
    <frame tileid="355" duration="150"/>
    <frame tileid="363" duration="150"/>
    <frame tileid="371" duration="150"/>
    <frame tileid="379" duration="150"/>
   </animation>
  </tile>
  <tile id="324">
   <animation>
    <frame tileid="324" duration="150"/>
    <frame tileid="332" duration="150"/>
    <frame tileid="340" duration="150"/>
    <frame tileid="348" duration="150"/>
    <frame tileid="356" duration="150"/>
    <frame tileid="364" duration="150"/>
    <frame tileid="372" duration="150"/>
    <frame tileid="380" duration="150"/>
   </animation>
  </tile>
  <tile id="325">
   <animation>
    <frame tileid="325" duration="150"/>
    <frame tileid="333" duration="150"/>
    <frame tileid="341" duration="150"/>
    <frame tileid="349" duration="150"/>
    <frame tileid="357" duration="150"/>
    <frame tileid="365" duration="150"/>
    <frame tileid="373" duration="150"/>
    <frame tileid="381" duration="150"/>
   </animation>
  </tile>
  <tile id="388">
   <animation>
    <frame tileid="388" duration="150"/>
    <frame tileid="396" duration="150"/>
    <frame tileid="404" duration="150"/>
    <frame tileid="412" duration="150"/>
    <frame tileid="420" duration="150"/>
    <frame tileid="428" duration="150"/>
    <frame tileid="436" duration="150"/>
    <frame tileid="444" duration="150"/>
   </animation>
  </tile>
  <tile id="579">
   <animation>
    <frame tileid="579" duration="150"/>
    <frame tileid="587" duration="150"/>
    <frame tileid="595" duration="150"/>
    <frame tileid="603" duration="150"/>
    <frame tileid="611" duration="150"/>
    <frame tileid="619" duration="150"/>
    <frame tileid="627" duration="150"/>
    <frame tileid="635" duration="150"/>
   </animation>
  </tile>
  <tile id="580">
   <animation>
    <frame tileid="580" duration="150"/>
    <frame tileid="588" duration="150"/>
    <frame tileid="596" duration="150"/>
    <frame tileid="604" duration="150"/>
    <frame tileid="612" duration="150"/>
    <frame tileid="620" duration="150"/>
    <frame tileid="628" duration="150"/>
    <frame tileid="636" duration="150"/>
   </animation>
  </tile>
  <tile id="642">
   <animation>
    <frame tileid="642" duration="150"/>
    <frame tileid="650" duration="150"/>
    <frame tileid="658" duration="150"/>
    <frame tileid="666" duration="150"/>
    <frame tileid="674" duration="150"/>
    <frame tileid="682" duration="150"/>
    <frame tileid="690" duration="150"/>
    <frame tileid="698" duration="150"/>
   </animation>
  </tile>
  <tile id="643">
   <animation>
    <frame tileid="643" duration="150"/>
    <frame tileid="651" duration="150"/>
    <frame tileid="659" duration="150"/>
    <frame tileid="667" duration="150"/>
    <frame tileid="675" duration="150"/>
    <frame tileid="683" duration="150"/>
    <frame tileid="691" duration="150"/>
    <frame tileid="699" duration="150"/>
   </animation>
  </tile>
  <tile id="644">
   <animation>
    <frame tileid="644" duration="150"/>
    <frame tileid="652" duration="150"/>
    <frame tileid="660" duration="150"/>
    <frame tileid="668" duration="150"/>
    <frame tileid="676" duration="150"/>
    <frame tileid="684" duration="150"/>
    <frame tileid="692" duration="150"/>
    <frame tileid="700" duration="150"/>
   </animation>
  </tile>
  <tile id="645">
   <animation>
    <frame tileid="645" duration="150"/>
    <frame tileid="653" duration="150"/>
    <frame tileid="661" duration="150"/>
    <frame tileid="669" duration="150"/>
    <frame tileid="677" duration="150"/>
    <frame tileid="685" duration="150"/>
    <frame tileid="693" duration="150"/>
    <frame tileid="701" duration="150"/>
   </animation>
  </tile>
  <tile id="706">
   <animation>
    <frame tileid="706" duration="150"/>
    <frame tileid="714" duration="150"/>
    <frame tileid="722" duration="150"/>
    <frame tileid="730" duration="150"/>
    <frame tileid="738" duration="150"/>
    <frame tileid="746" duration="150"/>
    <frame tileid="754" duration="150"/>
    <frame tileid="762" duration="150"/>
   </animation>
  </tile>
  <tile id="707">
   <animation>
    <frame tileid="707" duration="150"/>
    <frame tileid="715" duration="150"/>
    <frame tileid="723" duration="150"/>
    <frame tileid="731" duration="150"/>
    <frame tileid="739" duration="150"/>
    <frame tileid="747" duration="150"/>
    <frame tileid="755" duration="150"/>
    <frame tileid="763" duration="150"/>
   </animation>
  </tile>
  <tile id="708">
   <animation>
    <frame tileid="708" duration="150"/>
    <frame tileid="716" duration="150"/>
    <frame tileid="724" duration="150"/>
    <frame tileid="732" duration="150"/>
    <frame tileid="740" duration="150"/>
    <frame tileid="748" duration="150"/>
    <frame tileid="756" duration="150"/>
    <frame tileid="764" duration="150"/>
   </animation>
  </tile>
  <tile id="709">
   <animation>
    <frame tileid="709" duration="150"/>
    <frame tileid="717" duration="150"/>
    <frame tileid="725" duration="150"/>
    <frame tileid="733" duration="150"/>
    <frame tileid="741" duration="150"/>
    <frame tileid="749" duration="150"/>
    <frame tileid="757" duration="150"/>
    <frame tileid="765" duration="150"/>
   </animation>
  </tile>
  <tile id="771">
   <animation>
    <frame tileid="771" duration="150"/>
    <frame tileid="779" duration="150"/>
    <frame tileid="787" duration="150"/>
    <frame tileid="795" duration="150"/>
    <frame tileid="803" duration="150"/>
    <frame tileid="811" duration="150"/>
    <frame tileid="819" duration="150"/>
    <frame tileid="827" duration="150"/>
   </animation>
  </tile>
  <tile id="772">
   <animation>
    <frame tileid="772" duration="150"/>
    <frame tileid="780" duration="150"/>
    <frame tileid="788" duration="150"/>
    <frame tileid="796" duration="150"/>
    <frame tileid="804" duration="150"/>
    <frame tileid="812" duration="150"/>
    <frame tileid="820" duration="150"/>
    <frame tileid="828" duration="150"/>
   </animation>
  </tile>
  <tile id="773">
   <animation>
    <frame tileid="773" duration="150"/>
    <frame tileid="781" duration="150"/>
    <frame tileid="789" duration="150"/>
    <frame tileid="797" duration="150"/>
    <frame tileid="805" duration="150"/>
    <frame tileid="813" duration="150"/>
    <frame tileid="821" duration="150"/>
    <frame tileid="829" duration="150"/>
   </animation>
  </tile>
  <tile id="1093">
   <animation>
    <frame tileid="1093" duration="150"/>
    <frame tileid="1101" duration="150"/>
    <frame tileid="1109" duration="150"/>
    <frame tileid="1117" duration="150"/>
    <frame tileid="1125" duration="150"/>
    <frame tileid="1133" duration="150"/>
    <frame tileid="1141" duration="150"/>
    <frame tileid="1149" duration="150"/>
   </animation>
  </tile>
  <tile id="1094">
   <animation>
    <frame tileid="1094" duration="150"/>
    <frame tileid="1102" duration="150"/>
    <frame tileid="1110" duration="150"/>
    <frame tileid="1118" duration="150"/>
    <frame tileid="1126" duration="150"/>
    <frame tileid="1134" duration="150"/>
    <frame tileid="1142" duration="150"/>
    <frame tileid="1150" duration="150"/>
   </animation>
  </tile>
  <tile id="1154">
   <animation>
    <frame tileid="1154" duration="150"/>
    <frame tileid="1162" duration="150"/>
    <frame tileid="1170" duration="150"/>
    <frame tileid="1178" duration="150"/>
    <frame tileid="1186" duration="150"/>
    <frame tileid="1194" duration="150"/>
    <frame tileid="1202" duration="150"/>
    <frame tileid="1210" duration="150"/>
   </animation>
  </tile>
  <tile id="1155">
   <animation>
    <frame tileid="1155" duration="150"/>
    <frame tileid="1163" duration="150"/>
    <frame tileid="1171" duration="150"/>
    <frame tileid="1179" duration="150"/>
    <frame tileid="1187" duration="150"/>
    <frame tileid="1195" duration="150"/>
    <frame tileid="1203" duration="150"/>
    <frame tileid="1211" duration="150"/>
   </animation>
  </tile>
  <tile id="1156">
   <animation>
    <frame tileid="1156" duration="150"/>
    <frame tileid="1164" duration="150"/>
    <frame tileid="1172" duration="150"/>
    <frame tileid="1180" duration="150"/>
    <frame tileid="1188" duration="150"/>
    <frame tileid="1196" duration="150"/>
    <frame tileid="1204" duration="150"/>
    <frame tileid="1212" duration="150"/>
   </animation>
  </tile>
  <tile id="1157">
   <animation>
    <frame tileid="1157" duration="150"/>
    <frame tileid="1165" duration="150"/>
    <frame tileid="1173" duration="150"/>
    <frame tileid="1181" duration="150"/>
    <frame tileid="1189" duration="150"/>
    <frame tileid="1197" duration="150"/>
    <frame tileid="1205" duration="150"/>
    <frame tileid="1213" duration="150"/>
   </animation>
  </tile>
  <tile id="1158">
   <animation>
    <frame tileid="1158" duration="150"/>
    <frame tileid="1166" duration="150"/>
    <frame tileid="1174" duration="150"/>
    <frame tileid="1182" duration="150"/>
    <frame tileid="1190" duration="150"/>
    <frame tileid="1198" duration="150"/>
    <frame tileid="1206" duration="150"/>
    <frame tileid="1214" duration="150"/>
   </animation>
  </tile>
  <tile id="1216">
   <animation>
    <frame tileid="1216" duration="150"/>
    <frame tileid="1224" duration="150"/>
    <frame tileid="1232" duration="150"/>
    <frame tileid="1240" duration="150"/>
    <frame tileid="1248" duration="150"/>
    <frame tileid="1256" duration="150"/>
    <frame tileid="1264" duration="150"/>
    <frame tileid="1272" duration="150"/>
   </animation>
  </tile>
  <tile id="1217">
   <animation>
    <frame tileid="1217" duration="150"/>
    <frame tileid="1225" duration="150"/>
    <frame tileid="1233" duration="150"/>
    <frame tileid="1241" duration="150"/>
    <frame tileid="1249" duration="150"/>
    <frame tileid="1257" duration="150"/>
    <frame tileid="1265" duration="150"/>
    <frame tileid="1273" duration="150"/>
   </animation>
  </tile>
  <tile id="1218">
   <animation>
    <frame tileid="1218" duration="150"/>
    <frame tileid="1226" duration="150"/>
    <frame tileid="1234" duration="150"/>
    <frame tileid="1242" duration="150"/>
    <frame tileid="1250" duration="150"/>
    <frame tileid="1258" duration="150"/>
    <frame tileid="1266" duration="150"/>
    <frame tileid="1274" duration="150"/>
   </animation>
  </tile>
  <tile id="1219">
   <animation>
    <frame tileid="1219" duration="150"/>
    <frame tileid="1227" duration="150"/>
    <frame tileid="1235" duration="150"/>
    <frame tileid="1243" duration="150"/>
    <frame tileid="1251" duration="150"/>
    <frame tileid="1259" duration="150"/>
    <frame tileid="1267" duration="150"/>
    <frame tileid="1275" duration="150"/>
   </animation>
  </tile>
  <tile id="1220">
   <animation>
    <frame tileid="1220" duration="150"/>
    <frame tileid="1228" duration="150"/>
    <frame tileid="1236" duration="150"/>
    <frame tileid="1244" duration="150"/>
    <frame tileid="1252" duration="150"/>
    <frame tileid="1260" duration="150"/>
    <frame tileid="1268" duration="150"/>
    <frame tileid="1276" duration="150"/>
   </animation>
  </tile>
  <tile id="1221">
   <animation>
    <frame tileid="1221" duration="150"/>
    <frame tileid="1229" duration="150"/>
    <frame tileid="1237" duration="150"/>
    <frame tileid="1245" duration="150"/>
    <frame tileid="1253" duration="150"/>
    <frame tileid="1261" duration="150"/>
    <frame tileid="1269" duration="150"/>
    <frame tileid="1277" duration="150"/>
   </animation>
  </tile>
  <tile id="1222">
   <animation>
    <frame tileid="1222" duration="150"/>
    <frame tileid="1230" duration="150"/>
    <frame tileid="1238" duration="150"/>
    <frame tileid="1246" duration="150"/>
    <frame tileid="1254" duration="150"/>
    <frame tileid="1262" duration="150"/>
    <frame tileid="1270" duration="150"/>
    <frame tileid="1278" duration="150"/>
   </animation>
  </tile>
  <tile id="1280">
   <animation>
    <frame tileid="1280" duration="150"/>
    <frame tileid="1288" duration="150"/>
    <frame tileid="1296" duration="150"/>
    <frame tileid="1304" duration="150"/>
    <frame tileid="1312" duration="150"/>
    <frame tileid="1320" duration="150"/>
    <frame tileid="1328" duration="150"/>
    <frame tileid="1336" duration="150"/>
   </animation>
  </tile>
  <tile id="1281">
   <animation>
    <frame tileid="1281" duration="150"/>
    <frame tileid="1289" duration="150"/>
    <frame tileid="1297" duration="150"/>
    <frame tileid="1305" duration="150"/>
    <frame tileid="1313" duration="150"/>
    <frame tileid="1321" duration="150"/>
    <frame tileid="1329" duration="150"/>
    <frame tileid="1337" duration="150"/>
   </animation>
  </tile>
  <tile id="1282">
   <animation>
    <frame tileid="1282" duration="150"/>
    <frame tileid="1290" duration="150"/>
    <frame tileid="1298" duration="150"/>
    <frame tileid="1306" duration="150"/>
    <frame tileid="1314" duration="150"/>
    <frame tileid="1322" duration="150"/>
    <frame tileid="1330" duration="150"/>
    <frame tileid="1338" duration="150"/>
   </animation>
  </tile>
  <tile id="1283">
   <animation>
    <frame tileid="1283" duration="150"/>
    <frame tileid="1291" duration="150"/>
    <frame tileid="1299" duration="150"/>
    <frame tileid="1307" duration="150"/>
    <frame tileid="1315" duration="150"/>
    <frame tileid="1323" duration="150"/>
    <frame tileid="1331" duration="150"/>
    <frame tileid="1339" duration="150"/>
   </animation>
  </tile>
  <tile id="1284">
   <animation>
    <frame tileid="1284" duration="150"/>
    <frame tileid="1292" duration="150"/>
    <frame tileid="1300" duration="150"/>
    <frame tileid="1308" duration="150"/>
    <frame tileid="1316" duration="150"/>
    <frame tileid="1324" duration="150"/>
    <frame tileid="1332" duration="150"/>
    <frame tileid="1340" duration="150"/>
   </animation>
  </tile>
  <tile id="1285">
   <animation>
    <frame tileid="1285" duration="150"/>
    <frame tileid="1293" duration="150"/>
    <frame tileid="1301" duration="150"/>
    <frame tileid="1309" duration="150"/>
    <frame tileid="1317" duration="150"/>
    <frame tileid="1325" duration="150"/>
    <frame tileid="1333" duration="150"/>
    <frame tileid="1341" duration="150"/>
   </animation>
  </tile>
  <tile id="1286">
   <animation>
    <frame tileid="1286" duration="150"/>
    <frame tileid="1294" duration="150"/>
    <frame tileid="1302" duration="150"/>
    <frame tileid="1310" duration="150"/>
    <frame tileid="1318" duration="150"/>
    <frame tileid="1326" duration="150"/>
    <frame tileid="1334" duration="150"/>
    <frame tileid="1342" duration="150"/>
   </animation>
  </tile>
  <tile id="1344">
   <animation>
    <frame tileid="1344" duration="150"/>
    <frame tileid="1352" duration="150"/>
    <frame tileid="1360" duration="150"/>
    <frame tileid="1368" duration="150"/>
    <frame tileid="1376" duration="150"/>
    <frame tileid="1384" duration="150"/>
    <frame tileid="1392" duration="150"/>
    <frame tileid="1400" duration="150"/>
   </animation>
  </tile>
  <tile id="1345">
   <animation>
    <frame tileid="1345" duration="150"/>
    <frame tileid="1353" duration="150"/>
    <frame tileid="1361" duration="150"/>
    <frame tileid="1369" duration="150"/>
    <frame tileid="1377" duration="150"/>
    <frame tileid="1385" duration="150"/>
    <frame tileid="1393" duration="150"/>
    <frame tileid="1401" duration="150"/>
   </animation>
  </tile>
  <tile id="1346">
   <animation>
    <frame tileid="1346" duration="150"/>
    <frame tileid="1354" duration="150"/>
    <frame tileid="1362" duration="150"/>
    <frame tileid="1370" duration="150"/>
    <frame tileid="1378" duration="150"/>
    <frame tileid="1386" duration="150"/>
    <frame tileid="1394" duration="150"/>
    <frame tileid="1402" duration="150"/>
   </animation>
  </tile>
  <tile id="1601">
   <animation>
    <frame tileid="1601" duration="150"/>
    <frame tileid="1609" duration="150"/>
    <frame tileid="1617" duration="150"/>
    <frame tileid="1625" duration="150"/>
    <frame tileid="1633" duration="150"/>
    <frame tileid="1641" duration="150"/>
    <frame tileid="1649" duration="150"/>
    <frame tileid="1657" duration="150"/>
   </animation>
  </tile>
  <tile id="1602">
   <animation>
    <frame tileid="1602" duration="150"/>
    <frame tileid="1610" duration="150"/>
    <frame tileid="1618" duration="150"/>
    <frame tileid="1626" duration="150"/>
    <frame tileid="1634" duration="150"/>
    <frame tileid="1642" duration="150"/>
    <frame tileid="1650" duration="150"/>
    <frame tileid="1658" duration="150"/>
   </animation>
  </tile>
  <tile id="1603">
   <animation>
    <frame tileid="1603" duration="150"/>
    <frame tileid="1611" duration="150"/>
    <frame tileid="1619" duration="150"/>
    <frame tileid="1627" duration="150"/>
    <frame tileid="1635" duration="150"/>
    <frame tileid="1643" duration="150"/>
    <frame tileid="1651" duration="150"/>
    <frame tileid="1659" duration="150"/>
   </animation>
  </tile>
  <tile id="1604">
   <animation>
    <frame tileid="1604" duration="150"/>
    <frame tileid="1612" duration="150"/>
    <frame tileid="1620" duration="150"/>
    <frame tileid="1628" duration="150"/>
    <frame tileid="1636" duration="150"/>
    <frame tileid="1644" duration="150"/>
    <frame tileid="1652" duration="150"/>
    <frame tileid="1660" duration="150"/>
   </animation>
  </tile>
  <tile id="1665">
   <animation>
    <frame tileid="1665" duration="150"/>
    <frame tileid="1673" duration="150"/>
    <frame tileid="1681" duration="150"/>
    <frame tileid="1689" duration="150"/>
    <frame tileid="1697" duration="150"/>
    <frame tileid="1705" duration="150"/>
    <frame tileid="1713" duration="150"/>
    <frame tileid="1721" duration="150"/>
   </animation>
  </tile>
  <tile id="1666">
   <animation>
    <frame tileid="1666" duration="150"/>
    <frame tileid="1674" duration="150"/>
    <frame tileid="1682" duration="150"/>
    <frame tileid="1690" duration="150"/>
    <frame tileid="1698" duration="150"/>
    <frame tileid="1706" duration="150"/>
    <frame tileid="1714" duration="150"/>
    <frame tileid="1722" duration="150"/>
   </animation>
  </tile>
  <tile id="1667">
   <animation>
    <frame tileid="1667" duration="150"/>
    <frame tileid="1675" duration="150"/>
    <frame tileid="1683" duration="150"/>
    <frame tileid="1691" duration="150"/>
    <frame tileid="1699" duration="150"/>
    <frame tileid="1707" duration="150"/>
    <frame tileid="1715" duration="150"/>
    <frame tileid="1723" duration="150"/>
   </animation>
  </tile>
  <tile id="1668">
   <animation>
    <frame tileid="1668" duration="150"/>
    <frame tileid="1676" duration="150"/>
    <frame tileid="1684" duration="150"/>
    <frame tileid="1692" duration="150"/>
    <frame tileid="1700" duration="150"/>
    <frame tileid="1708" duration="150"/>
    <frame tileid="1716" duration="150"/>
    <frame tileid="1724" duration="150"/>
   </animation>
  </tile>
  <tile id="1669">
   <animation>
    <frame tileid="1669" duration="150"/>
    <frame tileid="1677" duration="150"/>
    <frame tileid="1685" duration="150"/>
    <frame tileid="1693" duration="150"/>
    <frame tileid="1701" duration="150"/>
    <frame tileid="1709" duration="150"/>
    <frame tileid="1717" duration="150"/>
    <frame tileid="1725" duration="150"/>
   </animation>
  </tile>
  <tile id="1729">
   <animation>
    <frame tileid="1729" duration="150"/>
    <frame tileid="1737" duration="150"/>
    <frame tileid="1745" duration="150"/>
    <frame tileid="1753" duration="150"/>
    <frame tileid="1761" duration="150"/>
    <frame tileid="1769" duration="150"/>
    <frame tileid="1777" duration="150"/>
    <frame tileid="1785" duration="150"/>
   </animation>
  </tile>
  <tile id="1730">
   <animation>
    <frame tileid="1730" duration="150"/>
    <frame tileid="1738" duration="150"/>
    <frame tileid="1746" duration="150"/>
    <frame tileid="1754" duration="150"/>
    <frame tileid="1762" duration="150"/>
    <frame tileid="1770" duration="150"/>
    <frame tileid="1778" duration="150"/>
    <frame tileid="1786" duration="150"/>
   </animation>
  </tile>
  <tile id="1731">
   <animation>
    <frame tileid="1731" duration="150"/>
    <frame tileid="1739" duration="150"/>
    <frame tileid="1747" duration="150"/>
    <frame tileid="1755" duration="150"/>
    <frame tileid="1763" duration="150"/>
    <frame tileid="1771" duration="150"/>
    <frame tileid="1779" duration="150"/>
    <frame tileid="1787" duration="150"/>
   </animation>
  </tile>
  <tile id="1732">
   <animation>
    <frame tileid="1732" duration="150"/>
    <frame tileid="1740" duration="150"/>
    <frame tileid="1748" duration="150"/>
    <frame tileid="1756" duration="150"/>
    <frame tileid="1764" duration="150"/>
    <frame tileid="1772" duration="150"/>
    <frame tileid="1780" duration="150"/>
    <frame tileid="1788" duration="150"/>
   </animation>
  </tile>
  <tile id="1733">
   <animation>
    <frame tileid="1733" duration="150"/>
    <frame tileid="1741" duration="150"/>
    <frame tileid="1749" duration="150"/>
    <frame tileid="1757" duration="150"/>
    <frame tileid="1765" duration="150"/>
    <frame tileid="1773" duration="150"/>
    <frame tileid="1781" duration="150"/>
    <frame tileid="1789" duration="150"/>
   </animation>
  </tile>
  <tile id="1734">
   <animation>
    <frame tileid="1734" duration="150"/>
    <frame tileid="1742" duration="150"/>
    <frame tileid="1750" duration="150"/>
    <frame tileid="1758" duration="150"/>
    <frame tileid="1766" duration="150"/>
    <frame tileid="1774" duration="150"/>
    <frame tileid="1782" duration="150"/>
    <frame tileid="1790" duration="150"/>
   </animation>
  </tile>
  <tile id="1735">
   <animation>
    <frame tileid="1735" duration="150"/>
    <frame tileid="1743" duration="150"/>
    <frame tileid="1751" duration="150"/>
    <frame tileid="1759" duration="150"/>
    <frame tileid="1767" duration="150"/>
    <frame tileid="1775" duration="150"/>
    <frame tileid="1783" duration="150"/>
    <frame tileid="1791" duration="150"/>
   </animation>
  </tile>
  <tile id="1793">
   <animation>
    <frame tileid="1793" duration="150"/>
    <frame tileid="1801" duration="150"/>
    <frame tileid="1809" duration="150"/>
    <frame tileid="1817" duration="150"/>
    <frame tileid="1825" duration="150"/>
    <frame tileid="1833" duration="150"/>
    <frame tileid="1841" duration="150"/>
    <frame tileid="1849" duration="150"/>
   </animation>
  </tile>
  <tile id="1794">
   <animation>
    <frame tileid="1794" duration="150"/>
    <frame tileid="1802" duration="150"/>
    <frame tileid="1810" duration="150"/>
    <frame tileid="1818" duration="150"/>
    <frame tileid="1826" duration="150"/>
    <frame tileid="1834" duration="150"/>
    <frame tileid="1842" duration="150"/>
    <frame tileid="1850" duration="150"/>
   </animation>
  </tile>
  <tile id="1795">
   <animation>
    <frame tileid="1795" duration="150"/>
    <frame tileid="1803" duration="150"/>
    <frame tileid="1811" duration="150"/>
    <frame tileid="1819" duration="150"/>
    <frame tileid="1827" duration="150"/>
    <frame tileid="1835" duration="150"/>
    <frame tileid="1843" duration="150"/>
    <frame tileid="1851" duration="150"/>
   </animation>
  </tile>
  <tile id="1796">
   <animation>
    <frame tileid="1796" duration="150"/>
    <frame tileid="1804" duration="150"/>
    <frame tileid="1812" duration="150"/>
    <frame tileid="1820" duration="150"/>
    <frame tileid="1828" duration="150"/>
    <frame tileid="1836" duration="150"/>
    <frame tileid="1844" duration="150"/>
    <frame tileid="1852" duration="150"/>
   </animation>
  </tile>
  <tile id="1797">
   <animation>
    <frame tileid="1797" duration="150"/>
    <frame tileid="1805" duration="150"/>
    <frame tileid="1813" duration="150"/>
    <frame tileid="1821" duration="150"/>
    <frame tileid="1829" duration="150"/>
    <frame tileid="1837" duration="150"/>
    <frame tileid="1845" duration="150"/>
    <frame tileid="1853" duration="150"/>
   </animation>
  </tile>
  <tile id="1798">
   <animation>
    <frame tileid="1798" duration="150"/>
    <frame tileid="1806" duration="150"/>
    <frame tileid="1814" duration="150"/>
    <frame tileid="1822" duration="150"/>
    <frame tileid="1830" duration="150"/>
    <frame tileid="1838" duration="150"/>
    <frame tileid="1846" duration="150"/>
    <frame tileid="1854" duration="150"/>
   </animation>
  </tile>
  <tile id="1799">
   <animation>
    <frame tileid="1799" duration="150"/>
    <frame tileid="1807" duration="150"/>
    <frame tileid="1815" duration="150"/>
    <frame tileid="1823" duration="150"/>
    <frame tileid="1831" duration="150"/>
    <frame tileid="1839" duration="150"/>
    <frame tileid="1847" duration="150"/>
    <frame tileid="1855" duration="150"/>
   </animation>
  </tile>
  <tile id="1861">
   <animation>
    <frame tileid="1861" duration="150"/>
    <frame tileid="1869" duration="150"/>
    <frame tileid="1877" duration="150"/>
    <frame tileid="1885" duration="150"/>
    <frame tileid="1893" duration="150"/>
    <frame tileid="1901" duration="150"/>
    <frame tileid="1909" duration="150"/>
    <frame tileid="1917" duration="150"/>
   </animation>
  </tile>
  <tile id="1862">
   <animation>
    <frame tileid="1862" duration="150"/>
    <frame tileid="1870" duration="150"/>
    <frame tileid="1878" duration="150"/>
    <frame tileid="1886" duration="150"/>
    <frame tileid="1894" duration="150"/>
    <frame tileid="1902" duration="150"/>
    <frame tileid="1910" duration="150"/>
    <frame tileid="1918" duration="150"/>
   </animation>
  </tile>
  <tile id="1863">
   <animation>
    <frame tileid="1863" duration="150"/>
    <frame tileid="1871" duration="150"/>
    <frame tileid="1879" duration="150"/>
    <frame tileid="1887" duration="150"/>
    <frame tileid="1895" duration="150"/>
    <frame tileid="1903" duration="150"/>
    <frame tileid="1911" duration="150"/>
    <frame tileid="1919" duration="150"/>
   </animation>
  </tile>
 </tileset>
 <tileset firstgid="26881" name="Rat2_Hurt_full" tilewidth="16" tileheight="16" tilecount="1024" columns="32">
  <image source="Rat2_Hurt_red.png" width="512" height="512"/>
  <tile id="67">
   <animation>
    <frame tileid="67" duration="150"/>
    <frame tileid="75" duration="150"/>
    <frame tileid="83" duration="150"/>
    <frame tileid="91" duration="150"/>
   </animation>
  </tile>
  <tile id="68">
   <animation>
    <frame tileid="68" duration="150"/>
    <frame tileid="76" duration="150"/>
    <frame tileid="84" duration="150"/>
    <frame tileid="92" duration="150"/>
   </animation>
  </tile>
  <tile id="98">
   <animation>
    <frame tileid="98" duration="150"/>
    <frame tileid="106" duration="150"/>
    <frame tileid="114" duration="150"/>
    <frame tileid="122" duration="150"/>
   </animation>
  </tile>
  <tile id="99">
   <animation>
    <frame tileid="99" duration="150"/>
    <frame tileid="107" duration="150"/>
    <frame tileid="115" duration="150"/>
    <frame tileid="123" duration="150"/>
   </animation>
  </tile>
  <tile id="100">
   <animation>
    <frame tileid="100" duration="150"/>
    <frame tileid="108" duration="150"/>
    <frame tileid="116" duration="150"/>
    <frame tileid="124" duration="150"/>
   </animation>
  </tile>
  <tile id="101">
   <animation>
    <frame tileid="101" duration="150"/>
    <frame tileid="109" duration="150"/>
    <frame tileid="117" duration="150"/>
    <frame tileid="125" duration="150"/>
   </animation>
  </tile>
  <tile id="131">
   <animation>
    <frame tileid="131" duration="150"/>
    <frame tileid="139" duration="150"/>
    <frame tileid="147" duration="150"/>
    <frame tileid="155" duration="150"/>
   </animation>
  </tile>
  <tile id="132">
   <animation>
    <frame tileid="132" duration="150"/>
    <frame tileid="140" duration="150"/>
    <frame tileid="148" duration="150"/>
    <frame tileid="156" duration="150"/>
   </animation>
  </tile>
  <tile id="323">
   <animation>
    <frame tileid="323" duration="150"/>
    <frame tileid="331" duration="150"/>
    <frame tileid="339" duration="150"/>
    <frame tileid="347" duration="150"/>
   </animation>
  </tile>
  <tile id="324">
   <animation>
    <frame tileid="324" duration="150"/>
    <frame tileid="332" duration="150"/>
    <frame tileid="340" duration="150"/>
    <frame tileid="348" duration="150"/>
   </animation>
  </tile>
  <tile id="354">
   <animation>
    <frame tileid="354" duration="150"/>
    <frame tileid="362" duration="150"/>
    <frame tileid="370" duration="150"/>
    <frame tileid="378" duration="150"/>
   </animation>
  </tile>
  <tile id="355">
   <animation>
    <frame tileid="355" duration="150"/>
    <frame tileid="363" duration="150"/>
    <frame tileid="371" duration="150"/>
    <frame tileid="379" duration="150"/>
   </animation>
  </tile>
  <tile id="356">
   <animation>
    <frame tileid="356" duration="150"/>
    <frame tileid="364" duration="150"/>
    <frame tileid="372" duration="150"/>
    <frame tileid="380" duration="150"/>
   </animation>
  </tile>
  <tile id="357">
   <animation>
    <frame tileid="357" duration="150"/>
    <frame tileid="365" duration="150"/>
    <frame tileid="373" duration="150"/>
    <frame tileid="381" duration="150"/>
   </animation>
  </tile>
  <tile id="387">
   <animation>
    <frame tileid="387" duration="150"/>
    <frame tileid="395" duration="150"/>
    <frame tileid="403" duration="150"/>
    <frame tileid="411" duration="150"/>
   </animation>
  </tile>
  <tile id="388">
   <animation>
    <frame tileid="388" duration="150"/>
    <frame tileid="396" duration="150"/>
    <frame tileid="404" duration="150"/>
    <frame tileid="412" duration="150"/>
   </animation>
  </tile>
  <tile id="578">
   <animation>
    <frame tileid="578" duration="150"/>
    <frame tileid="586" duration="150"/>
    <frame tileid="594" duration="150"/>
    <frame tileid="602" duration="150"/>
   </animation>
  </tile>
  <tile id="579">
   <animation>
    <frame tileid="579" duration="150"/>
    <frame tileid="587" duration="150"/>
    <frame tileid="595" duration="150"/>
    <frame tileid="603" duration="150"/>
   </animation>
  </tile>
  <tile id="580">
   <animation>
    <frame tileid="580" duration="150"/>
    <frame tileid="588" duration="150"/>
    <frame tileid="596" duration="150"/>
    <frame tileid="604" duration="150"/>
   </animation>
  </tile>
  <tile id="610">
   <animation>
    <frame tileid="610" duration="150"/>
    <frame tileid="618" duration="150"/>
    <frame tileid="626" duration="150"/>
    <frame tileid="634" duration="150"/>
   </animation>
  </tile>
  <tile id="611">
   <animation>
    <frame tileid="611" duration="150"/>
    <frame tileid="619" duration="150"/>
    <frame tileid="627" duration="150"/>
    <frame tileid="635" duration="150"/>
   </animation>
  </tile>
  <tile id="612">
   <animation>
    <frame tileid="612" duration="150"/>
    <frame tileid="620" duration="150"/>
    <frame tileid="628" duration="150"/>
    <frame tileid="636" duration="150"/>
   </animation>
  </tile>
  <tile id="613">
   <animation>
    <frame tileid="613" duration="150"/>
    <frame tileid="621" duration="150"/>
    <frame tileid="629" duration="150"/>
    <frame tileid="637" duration="150"/>
   </animation>
  </tile>
  <tile id="642">
   <animation>
    <frame tileid="642" duration="150"/>
    <frame tileid="650" duration="150"/>
    <frame tileid="658" duration="150"/>
    <frame tileid="666" duration="150"/>
   </animation>
  </tile>
  <tile id="643">
   <animation>
    <frame tileid="643" duration="150"/>
    <frame tileid="651" duration="150"/>
    <frame tileid="659" duration="150"/>
    <frame tileid="667" duration="150"/>
   </animation>
  </tile>
  <tile id="644">
   <animation>
    <frame tileid="644" duration="150"/>
    <frame tileid="652" duration="150"/>
    <frame tileid="660" duration="150"/>
    <frame tileid="668" duration="150"/>
   </animation>
  </tile>
  <tile id="645">
   <animation>
    <frame tileid="645" duration="150"/>
    <frame tileid="653" duration="150"/>
    <frame tileid="661" duration="150"/>
    <frame tileid="669" duration="150"/>
   </animation>
  </tile>
  <tile id="646">
   <animation>
    <frame tileid="646" duration="150"/>
    <frame tileid="654" duration="150"/>
    <frame tileid="662" duration="150"/>
    <frame tileid="670" duration="150"/>
   </animation>
  </tile>
  <tile id="835">
   <animation>
    <frame tileid="835" duration="150"/>
    <frame tileid="843" duration="150"/>
    <frame tileid="851" duration="150"/>
    <frame tileid="859" duration="150"/>
   </animation>
  </tile>
  <tile id="836">
   <animation>
    <frame tileid="836" duration="150"/>
    <frame tileid="844" duration="150"/>
    <frame tileid="852" duration="150"/>
    <frame tileid="860" duration="150"/>
   </animation>
  </tile>
  <tile id="837">
   <animation>
    <frame tileid="837" duration="150"/>
    <frame tileid="845" duration="150"/>
    <frame tileid="853" duration="150"/>
    <frame tileid="861" duration="150"/>
   </animation>
  </tile>
  <tile id="866">
   <animation>
    <frame tileid="866" duration="150"/>
    <frame tileid="874" duration="150"/>
    <frame tileid="882" duration="150"/>
    <frame tileid="890" duration="150"/>
   </animation>
  </tile>
  <tile id="867">
   <animation>
    <frame tileid="867" duration="150"/>
    <frame tileid="875" duration="150"/>
    <frame tileid="883" duration="150"/>
    <frame tileid="891" duration="150"/>
   </animation>
  </tile>
  <tile id="868">
   <animation>
    <frame tileid="868" duration="150"/>
    <frame tileid="876" duration="150"/>
    <frame tileid="884" duration="150"/>
    <frame tileid="892" duration="150"/>
   </animation>
  </tile>
  <tile id="869">
   <animation>
    <frame tileid="869" duration="150"/>
    <frame tileid="877" duration="150"/>
    <frame tileid="885" duration="150"/>
    <frame tileid="893" duration="150"/>
   </animation>
  </tile>
  <tile id="897">
   <animation>
    <frame tileid="897" duration="150"/>
    <frame tileid="905" duration="150"/>
    <frame tileid="913" duration="150"/>
    <frame tileid="921" duration="150"/>
   </animation>
  </tile>
  <tile id="898">
   <animation>
    <frame tileid="898" duration="150"/>
    <frame tileid="906" duration="150"/>
    <frame tileid="914" duration="150"/>
    <frame tileid="922" duration="150"/>
   </animation>
  </tile>
  <tile id="899">
   <animation>
    <frame tileid="899" duration="150"/>
    <frame tileid="907" duration="150"/>
    <frame tileid="915" duration="150"/>
    <frame tileid="923" duration="150"/>
   </animation>
  </tile>
  <tile id="900">
   <animation>
    <frame tileid="900" duration="150"/>
    <frame tileid="908" duration="150"/>
    <frame tileid="916" duration="150"/>
    <frame tileid="924" duration="150"/>
   </animation>
  </tile>
  <tile id="901">
   <animation>
    <frame tileid="901" duration="150"/>
    <frame tileid="909" duration="150"/>
    <frame tileid="917" duration="150"/>
    <frame tileid="925" duration="150"/>
   </animation>
  </tile>
 </tileset>
 <tileset firstgid="27905" name="Rat2_Death_full" tilewidth="16" tileheight="16" tilecount="1280" columns="40">
  <image source="Rat2_Death_red.png" width="640" height="512"/>
  <tile id="83">
   <animation>
    <frame tileid="83" duration="150"/>
    <frame tileid="91" duration="150"/>
    <frame tileid="99" duration="150"/>
    <frame tileid="107" duration="150"/>
    <frame tileid="115" duration="150"/>
   </animation>
  </tile>
  <tile id="84">
   <animation>
    <frame tileid="84" duration="150"/>
    <frame tileid="92" duration="150"/>
    <frame tileid="100" duration="150"/>
    <frame tileid="108" duration="150"/>
    <frame tileid="116" duration="150"/>
   </animation>
  </tile>
  <tile id="122">
   <animation>
    <frame tileid="122" duration="150"/>
    <frame tileid="130" duration="150"/>
    <frame tileid="138" duration="150"/>
    <frame tileid="146" duration="150"/>
    <frame tileid="154" duration="150"/>
   </animation>
  </tile>
  <tile id="123">
   <animation>
    <frame tileid="123" duration="150"/>
    <frame tileid="131" duration="150"/>
    <frame tileid="139" duration="150"/>
    <frame tileid="147" duration="150"/>
    <frame tileid="155" duration="150"/>
   </animation>
  </tile>
  <tile id="124">
   <animation>
    <frame tileid="124" duration="150"/>
    <frame tileid="132" duration="150"/>
    <frame tileid="140" duration="150"/>
    <frame tileid="148" duration="150"/>
    <frame tileid="156" duration="150"/>
   </animation>
  </tile>
  <tile id="125">
   <animation>
    <frame tileid="125" duration="150"/>
    <frame tileid="133" duration="150"/>
    <frame tileid="141" duration="150"/>
    <frame tileid="149" duration="150"/>
    <frame tileid="157" duration="150"/>
   </animation>
  </tile>
  <tile id="163">
   <animation>
    <frame tileid="163" duration="150"/>
    <frame tileid="171" duration="150"/>
    <frame tileid="179" duration="150"/>
    <frame tileid="187" duration="150"/>
    <frame tileid="195" duration="150"/>
   </animation>
  </tile>
  <tile id="164">
   <animation>
    <frame tileid="164" duration="150"/>
    <frame tileid="172" duration="150"/>
    <frame tileid="180" duration="150"/>
    <frame tileid="188" duration="150"/>
    <frame tileid="196" duration="150"/>
   </animation>
  </tile>
  <tile id="203">
   <animation>
    <frame tileid="203" duration="150"/>
    <frame tileid="211" duration="150"/>
    <frame tileid="219" duration="150"/>
    <frame tileid="227" duration="150"/>
    <frame tileid="235" duration="150"/>
   </animation>
  </tile>
  <tile id="204">
   <animation>
    <frame tileid="204" duration="150"/>
    <frame tileid="212" duration="150"/>
    <frame tileid="220" duration="150"/>
    <frame tileid="228" duration="150"/>
    <frame tileid="236" duration="150"/>
   </animation>
  </tile>
  <tile id="403">
   <animation>
    <frame tileid="403" duration="150"/>
    <frame tileid="411" duration="150"/>
    <frame tileid="419" duration="150"/>
    <frame tileid="427" duration="150"/>
    <frame tileid="435" duration="150"/>
   </animation>
  </tile>
  <tile id="404">
   <animation>
    <frame tileid="404" duration="150"/>
    <frame tileid="412" duration="150"/>
    <frame tileid="420" duration="150"/>
    <frame tileid="428" duration="150"/>
    <frame tileid="436" duration="150"/>
   </animation>
  </tile>
  <tile id="442">
   <animation>
    <frame tileid="442" duration="150"/>
    <frame tileid="450" duration="150"/>
    <frame tileid="458" duration="150"/>
    <frame tileid="466" duration="150"/>
    <frame tileid="474" duration="150"/>
   </animation>
  </tile>
  <tile id="443">
   <animation>
    <frame tileid="443" duration="150"/>
    <frame tileid="451" duration="150"/>
    <frame tileid="459" duration="150"/>
    <frame tileid="467" duration="150"/>
    <frame tileid="475" duration="150"/>
   </animation>
  </tile>
  <tile id="444">
   <animation>
    <frame tileid="444" duration="150"/>
    <frame tileid="452" duration="150"/>
    <frame tileid="460" duration="150"/>
    <frame tileid="468" duration="150"/>
    <frame tileid="476" duration="150"/>
   </animation>
  </tile>
  <tile id="445">
   <animation>
    <frame tileid="445" duration="150"/>
    <frame tileid="453" duration="150"/>
    <frame tileid="461" duration="150"/>
    <frame tileid="469" duration="150"/>
    <frame tileid="477" duration="150"/>
   </animation>
  </tile>
  <tile id="483">
   <animation>
    <frame tileid="483" duration="150"/>
    <frame tileid="491" duration="150"/>
    <frame tileid="499" duration="150"/>
    <frame tileid="507" duration="150"/>
    <frame tileid="515" duration="150"/>
   </animation>
  </tile>
  <tile id="484">
   <animation>
    <frame tileid="484" duration="150"/>
    <frame tileid="492" duration="150"/>
    <frame tileid="500" duration="150"/>
    <frame tileid="508" duration="150"/>
    <frame tileid="516" duration="150"/>
   </animation>
  </tile>
  <tile id="524">
   <animation>
    <frame tileid="524" duration="150"/>
    <frame tileid="532" duration="150"/>
    <frame tileid="540" duration="150"/>
    <frame tileid="548" duration="150"/>
    <frame tileid="556" duration="150"/>
   </animation>
  </tile>
  <tile id="722">
   <animation>
    <frame tileid="722" duration="150"/>
    <frame tileid="730" duration="150"/>
    <frame tileid="738" duration="150"/>
    <frame tileid="746" duration="150"/>
    <frame tileid="754" duration="150"/>
   </animation>
  </tile>
  <tile id="723">
   <animation>
    <frame tileid="723" duration="150"/>
    <frame tileid="731" duration="150"/>
    <frame tileid="739" duration="150"/>
    <frame tileid="747" duration="150"/>
    <frame tileid="755" duration="150"/>
   </animation>
  </tile>
  <tile id="724">
   <animation>
    <frame tileid="724" duration="150"/>
    <frame tileid="732" duration="150"/>
    <frame tileid="740" duration="150"/>
    <frame tileid="748" duration="150"/>
    <frame tileid="756" duration="150"/>
   </animation>
  </tile>
  <tile id="762">
   <animation>
    <frame tileid="762" duration="150"/>
    <frame tileid="770" duration="150"/>
    <frame tileid="778" duration="150"/>
    <frame tileid="786" duration="150"/>
    <frame tileid="794" duration="150"/>
   </animation>
  </tile>
  <tile id="763">
   <animation>
    <frame tileid="763" duration="150"/>
    <frame tileid="771" duration="150"/>
    <frame tileid="779" duration="150"/>
    <frame tileid="787" duration="150"/>
    <frame tileid="795" duration="150"/>
   </animation>
  </tile>
  <tile id="764">
   <animation>
    <frame tileid="764" duration="150"/>
    <frame tileid="772" duration="150"/>
    <frame tileid="780" duration="150"/>
    <frame tileid="788" duration="150"/>
    <frame tileid="796" duration="150"/>
   </animation>
  </tile>
  <tile id="765">
   <animation>
    <frame tileid="765" duration="150"/>
    <frame tileid="773" duration="150"/>
    <frame tileid="781" duration="150"/>
    <frame tileid="789" duration="150"/>
    <frame tileid="797" duration="150"/>
   </animation>
  </tile>
  <tile id="766">
   <animation>
    <frame tileid="766" duration="150"/>
    <frame tileid="774" duration="150"/>
    <frame tileid="782" duration="150"/>
    <frame tileid="790" duration="150"/>
    <frame tileid="798" duration="150"/>
   </animation>
  </tile>
  <tile id="802">
   <animation>
    <frame tileid="802" duration="150"/>
    <frame tileid="810" duration="150"/>
    <frame tileid="818" duration="150"/>
    <frame tileid="826" duration="150"/>
    <frame tileid="834" duration="150"/>
   </animation>
  </tile>
  <tile id="803">
   <animation>
    <frame tileid="803" duration="150"/>
    <frame tileid="811" duration="150"/>
    <frame tileid="819" duration="150"/>
    <frame tileid="827" duration="150"/>
    <frame tileid="835" duration="150"/>
   </animation>
  </tile>
  <tile id="804">
   <animation>
    <frame tileid="804" duration="150"/>
    <frame tileid="812" duration="150"/>
    <frame tileid="820" duration="150"/>
    <frame tileid="828" duration="150"/>
    <frame tileid="836" duration="150"/>
   </animation>
  </tile>
  <tile id="805">
   <animation>
    <frame tileid="805" duration="150"/>
    <frame tileid="813" duration="150"/>
    <frame tileid="821" duration="150"/>
    <frame tileid="829" duration="150"/>
    <frame tileid="837" duration="150"/>
   </animation>
  </tile>
  <tile id="806">
   <animation>
    <frame tileid="806" duration="150"/>
    <frame tileid="814" duration="150"/>
    <frame tileid="822" duration="150"/>
    <frame tileid="830" duration="150"/>
    <frame tileid="838" duration="150"/>
   </animation>
  </tile>
  <tile id="1043">
   <animation>
    <frame tileid="1043" duration="150"/>
    <frame tileid="1051" duration="150"/>
    <frame tileid="1059" duration="150"/>
    <frame tileid="1067" duration="150"/>
    <frame tileid="1075" duration="150"/>
   </animation>
  </tile>
  <tile id="1044">
   <animation>
    <frame tileid="1044" duration="150"/>
    <frame tileid="1052" duration="150"/>
    <frame tileid="1060" duration="150"/>
    <frame tileid="1068" duration="150"/>
    <frame tileid="1076" duration="150"/>
   </animation>
  </tile>
  <tile id="1045">
   <animation>
    <frame tileid="1045" duration="150"/>
    <frame tileid="1053" duration="150"/>
    <frame tileid="1061" duration="150"/>
    <frame tileid="1069" duration="150"/>
    <frame tileid="1077" duration="150"/>
   </animation>
  </tile>
  <tile id="1081">
   <animation>
    <frame tileid="1081" duration="150"/>
    <frame tileid="1089" duration="150"/>
    <frame tileid="1097" duration="150"/>
    <frame tileid="1105" duration="150"/>
    <frame tileid="1113" duration="150"/>
   </animation>
  </tile>
  <tile id="1082">
   <animation>
    <frame tileid="1082" duration="150"/>
    <frame tileid="1090" duration="150"/>
    <frame tileid="1098" duration="150"/>
    <frame tileid="1106" duration="150"/>
    <frame tileid="1114" duration="150"/>
   </animation>
  </tile>
  <tile id="1083">
   <animation>
    <frame tileid="1083" duration="150"/>
    <frame tileid="1091" duration="150"/>
    <frame tileid="1099" duration="150"/>
    <frame tileid="1107" duration="150"/>
    <frame tileid="1115" duration="150"/>
   </animation>
  </tile>
  <tile id="1084">
   <animation>
    <frame tileid="1084" duration="150"/>
    <frame tileid="1092" duration="150"/>
    <frame tileid="1100" duration="150"/>
    <frame tileid="1108" duration="150"/>
    <frame tileid="1116" duration="150"/>
   </animation>
  </tile>
  <tile id="1085">
   <animation>
    <frame tileid="1085" duration="150"/>
    <frame tileid="1093" duration="150"/>
    <frame tileid="1101" duration="150"/>
    <frame tileid="1109" duration="150"/>
    <frame tileid="1117" duration="150"/>
   </animation>
  </tile>
  <tile id="1121">
   <animation>
    <frame tileid="1121" duration="150"/>
    <frame tileid="1129" duration="150"/>
    <frame tileid="1137" duration="150"/>
    <frame tileid="1145" duration="150"/>
    <frame tileid="1153" duration="150"/>
   </animation>
  </tile>
  <tile id="1122">
   <animation>
    <frame tileid="1122" duration="150"/>
    <frame tileid="1130" duration="150"/>
    <frame tileid="1138" duration="150"/>
    <frame tileid="1146" duration="150"/>
    <frame tileid="1154" duration="150"/>
   </animation>
  </tile>
  <tile id="1123">
   <animation>
    <frame tileid="1123" duration="150"/>
    <frame tileid="1131" duration="150"/>
    <frame tileid="1139" duration="150"/>
    <frame tileid="1147" duration="150"/>
    <frame tileid="1155" duration="150"/>
   </animation>
  </tile>
  <tile id="1124">
   <animation>
    <frame tileid="1124" duration="150"/>
    <frame tileid="1132" duration="150"/>
    <frame tileid="1140" duration="150"/>
    <frame tileid="1148" duration="150"/>
    <frame tileid="1156" duration="150"/>
   </animation>
  </tile>
  <tile id="1125">
   <animation>
    <frame tileid="1125" duration="150"/>
    <frame tileid="1133" duration="150"/>
    <frame tileid="1141" duration="150"/>
    <frame tileid="1149" duration="150"/>
    <frame tileid="1157" duration="150"/>
   </animation>
  </tile>
 </tileset>
 <tileset firstgid="29185" name="Rat2_Attack_full" tilewidth="16" tileheight="16" tilecount="2048" columns="64">
  <image source="Rat2_Attack_swing.png" width="1024" height="512"/>
  <tile id="67">
   <animation>
    <frame tileid="67" duration="150"/>
    <frame tileid="75" duration="150"/>
    <frame tileid="83" duration="150"/>
    <frame tileid="91" duration="150"/>
    <frame tileid="99" duration="150"/>
    <frame tileid="107" duration="150"/>
    <frame tileid="115" duration="150"/>
    <frame tileid="123" duration="150"/>
   </animation>
  </tile>
  <tile id="68">
   <animation>
    <frame tileid="68" duration="150"/>
    <frame tileid="76" duration="150"/>
    <frame tileid="84" duration="150"/>
    <frame tileid="92" duration="150"/>
    <frame tileid="100" duration="150"/>
    <frame tileid="108" duration="150"/>
    <frame tileid="116" duration="150"/>
    <frame tileid="124" duration="150"/>
   </animation>
  </tile>
  <tile id="131">
   <animation>
    <frame tileid="131" duration="150"/>
    <frame tileid="139" duration="150"/>
    <frame tileid="147" duration="150"/>
    <frame tileid="155" duration="150"/>
    <frame tileid="163" duration="150"/>
    <frame tileid="171" duration="150"/>
    <frame tileid="179" duration="150"/>
    <frame tileid="187" duration="150"/>
   </animation>
  </tile>
  <tile id="132">
   <animation>
    <frame tileid="132" duration="150"/>
    <frame tileid="140" duration="150"/>
    <frame tileid="148" duration="150"/>
    <frame tileid="156" duration="150"/>
    <frame tileid="164" duration="150"/>
    <frame tileid="172" duration="150"/>
    <frame tileid="180" duration="150"/>
    <frame tileid="188" duration="150"/>
   </animation>
  </tile>
  <tile id="194">
   <animation>
    <frame tileid="194" duration="150"/>
    <frame tileid="202" duration="150"/>
    <frame tileid="210" duration="150"/>
    <frame tileid="218" duration="150"/>
    <frame tileid="226" duration="150"/>
    <frame tileid="234" duration="150"/>
    <frame tileid="242" duration="150"/>
    <frame tileid="250" duration="150"/>
   </animation>
  </tile>
  <tile id="195">
   <animation>
    <frame tileid="195" duration="150"/>
    <frame tileid="203" duration="150"/>
    <frame tileid="211" duration="150"/>
    <frame tileid="219" duration="150"/>
    <frame tileid="227" duration="150"/>
    <frame tileid="235" duration="150"/>
    <frame tileid="243" duration="150"/>
    <frame tileid="251" duration="150"/>
   </animation>
  </tile>
  <tile id="196">
   <animation>
    <frame tileid="196" duration="150"/>
    <frame tileid="204" duration="150"/>
    <frame tileid="212" duration="150"/>
    <frame tileid="220" duration="150"/>
    <frame tileid="228" duration="150"/>
    <frame tileid="236" duration="150"/>
    <frame tileid="244" duration="150"/>
    <frame tileid="252" duration="150"/>
   </animation>
  </tile>
  <tile id="197">
   <animation>
    <frame tileid="197" duration="150"/>
    <frame tileid="205" duration="150"/>
    <frame tileid="213" duration="150"/>
    <frame tileid="221" duration="150"/>
    <frame tileid="229" duration="150"/>
    <frame tileid="237" duration="150"/>
    <frame tileid="245" duration="150"/>
    <frame tileid="253" duration="150"/>
   </animation>
  </tile>
  <tile id="258">
   <animation>
    <frame tileid="258" duration="150"/>
    <frame tileid="266" duration="150"/>
    <frame tileid="274" duration="150"/>
    <frame tileid="282" duration="150"/>
    <frame tileid="290" duration="150"/>
    <frame tileid="298" duration="150"/>
    <frame tileid="306" duration="150"/>
    <frame tileid="314" duration="150"/>
   </animation>
  </tile>
  <tile id="259">
   <animation>
    <frame tileid="259" duration="150"/>
    <frame tileid="267" duration="150"/>
    <frame tileid="275" duration="150"/>
    <frame tileid="283" duration="150"/>
    <frame tileid="291" duration="150"/>
    <frame tileid="299" duration="150"/>
    <frame tileid="307" duration="150"/>
    <frame tileid="315" duration="150"/>
   </animation>
  </tile>
  <tile id="260">
   <animation>
    <frame tileid="260" duration="150"/>
    <frame tileid="268" duration="150"/>
    <frame tileid="276" duration="150"/>
    <frame tileid="284" duration="150"/>
    <frame tileid="292" duration="150"/>
    <frame tileid="300" duration="150"/>
    <frame tileid="308" duration="150"/>
    <frame tileid="316" duration="150"/>
   </animation>
  </tile>
  <tile id="261">
   <animation>
    <frame tileid="261" duration="150"/>
    <frame tileid="269" duration="150"/>
    <frame tileid="277" duration="150"/>
    <frame tileid="285" duration="150"/>
    <frame tileid="293" duration="150"/>
    <frame tileid="301" duration="150"/>
    <frame tileid="309" duration="150"/>
    <frame tileid="317" duration="150"/>
   </animation>
  </tile>
  <tile id="322">
   <animation>
    <frame tileid="322" duration="150"/>
    <frame tileid="330" duration="150"/>
    <frame tileid="338" duration="150"/>
    <frame tileid="346" duration="150"/>
    <frame tileid="354" duration="150"/>
    <frame tileid="362" duration="150"/>
    <frame tileid="370" duration="150"/>
    <frame tileid="378" duration="150"/>
   </animation>
  </tile>
  <tile id="323">
   <animation>
    <frame tileid="323" duration="150"/>
    <frame tileid="331" duration="150"/>
    <frame tileid="339" duration="150"/>
    <frame tileid="347" duration="150"/>
    <frame tileid="355" duration="150"/>
    <frame tileid="363" duration="150"/>
    <frame tileid="371" duration="150"/>
    <frame tileid="379" duration="150"/>
   </animation>
  </tile>
  <tile id="324">
   <animation>
    <frame tileid="324" duration="150"/>
    <frame tileid="332" duration="150"/>
    <frame tileid="340" duration="150"/>
    <frame tileid="348" duration="150"/>
    <frame tileid="356" duration="150"/>
    <frame tileid="364" duration="150"/>
    <frame tileid="372" duration="150"/>
    <frame tileid="380" duration="150"/>
   </animation>
  </tile>
  <tile id="325">
   <animation>
    <frame tileid="325" duration="150"/>
    <frame tileid="333" duration="150"/>
    <frame tileid="341" duration="150"/>
    <frame tileid="349" duration="150"/>
    <frame tileid="357" duration="150"/>
    <frame tileid="365" duration="150"/>
    <frame tileid="373" duration="150"/>
    <frame tileid="381" duration="150"/>
   </animation>
  </tile>
  <tile id="388">
   <animation>
    <frame tileid="388" duration="150"/>
    <frame tileid="396" duration="150"/>
    <frame tileid="404" duration="150"/>
    <frame tileid="412" duration="150"/>
    <frame tileid="420" duration="150"/>
    <frame tileid="428" duration="150"/>
    <frame tileid="436" duration="150"/>
    <frame tileid="444" duration="150"/>
   </animation>
  </tile>
  <tile id="579">
   <animation>
    <frame tileid="579" duration="150"/>
    <frame tileid="587" duration="150"/>
    <frame tileid="595" duration="150"/>
    <frame tileid="603" duration="150"/>
    <frame tileid="611" duration="150"/>
    <frame tileid="619" duration="150"/>
    <frame tileid="627" duration="150"/>
    <frame tileid="635" duration="150"/>
   </animation>
  </tile>
  <tile id="580">
   <animation>
    <frame tileid="580" duration="150"/>
    <frame tileid="588" duration="150"/>
    <frame tileid="596" duration="150"/>
    <frame tileid="604" duration="150"/>
    <frame tileid="612" duration="150"/>
    <frame tileid="620" duration="150"/>
    <frame tileid="628" duration="150"/>
    <frame tileid="636" duration="150"/>
   </animation>
  </tile>
  <tile id="642">
   <animation>
    <frame tileid="642" duration="150"/>
    <frame tileid="650" duration="150"/>
    <frame tileid="658" duration="150"/>
    <frame tileid="666" duration="150"/>
    <frame tileid="674" duration="150"/>
    <frame tileid="682" duration="150"/>
    <frame tileid="690" duration="150"/>
    <frame tileid="698" duration="150"/>
   </animation>
  </tile>
  <tile id="643">
   <animation>
    <frame tileid="643" duration="150"/>
    <frame tileid="651" duration="150"/>
    <frame tileid="659" duration="150"/>
    <frame tileid="667" duration="150"/>
    <frame tileid="675" duration="150"/>
    <frame tileid="683" duration="150"/>
    <frame tileid="691" duration="150"/>
    <frame tileid="699" duration="150"/>
   </animation>
  </tile>
  <tile id="644">
   <animation>
    <frame tileid="644" duration="150"/>
    <frame tileid="652" duration="150"/>
    <frame tileid="660" duration="150"/>
    <frame tileid="668" duration="150"/>
    <frame tileid="676" duration="150"/>
    <frame tileid="684" duration="150"/>
    <frame tileid="692" duration="150"/>
    <frame tileid="700" duration="150"/>
   </animation>
  </tile>
  <tile id="645">
   <animation>
    <frame tileid="645" duration="150"/>
    <frame tileid="653" duration="150"/>
    <frame tileid="661" duration="150"/>
    <frame tileid="669" duration="150"/>
    <frame tileid="677" duration="150"/>
    <frame tileid="685" duration="150"/>
    <frame tileid="693" duration="150"/>
    <frame tileid="701" duration="150"/>
   </animation>
  </tile>
  <tile id="706">
   <animation>
    <frame tileid="706" duration="150"/>
    <frame tileid="714" duration="150"/>
    <frame tileid="722" duration="150"/>
    <frame tileid="730" duration="150"/>
    <frame tileid="738" duration="150"/>
    <frame tileid="746" duration="150"/>
    <frame tileid="754" duration="150"/>
    <frame tileid="762" duration="150"/>
   </animation>
  </tile>
  <tile id="707">
   <animation>
    <frame tileid="707" duration="150"/>
    <frame tileid="715" duration="150"/>
    <frame tileid="723" duration="150"/>
    <frame tileid="731" duration="150"/>
    <frame tileid="739" duration="150"/>
    <frame tileid="747" duration="150"/>
    <frame tileid="755" duration="150"/>
    <frame tileid="763" duration="150"/>
   </animation>
  </tile>
  <tile id="708">
   <animation>
    <frame tileid="708" duration="150"/>
    <frame tileid="716" duration="150"/>
    <frame tileid="724" duration="150"/>
    <frame tileid="732" duration="150"/>
    <frame tileid="740" duration="150"/>
    <frame tileid="748" duration="150"/>
    <frame tileid="756" duration="150"/>
    <frame tileid="764" duration="150"/>
   </animation>
  </tile>
  <tile id="709">
   <animation>
    <frame tileid="709" duration="150"/>
    <frame tileid="717" duration="150"/>
    <frame tileid="725" duration="150"/>
    <frame tileid="733" duration="150"/>
    <frame tileid="741" duration="150"/>
    <frame tileid="749" duration="150"/>
    <frame tileid="757" duration="150"/>
    <frame tileid="765" duration="150"/>
   </animation>
  </tile>
  <tile id="771">
   <animation>
    <frame tileid="771" duration="150"/>
    <frame tileid="779" duration="150"/>
    <frame tileid="787" duration="150"/>
    <frame tileid="795" duration="150"/>
    <frame tileid="803" duration="150"/>
    <frame tileid="811" duration="150"/>
    <frame tileid="819" duration="150"/>
    <frame tileid="827" duration="150"/>
   </animation>
  </tile>
  <tile id="772">
   <animation>
    <frame tileid="772" duration="150"/>
    <frame tileid="780" duration="150"/>
    <frame tileid="788" duration="150"/>
    <frame tileid="796" duration="150"/>
    <frame tileid="804" duration="150"/>
    <frame tileid="812" duration="150"/>
    <frame tileid="820" duration="150"/>
    <frame tileid="828" duration="150"/>
   </animation>
  </tile>
  <tile id="773">
   <animation>
    <frame tileid="773" duration="150"/>
    <frame tileid="781" duration="150"/>
    <frame tileid="789" duration="150"/>
    <frame tileid="797" duration="150"/>
    <frame tileid="805" duration="150"/>
    <frame tileid="813" duration="150"/>
    <frame tileid="821" duration="150"/>
    <frame tileid="829" duration="150"/>
   </animation>
  </tile>
  <tile id="1093">
   <animation>
    <frame tileid="1093" duration="150"/>
    <frame tileid="1101" duration="150"/>
    <frame tileid="1109" duration="150"/>
    <frame tileid="1117" duration="150"/>
    <frame tileid="1125" duration="150"/>
    <frame tileid="1133" duration="150"/>
    <frame tileid="1141" duration="150"/>
    <frame tileid="1149" duration="150"/>
   </animation>
  </tile>
  <tile id="1094">
   <animation>
    <frame tileid="1094" duration="150"/>
    <frame tileid="1102" duration="150"/>
    <frame tileid="1110" duration="150"/>
    <frame tileid="1118" duration="150"/>
    <frame tileid="1126" duration="150"/>
    <frame tileid="1134" duration="150"/>
    <frame tileid="1142" duration="150"/>
    <frame tileid="1150" duration="150"/>
   </animation>
  </tile>
  <tile id="1154">
   <animation>
    <frame tileid="1154" duration="150"/>
    <frame tileid="1162" duration="150"/>
    <frame tileid="1170" duration="150"/>
    <frame tileid="1178" duration="150"/>
    <frame tileid="1186" duration="150"/>
    <frame tileid="1194" duration="150"/>
    <frame tileid="1202" duration="150"/>
    <frame tileid="1210" duration="150"/>
   </animation>
  </tile>
  <tile id="1155">
   <animation>
    <frame tileid="1155" duration="150"/>
    <frame tileid="1163" duration="150"/>
    <frame tileid="1171" duration="150"/>
    <frame tileid="1179" duration="150"/>
    <frame tileid="1187" duration="150"/>
    <frame tileid="1195" duration="150"/>
    <frame tileid="1203" duration="150"/>
    <frame tileid="1211" duration="150"/>
   </animation>
  </tile>
  <tile id="1156">
   <animation>
    <frame tileid="1156" duration="150"/>
    <frame tileid="1164" duration="150"/>
    <frame tileid="1172" duration="150"/>
    <frame tileid="1180" duration="150"/>
    <frame tileid="1188" duration="150"/>
    <frame tileid="1196" duration="150"/>
    <frame tileid="1204" duration="150"/>
    <frame tileid="1212" duration="150"/>
   </animation>
  </tile>
  <tile id="1157">
   <animation>
    <frame tileid="1157" duration="150"/>
    <frame tileid="1165" duration="150"/>
    <frame tileid="1173" duration="150"/>
    <frame tileid="1181" duration="150"/>
    <frame tileid="1189" duration="150"/>
    <frame tileid="1197" duration="150"/>
    <frame tileid="1205" duration="150"/>
    <frame tileid="1213" duration="150"/>
   </animation>
  </tile>
  <tile id="1158">
   <animation>
    <frame tileid="1158" duration="150"/>
    <frame tileid="1166" duration="150"/>
    <frame tileid="1174" duration="150"/>
    <frame tileid="1182" duration="150"/>
    <frame tileid="1190" duration="150"/>
    <frame tileid="1198" duration="150"/>
    <frame tileid="1206" duration="150"/>
    <frame tileid="1214" duration="150"/>
   </animation>
  </tile>
  <tile id="1216">
   <animation>
    <frame tileid="1216" duration="150"/>
    <frame tileid="1224" duration="150"/>
    <frame tileid="1232" duration="150"/>
    <frame tileid="1240" duration="150"/>
    <frame tileid="1248" duration="150"/>
    <frame tileid="1256" duration="150"/>
    <frame tileid="1264" duration="150"/>
    <frame tileid="1272" duration="150"/>
   </animation>
  </tile>
  <tile id="1217">
   <animation>
    <frame tileid="1217" duration="150"/>
    <frame tileid="1225" duration="150"/>
    <frame tileid="1233" duration="150"/>
    <frame tileid="1241" duration="150"/>
    <frame tileid="1249" duration="150"/>
    <frame tileid="1257" duration="150"/>
    <frame tileid="1265" duration="150"/>
    <frame tileid="1273" duration="150"/>
   </animation>
  </tile>
  <tile id="1218">
   <animation>
    <frame tileid="1218" duration="150"/>
    <frame tileid="1226" duration="150"/>
    <frame tileid="1234" duration="150"/>
    <frame tileid="1242" duration="150"/>
    <frame tileid="1250" duration="150"/>
    <frame tileid="1258" duration="150"/>
    <frame tileid="1266" duration="150"/>
    <frame tileid="1274" duration="150"/>
   </animation>
  </tile>
  <tile id="1219">
   <animation>
    <frame tileid="1219" duration="150"/>
    <frame tileid="1227" duration="150"/>
    <frame tileid="1235" duration="150"/>
    <frame tileid="1243" duration="150"/>
    <frame tileid="1251" duration="150"/>
    <frame tileid="1259" duration="150"/>
    <frame tileid="1267" duration="150"/>
    <frame tileid="1275" duration="150"/>
   </animation>
  </tile>
  <tile id="1220">
   <animation>
    <frame tileid="1220" duration="150"/>
    <frame tileid="1228" duration="150"/>
    <frame tileid="1236" duration="150"/>
    <frame tileid="1244" duration="150"/>
    <frame tileid="1252" duration="150"/>
    <frame tileid="1260" duration="150"/>
    <frame tileid="1268" duration="150"/>
    <frame tileid="1276" duration="150"/>
   </animation>
  </tile>
  <tile id="1221">
   <animation>
    <frame tileid="1221" duration="150"/>
    <frame tileid="1229" duration="150"/>
    <frame tileid="1237" duration="150"/>
    <frame tileid="1245" duration="150"/>
    <frame tileid="1253" duration="150"/>
    <frame tileid="1261" duration="150"/>
    <frame tileid="1269" duration="150"/>
    <frame tileid="1277" duration="150"/>
   </animation>
  </tile>
  <tile id="1222">
   <animation>
    <frame tileid="1222" duration="150"/>
    <frame tileid="1230" duration="150"/>
    <frame tileid="1238" duration="150"/>
    <frame tileid="1246" duration="150"/>
    <frame tileid="1254" duration="150"/>
    <frame tileid="1262" duration="150"/>
    <frame tileid="1270" duration="150"/>
    <frame tileid="1278" duration="150"/>
   </animation>
  </tile>
  <tile id="1280">
   <animation>
    <frame tileid="1280" duration="150"/>
    <frame tileid="1288" duration="150"/>
    <frame tileid="1296" duration="150"/>
    <frame tileid="1304" duration="150"/>
    <frame tileid="1312" duration="150"/>
    <frame tileid="1320" duration="150"/>
    <frame tileid="1328" duration="150"/>
    <frame tileid="1336" duration="150"/>
   </animation>
  </tile>
  <tile id="1281">
   <animation>
    <frame tileid="1281" duration="150"/>
    <frame tileid="1289" duration="150"/>
    <frame tileid="1297" duration="150"/>
    <frame tileid="1305" duration="150"/>
    <frame tileid="1313" duration="150"/>
    <frame tileid="1321" duration="150"/>
    <frame tileid="1329" duration="150"/>
    <frame tileid="1337" duration="150"/>
   </animation>
  </tile>
  <tile id="1282">
   <animation>
    <frame tileid="1282" duration="150"/>
    <frame tileid="1290" duration="150"/>
    <frame tileid="1298" duration="150"/>
    <frame tileid="1306" duration="150"/>
    <frame tileid="1314" duration="150"/>
    <frame tileid="1322" duration="150"/>
    <frame tileid="1330" duration="150"/>
    <frame tileid="1338" duration="150"/>
   </animation>
  </tile>
  <tile id="1283">
   <animation>
    <frame tileid="1283" duration="150"/>
    <frame tileid="1291" duration="150"/>
    <frame tileid="1299" duration="150"/>
    <frame tileid="1307" duration="150"/>
    <frame tileid="1315" duration="150"/>
    <frame tileid="1323" duration="150"/>
    <frame tileid="1331" duration="150"/>
    <frame tileid="1339" duration="150"/>
   </animation>
  </tile>
  <tile id="1284">
   <animation>
    <frame tileid="1284" duration="150"/>
    <frame tileid="1292" duration="150"/>
    <frame tileid="1300" duration="150"/>
    <frame tileid="1308" duration="150"/>
    <frame tileid="1316" duration="150"/>
    <frame tileid="1324" duration="150"/>
    <frame tileid="1332" duration="150"/>
    <frame tileid="1340" duration="150"/>
   </animation>
  </tile>
  <tile id="1285">
   <animation>
    <frame tileid="1285" duration="150"/>
    <frame tileid="1293" duration="150"/>
    <frame tileid="1301" duration="150"/>
    <frame tileid="1309" duration="150"/>
    <frame tileid="1317" duration="150"/>
    <frame tileid="1325" duration="150"/>
    <frame tileid="1333" duration="150"/>
    <frame tileid="1341" duration="150"/>
   </animation>
  </tile>
  <tile id="1286">
   <animation>
    <frame tileid="1286" duration="150"/>
    <frame tileid="1294" duration="150"/>
    <frame tileid="1302" duration="150"/>
    <frame tileid="1310" duration="150"/>
    <frame tileid="1318" duration="150"/>
    <frame tileid="1326" duration="150"/>
    <frame tileid="1334" duration="150"/>
    <frame tileid="1342" duration="150"/>
   </animation>
  </tile>
  <tile id="1344">
   <animation>
    <frame tileid="1344" duration="150"/>
    <frame tileid="1352" duration="150"/>
    <frame tileid="1360" duration="150"/>
    <frame tileid="1368" duration="150"/>
    <frame tileid="1376" duration="150"/>
    <frame tileid="1384" duration="150"/>
    <frame tileid="1392" duration="150"/>
    <frame tileid="1400" duration="150"/>
   </animation>
  </tile>
  <tile id="1345">
   <animation>
    <frame tileid="1345" duration="150"/>
    <frame tileid="1353" duration="150"/>
    <frame tileid="1361" duration="150"/>
    <frame tileid="1369" duration="150"/>
    <frame tileid="1377" duration="150"/>
    <frame tileid="1385" duration="150"/>
    <frame tileid="1393" duration="150"/>
    <frame tileid="1401" duration="150"/>
   </animation>
  </tile>
  <tile id="1346">
   <animation>
    <frame tileid="1346" duration="150"/>
    <frame tileid="1354" duration="150"/>
    <frame tileid="1362" duration="150"/>
    <frame tileid="1370" duration="150"/>
    <frame tileid="1378" duration="150"/>
    <frame tileid="1386" duration="150"/>
    <frame tileid="1394" duration="150"/>
    <frame tileid="1402" duration="150"/>
   </animation>
  </tile>
  <tile id="1601">
   <animation>
    <frame tileid="1601" duration="150"/>
    <frame tileid="1609" duration="150"/>
    <frame tileid="1617" duration="150"/>
    <frame tileid="1625" duration="150"/>
    <frame tileid="1633" duration="150"/>
    <frame tileid="1641" duration="150"/>
    <frame tileid="1649" duration="150"/>
    <frame tileid="1657" duration="150"/>
   </animation>
  </tile>
  <tile id="1602">
   <animation>
    <frame tileid="1602" duration="150"/>
    <frame tileid="1610" duration="150"/>
    <frame tileid="1618" duration="150"/>
    <frame tileid="1626" duration="150"/>
    <frame tileid="1634" duration="150"/>
    <frame tileid="1642" duration="150"/>
    <frame tileid="1650" duration="150"/>
    <frame tileid="1658" duration="150"/>
   </animation>
  </tile>
  <tile id="1603">
   <animation>
    <frame tileid="1603" duration="150"/>
    <frame tileid="1611" duration="150"/>
    <frame tileid="1619" duration="150"/>
    <frame tileid="1627" duration="150"/>
    <frame tileid="1635" duration="150"/>
    <frame tileid="1643" duration="150"/>
    <frame tileid="1651" duration="150"/>
    <frame tileid="1659" duration="150"/>
   </animation>
  </tile>
  <tile id="1604">
   <animation>
    <frame tileid="1604" duration="150"/>
    <frame tileid="1612" duration="150"/>
    <frame tileid="1620" duration="150"/>
    <frame tileid="1628" duration="150"/>
    <frame tileid="1636" duration="150"/>
    <frame tileid="1644" duration="150"/>
    <frame tileid="1652" duration="150"/>
    <frame tileid="1660" duration="150"/>
   </animation>
  </tile>
  <tile id="1665">
   <animation>
    <frame tileid="1665" duration="150"/>
    <frame tileid="1673" duration="150"/>
    <frame tileid="1681" duration="150"/>
    <frame tileid="1689" duration="150"/>
    <frame tileid="1697" duration="150"/>
    <frame tileid="1705" duration="150"/>
    <frame tileid="1713" duration="150"/>
    <frame tileid="1721" duration="150"/>
   </animation>
  </tile>
  <tile id="1666">
   <animation>
    <frame tileid="1666" duration="150"/>
    <frame tileid="1674" duration="150"/>
    <frame tileid="1682" duration="150"/>
    <frame tileid="1690" duration="150"/>
    <frame tileid="1698" duration="150"/>
    <frame tileid="1706" duration="150"/>
    <frame tileid="1714" duration="150"/>
    <frame tileid="1722" duration="150"/>
   </animation>
  </tile>
  <tile id="1667">
   <animation>
    <frame tileid="1667" duration="150"/>
    <frame tileid="1675" duration="150"/>
    <frame tileid="1683" duration="150"/>
    <frame tileid="1691" duration="150"/>
    <frame tileid="1699" duration="150"/>
    <frame tileid="1707" duration="150"/>
    <frame tileid="1715" duration="150"/>
    <frame tileid="1723" duration="150"/>
   </animation>
  </tile>
  <tile id="1668">
   <animation>
    <frame tileid="1668" duration="150"/>
    <frame tileid="1676" duration="150"/>
    <frame tileid="1684" duration="150"/>
    <frame tileid="1692" duration="150"/>
    <frame tileid="1700" duration="150"/>
    <frame tileid="1708" duration="150"/>
    <frame tileid="1716" duration="150"/>
    <frame tileid="1724" duration="150"/>
   </animation>
  </tile>
  <tile id="1669">
   <animation>
    <frame tileid="1669" duration="150"/>
    <frame tileid="1677" duration="150"/>
    <frame tileid="1685" duration="150"/>
    <frame tileid="1693" duration="150"/>
    <frame tileid="1701" duration="150"/>
    <frame tileid="1709" duration="150"/>
    <frame tileid="1717" duration="150"/>
    <frame tileid="1725" duration="150"/>
   </animation>
  </tile>
  <tile id="1729">
   <animation>
    <frame tileid="1729" duration="150"/>
    <frame tileid="1737" duration="150"/>
    <frame tileid="1745" duration="150"/>
    <frame tileid="1753" duration="150"/>
    <frame tileid="1761" duration="150"/>
    <frame tileid="1769" duration="150"/>
    <frame tileid="1777" duration="150"/>
    <frame tileid="1785" duration="150"/>
   </animation>
  </tile>
  <tile id="1730">
   <animation>
    <frame tileid="1730" duration="150"/>
    <frame tileid="1738" duration="150"/>
    <frame tileid="1746" duration="150"/>
    <frame tileid="1754" duration="150"/>
    <frame tileid="1762" duration="150"/>
    <frame tileid="1770" duration="150"/>
    <frame tileid="1778" duration="150"/>
    <frame tileid="1786" duration="150"/>
   </animation>
  </tile>
  <tile id="1731">
   <animation>
    <frame tileid="1731" duration="150"/>
    <frame tileid="1739" duration="150"/>
    <frame tileid="1747" duration="150"/>
    <frame tileid="1755" duration="150"/>
    <frame tileid="1763" duration="150"/>
    <frame tileid="1771" duration="150"/>
    <frame tileid="1779" duration="150"/>
    <frame tileid="1787" duration="150"/>
   </animation>
  </tile>
  <tile id="1732">
   <animation>
    <frame tileid="1732" duration="150"/>
    <frame tileid="1740" duration="150"/>
    <frame tileid="1748" duration="150"/>
    <frame tileid="1756" duration="150"/>
    <frame tileid="1764" duration="150"/>
    <frame tileid="1772" duration="150"/>
    <frame tileid="1780" duration="150"/>
    <frame tileid="1788" duration="150"/>
   </animation>
  </tile>
  <tile id="1733">
   <animation>
    <frame tileid="1733" duration="150"/>
    <frame tileid="1741" duration="150"/>
    <frame tileid="1749" duration="150"/>
    <frame tileid="1757" duration="150"/>
    <frame tileid="1765" duration="150"/>
    <frame tileid="1773" duration="150"/>
    <frame tileid="1781" duration="150"/>
    <frame tileid="1789" duration="150"/>
   </animation>
  </tile>
  <tile id="1734">
   <animation>
    <frame tileid="1734" duration="150"/>
    <frame tileid="1742" duration="150"/>
    <frame tileid="1750" duration="150"/>
    <frame tileid="1758" duration="150"/>
    <frame tileid="1766" duration="150"/>
    <frame tileid="1774" duration="150"/>
    <frame tileid="1782" duration="150"/>
    <frame tileid="1790" duration="150"/>
   </animation>
  </tile>
  <tile id="1735">
   <animation>
    <frame tileid="1735" duration="150"/>
    <frame tileid="1743" duration="150"/>
    <frame tileid="1751" duration="150"/>
    <frame tileid="1759" duration="150"/>
    <frame tileid="1767" duration="150"/>
    <frame tileid="1775" duration="150"/>
    <frame tileid="1783" duration="150"/>
    <frame tileid="1791" duration="150"/>
   </animation>
  </tile>
  <tile id="1793">
   <animation>
    <frame tileid="1793" duration="150"/>
    <frame tileid="1801" duration="150"/>
    <frame tileid="1809" duration="150"/>
    <frame tileid="1817" duration="150"/>
    <frame tileid="1825" duration="150"/>
    <frame tileid="1833" duration="150"/>
    <frame tileid="1841" duration="150"/>
    <frame tileid="1849" duration="150"/>
   </animation>
  </tile>
  <tile id="1794">
   <animation>
    <frame tileid="1794" duration="150"/>
    <frame tileid="1802" duration="150"/>
    <frame tileid="1810" duration="150"/>
    <frame tileid="1818" duration="150"/>
    <frame tileid="1826" duration="150"/>
    <frame tileid="1834" duration="150"/>
    <frame tileid="1842" duration="150"/>
    <frame tileid="1850" duration="150"/>
   </animation>
  </tile>
  <tile id="1795">
   <animation>
    <frame tileid="1795" duration="150"/>
    <frame tileid="1803" duration="150"/>
    <frame tileid="1811" duration="150"/>
    <frame tileid="1819" duration="150"/>
    <frame tileid="1827" duration="150"/>
    <frame tileid="1835" duration="150"/>
    <frame tileid="1843" duration="150"/>
    <frame tileid="1851" duration="150"/>
   </animation>
  </tile>
  <tile id="1796">
   <animation>
    <frame tileid="1796" duration="150"/>
    <frame tileid="1804" duration="150"/>
    <frame tileid="1812" duration="150"/>
    <frame tileid="1820" duration="150"/>
    <frame tileid="1828" duration="150"/>
    <frame tileid="1836" duration="150"/>
    <frame tileid="1844" duration="150"/>
    <frame tileid="1852" duration="150"/>
   </animation>
  </tile>
  <tile id="1797">
   <animation>
    <frame tileid="1797" duration="150"/>
    <frame tileid="1805" duration="150"/>
    <frame tileid="1813" duration="150"/>
    <frame tileid="1821" duration="150"/>
    <frame tileid="1829" duration="150"/>
    <frame tileid="1837" duration="150"/>
    <frame tileid="1845" duration="150"/>
    <frame tileid="1853" duration="150"/>
   </animation>
  </tile>
  <tile id="1798">
   <animation>
    <frame tileid="1798" duration="150"/>
    <frame tileid="1806" duration="150"/>
    <frame tileid="1814" duration="150"/>
    <frame tileid="1822" duration="150"/>
    <frame tileid="1830" duration="150"/>
    <frame tileid="1838" duration="150"/>
    <frame tileid="1846" duration="150"/>
    <frame tileid="1854" duration="150"/>
   </animation>
  </tile>
  <tile id="1799">
   <animation>
    <frame tileid="1799" duration="150"/>
    <frame tileid="1807" duration="150"/>
    <frame tileid="1815" duration="150"/>
    <frame tileid="1823" duration="150"/>
    <frame tileid="1831" duration="150"/>
    <frame tileid="1839" duration="150"/>
    <frame tileid="1847" duration="150"/>
    <frame tileid="1855" duration="150"/>
   </animation>
  </tile>
  <tile id="1861">
   <animation>
    <frame tileid="1861" duration="150"/>
    <frame tileid="1869" duration="150"/>
    <frame tileid="1877" duration="150"/>
    <frame tileid="1885" duration="150"/>
    <frame tileid="1893" duration="150"/>
    <frame tileid="1901" duration="150"/>
    <frame tileid="1909" duration="150"/>
    <frame tileid="1917" duration="150"/>
   </animation>
  </tile>
  <tile id="1862">
   <animation>
    <frame tileid="1862" duration="150"/>
    <frame tileid="1870" duration="150"/>
    <frame tileid="1878" duration="150"/>
    <frame tileid="1886" duration="150"/>
    <frame tileid="1894" duration="150"/>
    <frame tileid="1902" duration="150"/>
    <frame tileid="1910" duration="150"/>
    <frame tileid="1918" duration="150"/>
   </animation>
  </tile>
  <tile id="1863">
   <animation>
    <frame tileid="1863" duration="150"/>
    <frame tileid="1871" duration="150"/>
    <frame tileid="1879" duration="150"/>
    <frame tileid="1887" duration="150"/>
    <frame tileid="1895" duration="150"/>
    <frame tileid="1903" duration="150"/>
    <frame tileid="1911" duration="150"/>
    <frame tileid="1919" duration="150"/>
   </animation>
  </tile>
 </tileset>
 <tileset firstgid="31233" name="Shadow__attack" tilewidth="16" tileheight="16" tilecount="120" columns="30">
  <image source="Shadow__attack.png" width="480" height="64"/>
  <tile id="0">
   <animation>
    <frame tileid="0" duration="150"/>
    <frame tileid="0" duration="150"/>
    <frame tileid="5" duration="150"/>
    <frame tileid="10" duration="150"/>
    <frame tileid="15" duration="150"/>
    <frame tileid="15" duration="150"/>
    <frame tileid="20" duration="150"/>
    <frame tileid="25" duration="150"/>
   </animation>
  </tile>
  <tile id="1">
   <animation>
    <frame tileid="1" duration="150"/>
    <frame tileid="1" duration="150"/>
    <frame tileid="6" duration="150"/>
    <frame tileid="11" duration="150"/>
    <frame tileid="16" duration="150"/>
    <frame tileid="16" duration="150"/>
    <frame tileid="21" duration="150"/>
    <frame tileid="26" duration="150"/>
   </animation>
  </tile>
  <tile id="2">
   <animation>
    <frame tileid="2" duration="150"/>
    <frame tileid="2" duration="150"/>
    <frame tileid="7" duration="150"/>
    <frame tileid="12" duration="150"/>
    <frame tileid="17" duration="150"/>
    <frame tileid="17" duration="150"/>
    <frame tileid="22" duration="150"/>
    <frame tileid="27" duration="150"/>
   </animation>
  </tile>
  <tile id="3">
   <animation>
    <frame tileid="3" duration="150"/>
    <frame tileid="3" duration="150"/>
    <frame tileid="8" duration="150"/>
    <frame tileid="13" duration="150"/>
    <frame tileid="18" duration="150"/>
    <frame tileid="18" duration="150"/>
    <frame tileid="23" duration="150"/>
    <frame tileid="28" duration="150"/>
   </animation>
  </tile>
  <tile id="4">
   <animation>
    <frame tileid="4" duration="150"/>
    <frame tileid="4" duration="150"/>
    <frame tileid="9" duration="150"/>
    <frame tileid="14" duration="150"/>
    <frame tileid="19" duration="150"/>
    <frame tileid="19" duration="150"/>
    <frame tileid="24" duration="150"/>
    <frame tileid="29" duration="150"/>
   </animation>
  </tile>
  <tile id="30">
   <animation>
    <frame tileid="30" duration="150"/>
    <frame tileid="30" duration="150"/>
    <frame tileid="35" duration="150"/>
    <frame tileid="40" duration="150"/>
    <frame tileid="45" duration="150"/>
    <frame tileid="45" duration="150"/>
    <frame tileid="50" duration="150"/>
    <frame tileid="55" duration="150"/>
   </animation>
  </tile>
  <tile id="31">
   <animation>
    <frame tileid="31" duration="150"/>
    <frame tileid="31" duration="150"/>
    <frame tileid="36" duration="150"/>
    <frame tileid="41" duration="150"/>
    <frame tileid="46" duration="150"/>
    <frame tileid="46" duration="150"/>
    <frame tileid="51" duration="150"/>
    <frame tileid="56" duration="150"/>
   </animation>
  </tile>
  <tile id="32">
   <animation>
    <frame tileid="32" duration="150"/>
    <frame tileid="32" duration="150"/>
    <frame tileid="37" duration="150"/>
    <frame tileid="42" duration="150"/>
    <frame tileid="47" duration="150"/>
    <frame tileid="47" duration="150"/>
    <frame tileid="52" duration="150"/>
    <frame tileid="57" duration="150"/>
   </animation>
  </tile>
  <tile id="33">
   <animation>
    <frame tileid="33" duration="150"/>
    <frame tileid="33" duration="150"/>
    <frame tileid="38" duration="150"/>
    <frame tileid="43" duration="150"/>
    <frame tileid="48" duration="150"/>
    <frame tileid="48" duration="150"/>
    <frame tileid="53" duration="150"/>
    <frame tileid="58" duration="150"/>
   </animation>
  </tile>
  <tile id="34">
   <animation>
    <frame tileid="34" duration="150"/>
    <frame tileid="34" duration="150"/>
    <frame tileid="39" duration="150"/>
    <frame tileid="44" duration="150"/>
    <frame tileid="49" duration="150"/>
    <frame tileid="49" duration="150"/>
    <frame tileid="54" duration="150"/>
    <frame tileid="59" duration="150"/>
   </animation>
  </tile>
  <tile id="60">
   <animation>
    <frame tileid="60" duration="150"/>
    <frame tileid="62" duration="150"/>
    <frame tileid="64" duration="150"/>
    <frame tileid="66" duration="150"/>
    <frame tileid="68" duration="150"/>
    <frame tileid="68" duration="150"/>
    <frame tileid="68" duration="150"/>
    <frame tileid="68" duration="150"/>
   </animation>
  </tile>
  <tile id="61">
   <animation>
    <frame tileid="61" duration="150"/>
    <frame tileid="63" duration="150"/>
    <frame tileid="65" duration="150"/>
    <frame tileid="67" duration="150"/>
    <frame tileid="69" duration="150"/>
    <frame tileid="69" duration="150"/>
    <frame tileid="69" duration="150"/>
    <frame tileid="69" duration="150"/>
   </animation>
  </tile>
  <tile id="90">
   <animation>
    <frame tileid="90" duration="150"/>
    <frame tileid="92" duration="150"/>
    <frame tileid="94" duration="150"/>
    <frame tileid="96" duration="150"/>
    <frame tileid="98" duration="150"/>
    <frame tileid="98" duration="150"/>
    <frame tileid="98" duration="150"/>
    <frame tileid="98" duration="150"/>
   </animation>
  </tile>
  <tile id="91">
   <animation>
    <frame tileid="91" duration="150"/>
    <frame tileid="93" duration="150"/>
    <frame tileid="95" duration="150"/>
    <frame tileid="97" duration="150"/>
    <frame tileid="99" duration="150"/>
    <frame tileid="99" duration="150"/>
    <frame tileid="99" duration="150"/>
    <frame tileid="99" duration="150"/>
   </animation>
  </tile>
 </tileset>
 <tileset firstgid="31353" name="Shadow_single" tilewidth="16" tileheight="16" tilecount="12" columns="4">
  <image source="Shadow_single.png" width="64" height="48"/>
 </tileset>
 <tileset firstgid="31365" name="Rat2_Hurt_full" tilewidth="16" tileheight="16" tilecount="1024" columns="32">
  <image source="Rat2_Hurt_without_shadow.png" width="512" height="512"/>
  <tile id="67">
   <animation>
    <frame tileid="67" duration="150"/>
    <frame tileid="75" duration="150"/>
    <frame tileid="83" duration="150"/>
    <frame tileid="91" duration="150"/>
   </animation>
  </tile>
  <tile id="68">
   <animation>
    <frame tileid="68" duration="150"/>
    <frame tileid="76" duration="150"/>
    <frame tileid="84" duration="150"/>
    <frame tileid="92" duration="150"/>
   </animation>
  </tile>
  <tile id="98">
   <animation>
    <frame tileid="98" duration="150"/>
    <frame tileid="106" duration="150"/>
    <frame tileid="114" duration="150"/>
    <frame tileid="122" duration="150"/>
   </animation>
  </tile>
  <tile id="99">
   <animation>
    <frame tileid="99" duration="150"/>
    <frame tileid="107" duration="150"/>
    <frame tileid="115" duration="150"/>
    <frame tileid="123" duration="150"/>
   </animation>
  </tile>
  <tile id="100">
   <animation>
    <frame tileid="100" duration="150"/>
    <frame tileid="108" duration="150"/>
    <frame tileid="116" duration="150"/>
    <frame tileid="124" duration="150"/>
   </animation>
  </tile>
  <tile id="101">
   <animation>
    <frame tileid="101" duration="150"/>
    <frame tileid="109" duration="150"/>
    <frame tileid="117" duration="150"/>
    <frame tileid="125" duration="150"/>
   </animation>
  </tile>
  <tile id="131">
   <animation>
    <frame tileid="131" duration="150"/>
    <frame tileid="139" duration="150"/>
    <frame tileid="147" duration="150"/>
    <frame tileid="155" duration="150"/>
   </animation>
  </tile>
  <tile id="132">
   <animation>
    <frame tileid="132" duration="150"/>
    <frame tileid="140" duration="150"/>
    <frame tileid="148" duration="150"/>
    <frame tileid="156" duration="150"/>
   </animation>
  </tile>
  <tile id="323">
   <animation>
    <frame tileid="323" duration="150"/>
    <frame tileid="331" duration="150"/>
    <frame tileid="339" duration="150"/>
    <frame tileid="347" duration="150"/>
   </animation>
  </tile>
  <tile id="324">
   <animation>
    <frame tileid="324" duration="150"/>
    <frame tileid="332" duration="150"/>
    <frame tileid="340" duration="150"/>
    <frame tileid="348" duration="150"/>
   </animation>
  </tile>
  <tile id="354">
   <animation>
    <frame tileid="354" duration="150"/>
    <frame tileid="362" duration="150"/>
    <frame tileid="370" duration="150"/>
    <frame tileid="378" duration="150"/>
   </animation>
  </tile>
  <tile id="355">
   <animation>
    <frame tileid="355" duration="150"/>
    <frame tileid="363" duration="150"/>
    <frame tileid="371" duration="150"/>
    <frame tileid="379" duration="150"/>
   </animation>
  </tile>
  <tile id="356">
   <animation>
    <frame tileid="356" duration="150"/>
    <frame tileid="364" duration="150"/>
    <frame tileid="372" duration="150"/>
    <frame tileid="380" duration="150"/>
   </animation>
  </tile>
  <tile id="357">
   <animation>
    <frame tileid="357" duration="150"/>
    <frame tileid="365" duration="150"/>
    <frame tileid="373" duration="150"/>
    <frame tileid="381" duration="150"/>
   </animation>
  </tile>
  <tile id="387">
   <animation>
    <frame tileid="387" duration="150"/>
    <frame tileid="395" duration="150"/>
    <frame tileid="403" duration="150"/>
    <frame tileid="411" duration="150"/>
   </animation>
  </tile>
  <tile id="388">
   <animation>
    <frame tileid="388" duration="150"/>
    <frame tileid="396" duration="150"/>
    <frame tileid="404" duration="150"/>
    <frame tileid="412" duration="150"/>
   </animation>
  </tile>
  <tile id="578">
   <animation>
    <frame tileid="578" duration="150"/>
    <frame tileid="586" duration="150"/>
    <frame tileid="594" duration="150"/>
    <frame tileid="602" duration="150"/>
   </animation>
  </tile>
  <tile id="579">
   <animation>
    <frame tileid="579" duration="150"/>
    <frame tileid="587" duration="150"/>
    <frame tileid="595" duration="150"/>
    <frame tileid="603" duration="150"/>
   </animation>
  </tile>
  <tile id="580">
   <animation>
    <frame tileid="580" duration="150"/>
    <frame tileid="588" duration="150"/>
    <frame tileid="596" duration="150"/>
    <frame tileid="604" duration="150"/>
   </animation>
  </tile>
  <tile id="610">
   <animation>
    <frame tileid="610" duration="150"/>
    <frame tileid="618" duration="150"/>
    <frame tileid="626" duration="150"/>
    <frame tileid="634" duration="150"/>
   </animation>
  </tile>
  <tile id="611">
   <animation>
    <frame tileid="611" duration="150"/>
    <frame tileid="619" duration="150"/>
    <frame tileid="627" duration="150"/>
    <frame tileid="635" duration="150"/>
   </animation>
  </tile>
  <tile id="612">
   <animation>
    <frame tileid="612" duration="150"/>
    <frame tileid="620" duration="150"/>
    <frame tileid="628" duration="150"/>
    <frame tileid="636" duration="150"/>
   </animation>
  </tile>
  <tile id="613">
   <animation>
    <frame tileid="613" duration="150"/>
    <frame tileid="621" duration="150"/>
    <frame tileid="629" duration="150"/>
    <frame tileid="637" duration="150"/>
   </animation>
  </tile>
  <tile id="642">
   <animation>
    <frame tileid="642" duration="150"/>
    <frame tileid="650" duration="150"/>
    <frame tileid="658" duration="150"/>
    <frame tileid="666" duration="150"/>
   </animation>
  </tile>
  <tile id="643">
   <animation>
    <frame tileid="643" duration="150"/>
    <frame tileid="651" duration="150"/>
    <frame tileid="659" duration="150"/>
    <frame tileid="667" duration="150"/>
   </animation>
  </tile>
  <tile id="644">
   <animation>
    <frame tileid="644" duration="150"/>
    <frame tileid="652" duration="150"/>
    <frame tileid="660" duration="150"/>
    <frame tileid="668" duration="150"/>
   </animation>
  </tile>
  <tile id="645">
   <animation>
    <frame tileid="645" duration="150"/>
    <frame tileid="653" duration="150"/>
    <frame tileid="661" duration="150"/>
    <frame tileid="669" duration="150"/>
   </animation>
  </tile>
  <tile id="646">
   <animation>
    <frame tileid="646" duration="150"/>
    <frame tileid="654" duration="150"/>
    <frame tileid="662" duration="150"/>
    <frame tileid="670" duration="150"/>
   </animation>
  </tile>
  <tile id="835">
   <animation>
    <frame tileid="835" duration="150"/>
    <frame tileid="843" duration="150"/>
    <frame tileid="851" duration="150"/>
    <frame tileid="859" duration="150"/>
   </animation>
  </tile>
  <tile id="836">
   <animation>
    <frame tileid="836" duration="150"/>
    <frame tileid="844" duration="150"/>
    <frame tileid="852" duration="150"/>
    <frame tileid="860" duration="150"/>
   </animation>
  </tile>
  <tile id="837">
   <animation>
    <frame tileid="837" duration="150"/>
    <frame tileid="845" duration="150"/>
    <frame tileid="853" duration="150"/>
    <frame tileid="861" duration="150"/>
   </animation>
  </tile>
  <tile id="866">
   <animation>
    <frame tileid="866" duration="150"/>
    <frame tileid="874" duration="150"/>
    <frame tileid="882" duration="150"/>
    <frame tileid="890" duration="150"/>
   </animation>
  </tile>
  <tile id="867">
   <animation>
    <frame tileid="867" duration="150"/>
    <frame tileid="875" duration="150"/>
    <frame tileid="883" duration="150"/>
    <frame tileid="891" duration="150"/>
   </animation>
  </tile>
  <tile id="868">
   <animation>
    <frame tileid="868" duration="150"/>
    <frame tileid="876" duration="150"/>
    <frame tileid="884" duration="150"/>
    <frame tileid="892" duration="150"/>
   </animation>
  </tile>
  <tile id="869">
   <animation>
    <frame tileid="869" duration="150"/>
    <frame tileid="877" duration="150"/>
    <frame tileid="885" duration="150"/>
    <frame tileid="893" duration="150"/>
   </animation>
  </tile>
  <tile id="897">
   <animation>
    <frame tileid="897" duration="150"/>
    <frame tileid="905" duration="150"/>
    <frame tileid="913" duration="150"/>
    <frame tileid="921" duration="150"/>
   </animation>
  </tile>
  <tile id="898">
   <animation>
    <frame tileid="898" duration="150"/>
    <frame tileid="906" duration="150"/>
    <frame tileid="914" duration="150"/>
    <frame tileid="922" duration="150"/>
   </animation>
  </tile>
  <tile id="899">
   <animation>
    <frame tileid="899" duration="150"/>
    <frame tileid="907" duration="150"/>
    <frame tileid="915" duration="150"/>
    <frame tileid="923" duration="150"/>
   </animation>
  </tile>
  <tile id="900">
   <animation>
    <frame tileid="900" duration="150"/>
    <frame tileid="908" duration="150"/>
    <frame tileid="916" duration="150"/>
    <frame tileid="924" duration="150"/>
   </animation>
  </tile>
  <tile id="901">
   <animation>
    <frame tileid="901" duration="150"/>
    <frame tileid="909" duration="150"/>
    <frame tileid="917" duration="150"/>
    <frame tileid="925" duration="150"/>
   </animation>
  </tile>
 </tileset>
 <tileset firstgid="32389" name="Rat2_Death_full" tilewidth="16" tileheight="16" tilecount="1280" columns="40">
  <image source="Rat2_Death_without_shadow.png" width="640" height="512"/>
  <tile id="83">
   <animation>
    <frame tileid="83" duration="150"/>
    <frame tileid="91" duration="150"/>
    <frame tileid="99" duration="150"/>
    <frame tileid="107" duration="150"/>
    <frame tileid="115" duration="150"/>
   </animation>
  </tile>
  <tile id="84">
   <animation>
    <frame tileid="84" duration="150"/>
    <frame tileid="92" duration="150"/>
    <frame tileid="100" duration="150"/>
    <frame tileid="108" duration="150"/>
    <frame tileid="116" duration="150"/>
   </animation>
  </tile>
  <tile id="122">
   <animation>
    <frame tileid="122" duration="150"/>
    <frame tileid="130" duration="150"/>
    <frame tileid="138" duration="150"/>
    <frame tileid="146" duration="150"/>
    <frame tileid="154" duration="150"/>
   </animation>
  </tile>
  <tile id="123">
   <animation>
    <frame tileid="123" duration="150"/>
    <frame tileid="131" duration="150"/>
    <frame tileid="139" duration="150"/>
    <frame tileid="147" duration="150"/>
    <frame tileid="155" duration="150"/>
   </animation>
  </tile>
  <tile id="124">
   <animation>
    <frame tileid="124" duration="150"/>
    <frame tileid="132" duration="150"/>
    <frame tileid="140" duration="150"/>
    <frame tileid="148" duration="150"/>
    <frame tileid="156" duration="150"/>
   </animation>
  </tile>
  <tile id="125">
   <animation>
    <frame tileid="125" duration="150"/>
    <frame tileid="133" duration="150"/>
    <frame tileid="141" duration="150"/>
    <frame tileid="149" duration="150"/>
    <frame tileid="157" duration="150"/>
   </animation>
  </tile>
  <tile id="163">
   <animation>
    <frame tileid="163" duration="150"/>
    <frame tileid="171" duration="150"/>
    <frame tileid="179" duration="150"/>
    <frame tileid="187" duration="150"/>
    <frame tileid="195" duration="150"/>
   </animation>
  </tile>
  <tile id="164">
   <animation>
    <frame tileid="164" duration="150"/>
    <frame tileid="172" duration="150"/>
    <frame tileid="180" duration="150"/>
    <frame tileid="188" duration="150"/>
    <frame tileid="196" duration="150"/>
   </animation>
  </tile>
  <tile id="203">
   <animation>
    <frame tileid="203" duration="150"/>
    <frame tileid="211" duration="150"/>
    <frame tileid="219" duration="150"/>
    <frame tileid="227" duration="150"/>
    <frame tileid="235" duration="150"/>
   </animation>
  </tile>
  <tile id="204">
   <animation>
    <frame tileid="204" duration="150"/>
    <frame tileid="212" duration="150"/>
    <frame tileid="220" duration="150"/>
    <frame tileid="228" duration="150"/>
    <frame tileid="236" duration="150"/>
   </animation>
  </tile>
  <tile id="403">
   <animation>
    <frame tileid="403" duration="150"/>
    <frame tileid="411" duration="150"/>
    <frame tileid="419" duration="150"/>
    <frame tileid="427" duration="150"/>
    <frame tileid="435" duration="150"/>
   </animation>
  </tile>
  <tile id="404">
   <animation>
    <frame tileid="404" duration="150"/>
    <frame tileid="412" duration="150"/>
    <frame tileid="420" duration="150"/>
    <frame tileid="428" duration="150"/>
    <frame tileid="436" duration="150"/>
   </animation>
  </tile>
  <tile id="442">
   <animation>
    <frame tileid="442" duration="150"/>
    <frame tileid="450" duration="150"/>
    <frame tileid="458" duration="150"/>
    <frame tileid="466" duration="150"/>
    <frame tileid="474" duration="150"/>
   </animation>
  </tile>
  <tile id="443">
   <animation>
    <frame tileid="443" duration="150"/>
    <frame tileid="451" duration="150"/>
    <frame tileid="459" duration="150"/>
    <frame tileid="467" duration="150"/>
    <frame tileid="475" duration="150"/>
   </animation>
  </tile>
  <tile id="444">
   <animation>
    <frame tileid="444" duration="150"/>
    <frame tileid="452" duration="150"/>
    <frame tileid="460" duration="150"/>
    <frame tileid="468" duration="150"/>
    <frame tileid="476" duration="150"/>
   </animation>
  </tile>
  <tile id="445">
   <animation>
    <frame tileid="445" duration="150"/>
    <frame tileid="453" duration="150"/>
    <frame tileid="461" duration="150"/>
    <frame tileid="469" duration="150"/>
    <frame tileid="477" duration="150"/>
   </animation>
  </tile>
  <tile id="483">
   <animation>
    <frame tileid="483" duration="150"/>
    <frame tileid="491" duration="150"/>
    <frame tileid="499" duration="150"/>
    <frame tileid="507" duration="150"/>
    <frame tileid="515" duration="150"/>
   </animation>
  </tile>
  <tile id="484">
   <animation>
    <frame tileid="484" duration="150"/>
    <frame tileid="492" duration="150"/>
    <frame tileid="500" duration="150"/>
    <frame tileid="508" duration="150"/>
    <frame tileid="516" duration="150"/>
   </animation>
  </tile>
  <tile id="524">
   <animation>
    <frame tileid="524" duration="150"/>
    <frame tileid="532" duration="150"/>
    <frame tileid="540" duration="150"/>
    <frame tileid="548" duration="150"/>
    <frame tileid="556" duration="150"/>
   </animation>
  </tile>
  <tile id="722">
   <animation>
    <frame tileid="722" duration="150"/>
    <frame tileid="730" duration="150"/>
    <frame tileid="738" duration="150"/>
    <frame tileid="746" duration="150"/>
    <frame tileid="754" duration="150"/>
   </animation>
  </tile>
  <tile id="723">
   <animation>
    <frame tileid="723" duration="150"/>
    <frame tileid="731" duration="150"/>
    <frame tileid="739" duration="150"/>
    <frame tileid="747" duration="150"/>
    <frame tileid="755" duration="150"/>
   </animation>
  </tile>
  <tile id="724">
   <animation>
    <frame tileid="724" duration="150"/>
    <frame tileid="732" duration="150"/>
    <frame tileid="740" duration="150"/>
    <frame tileid="748" duration="150"/>
    <frame tileid="756" duration="150"/>
   </animation>
  </tile>
  <tile id="762">
   <animation>
    <frame tileid="762" duration="150"/>
    <frame tileid="770" duration="150"/>
    <frame tileid="778" duration="150"/>
    <frame tileid="786" duration="150"/>
    <frame tileid="794" duration="150"/>
   </animation>
  </tile>
  <tile id="763">
   <animation>
    <frame tileid="763" duration="150"/>
    <frame tileid="771" duration="150"/>
    <frame tileid="779" duration="150"/>
    <frame tileid="787" duration="150"/>
    <frame tileid="795" duration="150"/>
   </animation>
  </tile>
  <tile id="764">
   <animation>
    <frame tileid="764" duration="150"/>
    <frame tileid="772" duration="150"/>
    <frame tileid="780" duration="150"/>
    <frame tileid="788" duration="150"/>
    <frame tileid="796" duration="150"/>
   </animation>
  </tile>
  <tile id="765">
   <animation>
    <frame tileid="765" duration="150"/>
    <frame tileid="773" duration="150"/>
    <frame tileid="781" duration="150"/>
    <frame tileid="789" duration="150"/>
    <frame tileid="797" duration="150"/>
   </animation>
  </tile>
  <tile id="766">
   <animation>
    <frame tileid="766" duration="150"/>
    <frame tileid="774" duration="150"/>
    <frame tileid="782" duration="150"/>
    <frame tileid="790" duration="150"/>
    <frame tileid="798" duration="150"/>
   </animation>
  </tile>
  <tile id="802">
   <animation>
    <frame tileid="802" duration="150"/>
    <frame tileid="810" duration="150"/>
    <frame tileid="818" duration="150"/>
    <frame tileid="826" duration="150"/>
    <frame tileid="834" duration="150"/>
   </animation>
  </tile>
  <tile id="803">
   <animation>
    <frame tileid="803" duration="150"/>
    <frame tileid="811" duration="150"/>
    <frame tileid="819" duration="150"/>
    <frame tileid="827" duration="150"/>
    <frame tileid="835" duration="150"/>
   </animation>
  </tile>
  <tile id="804">
   <animation>
    <frame tileid="804" duration="150"/>
    <frame tileid="812" duration="150"/>
    <frame tileid="820" duration="150"/>
    <frame tileid="828" duration="150"/>
    <frame tileid="836" duration="150"/>
   </animation>
  </tile>
  <tile id="805">
   <animation>
    <frame tileid="805" duration="150"/>
    <frame tileid="813" duration="150"/>
    <frame tileid="821" duration="150"/>
    <frame tileid="829" duration="150"/>
    <frame tileid="837" duration="150"/>
   </animation>
  </tile>
  <tile id="806">
   <animation>
    <frame tileid="806" duration="150"/>
    <frame tileid="814" duration="150"/>
    <frame tileid="822" duration="150"/>
    <frame tileid="830" duration="150"/>
    <frame tileid="838" duration="150"/>
   </animation>
  </tile>
  <tile id="1043">
   <animation>
    <frame tileid="1043" duration="150"/>
    <frame tileid="1051" duration="150"/>
    <frame tileid="1059" duration="150"/>
    <frame tileid="1067" duration="150"/>
    <frame tileid="1075" duration="150"/>
   </animation>
  </tile>
  <tile id="1044">
   <animation>
    <frame tileid="1044" duration="150"/>
    <frame tileid="1052" duration="150"/>
    <frame tileid="1060" duration="150"/>
    <frame tileid="1068" duration="150"/>
    <frame tileid="1076" duration="150"/>
   </animation>
  </tile>
  <tile id="1045">
   <animation>
    <frame tileid="1045" duration="150"/>
    <frame tileid="1053" duration="150"/>
    <frame tileid="1061" duration="150"/>
    <frame tileid="1069" duration="150"/>
    <frame tileid="1077" duration="150"/>
   </animation>
  </tile>
  <tile id="1081">
   <animation>
    <frame tileid="1081" duration="150"/>
    <frame tileid="1089" duration="150"/>
    <frame tileid="1097" duration="150"/>
    <frame tileid="1105" duration="150"/>
    <frame tileid="1113" duration="150"/>
   </animation>
  </tile>
  <tile id="1082">
   <animation>
    <frame tileid="1082" duration="150"/>
    <frame tileid="1090" duration="150"/>
    <frame tileid="1098" duration="150"/>
    <frame tileid="1106" duration="150"/>
    <frame tileid="1114" duration="150"/>
   </animation>
  </tile>
  <tile id="1083">
   <animation>
    <frame tileid="1083" duration="150"/>
    <frame tileid="1091" duration="150"/>
    <frame tileid="1099" duration="150"/>
    <frame tileid="1107" duration="150"/>
    <frame tileid="1115" duration="150"/>
   </animation>
  </tile>
  <tile id="1084">
   <animation>
    <frame tileid="1084" duration="150"/>
    <frame tileid="1092" duration="150"/>
    <frame tileid="1100" duration="150"/>
    <frame tileid="1108" duration="150"/>
    <frame tileid="1116" duration="150"/>
   </animation>
  </tile>
  <tile id="1085">
   <animation>
    <frame tileid="1085" duration="150"/>
    <frame tileid="1093" duration="150"/>
    <frame tileid="1101" duration="150"/>
    <frame tileid="1109" duration="150"/>
    <frame tileid="1117" duration="150"/>
   </animation>
  </tile>
  <tile id="1121">
   <animation>
    <frame tileid="1121" duration="150"/>
    <frame tileid="1129" duration="150"/>
    <frame tileid="1137" duration="150"/>
    <frame tileid="1145" duration="150"/>
    <frame tileid="1153" duration="150"/>
   </animation>
  </tile>
  <tile id="1122">
   <animation>
    <frame tileid="1122" duration="150"/>
    <frame tileid="1130" duration="150"/>
    <frame tileid="1138" duration="150"/>
    <frame tileid="1146" duration="150"/>
    <frame tileid="1154" duration="150"/>
   </animation>
  </tile>
  <tile id="1123">
   <animation>
    <frame tileid="1123" duration="150"/>
    <frame tileid="1131" duration="150"/>
    <frame tileid="1139" duration="150"/>
    <frame tileid="1147" duration="150"/>
    <frame tileid="1155" duration="150"/>
   </animation>
  </tile>
  <tile id="1124">
   <animation>
    <frame tileid="1124" duration="150"/>
    <frame tileid="1132" duration="150"/>
    <frame tileid="1140" duration="150"/>
    <frame tileid="1148" duration="150"/>
    <frame tileid="1156" duration="150"/>
   </animation>
  </tile>
  <tile id="1125">
   <animation>
    <frame tileid="1125" duration="150"/>
    <frame tileid="1133" duration="150"/>
    <frame tileid="1141" duration="150"/>
    <frame tileid="1149" duration="150"/>
    <frame tileid="1157" duration="150"/>
   </animation>
  </tile>
 </tileset>
 <tileset firstgid="33669" name="Rat2_Run_full" tilewidth="16" tileheight="16" tilecount="1536" columns="48">
  <image source="Rat2_Run_without_shadow.png" width="768" height="512"/>
  <tile id="98">
   <animation>
    <frame tileid="98" duration="150"/>
    <frame tileid="106" duration="150"/>
    <frame tileid="114" duration="150"/>
    <frame tileid="122" duration="150"/>
    <frame tileid="130" duration="150"/>
    <frame tileid="138" duration="150"/>
   </animation>
  </tile>
  <tile id="99">
   <animation>
    <frame tileid="99" duration="150"/>
    <frame tileid="107" duration="150"/>
    <frame tileid="115" duration="150"/>
    <frame tileid="123" duration="150"/>
    <frame tileid="131" duration="150"/>
    <frame tileid="139" duration="150"/>
   </animation>
  </tile>
  <tile id="100">
   <animation>
    <frame tileid="100" duration="150"/>
    <frame tileid="108" duration="150"/>
    <frame tileid="116" duration="150"/>
    <frame tileid="124" duration="150"/>
    <frame tileid="132" duration="150"/>
    <frame tileid="140" duration="150"/>
   </animation>
  </tile>
  <tile id="101">
   <animation>
    <frame tileid="101" duration="150"/>
    <frame tileid="109" duration="150"/>
    <frame tileid="117" duration="150"/>
    <frame tileid="125" duration="150"/>
    <frame tileid="133" duration="150"/>
    <frame tileid="141" duration="150"/>
   </animation>
  </tile>
  <tile id="146">
   <animation>
    <frame tileid="146" duration="150"/>
    <frame tileid="154" duration="150"/>
    <frame tileid="162" duration="150"/>
    <frame tileid="170" duration="150"/>
    <frame tileid="178" duration="150"/>
    <frame tileid="186" duration="150"/>
   </animation>
  </tile>
  <tile id="147">
   <animation>
    <frame tileid="147" duration="150"/>
    <frame tileid="155" duration="150"/>
    <frame tileid="163" duration="150"/>
    <frame tileid="171" duration="150"/>
    <frame tileid="179" duration="150"/>
    <frame tileid="187" duration="150"/>
   </animation>
  </tile>
  <tile id="148">
   <animation>
    <frame tileid="148" duration="150"/>
    <frame tileid="156" duration="150"/>
    <frame tileid="164" duration="150"/>
    <frame tileid="172" duration="150"/>
    <frame tileid="180" duration="150"/>
    <frame tileid="188" duration="150"/>
   </animation>
  </tile>
  <tile id="149">
   <animation>
    <frame tileid="149" duration="150"/>
    <frame tileid="157" duration="150"/>
    <frame tileid="165" duration="150"/>
    <frame tileid="173" duration="150"/>
    <frame tileid="181" duration="150"/>
    <frame tileid="189" duration="150"/>
   </animation>
  </tile>
  <tile id="195">
   <animation>
    <frame tileid="195" duration="150"/>
    <frame tileid="203" duration="150"/>
    <frame tileid="211" duration="150"/>
    <frame tileid="219" duration="150"/>
    <frame tileid="227" duration="150"/>
    <frame tileid="235" duration="150"/>
   </animation>
  </tile>
  <tile id="196">
   <animation>
    <frame tileid="196" duration="150"/>
    <frame tileid="204" duration="150"/>
    <frame tileid="212" duration="150"/>
    <frame tileid="220" duration="150"/>
    <frame tileid="228" duration="150"/>
    <frame tileid="236" duration="150"/>
   </animation>
  </tile>
  <tile id="482">
   <animation>
    <frame tileid="482" duration="150"/>
    <frame tileid="490" duration="150"/>
    <frame tileid="498" duration="150"/>
    <frame tileid="506" duration="150"/>
    <frame tileid="514" duration="150"/>
    <frame tileid="522" duration="150"/>
   </animation>
  </tile>
  <tile id="483">
   <animation>
    <frame tileid="483" duration="150"/>
    <frame tileid="491" duration="150"/>
    <frame tileid="499" duration="150"/>
    <frame tileid="507" duration="150"/>
    <frame tileid="515" duration="150"/>
    <frame tileid="523" duration="150"/>
   </animation>
  </tile>
  <tile id="484">
   <animation>
    <frame tileid="484" duration="150"/>
    <frame tileid="492" duration="150"/>
    <frame tileid="500" duration="150"/>
    <frame tileid="508" duration="150"/>
    <frame tileid="516" duration="150"/>
    <frame tileid="524" duration="150"/>
   </animation>
  </tile>
  <tile id="485">
   <animation>
    <frame tileid="485" duration="150"/>
    <frame tileid="493" duration="150"/>
    <frame tileid="501" duration="150"/>
    <frame tileid="509" duration="150"/>
    <frame tileid="517" duration="150"/>
    <frame tileid="525" duration="150"/>
   </animation>
  </tile>
  <tile id="530">
   <animation>
    <frame tileid="530" duration="150"/>
    <frame tileid="538" duration="150"/>
    <frame tileid="546" duration="150"/>
    <frame tileid="554" duration="150"/>
    <frame tileid="562" duration="150"/>
    <frame tileid="570" duration="150"/>
   </animation>
  </tile>
  <tile id="531">
   <animation>
    <frame tileid="531" duration="150"/>
    <frame tileid="539" duration="150"/>
    <frame tileid="547" duration="150"/>
    <frame tileid="555" duration="150"/>
    <frame tileid="563" duration="150"/>
    <frame tileid="571" duration="150"/>
   </animation>
  </tile>
  <tile id="532">
   <animation>
    <frame tileid="532" duration="150"/>
    <frame tileid="540" duration="150"/>
    <frame tileid="548" duration="150"/>
    <frame tileid="556" duration="150"/>
    <frame tileid="564" duration="150"/>
    <frame tileid="572" duration="150"/>
   </animation>
  </tile>
  <tile id="533">
   <animation>
    <frame tileid="533" duration="150"/>
    <frame tileid="541" duration="150"/>
    <frame tileid="549" duration="150"/>
    <frame tileid="557" duration="150"/>
    <frame tileid="565" duration="150"/>
    <frame tileid="573" duration="150"/>
   </animation>
  </tile>
  <tile id="579">
   <animation>
    <frame tileid="579" duration="150"/>
    <frame tileid="587" duration="150"/>
    <frame tileid="595" duration="150"/>
    <frame tileid="603" duration="150"/>
    <frame tileid="611" duration="150"/>
    <frame tileid="619" duration="150"/>
   </animation>
  </tile>
  <tile id="580">
   <animation>
    <frame tileid="580" duration="150"/>
    <frame tileid="588" duration="150"/>
    <frame tileid="596" duration="150"/>
    <frame tileid="604" duration="150"/>
    <frame tileid="612" duration="150"/>
    <frame tileid="620" duration="150"/>
   </animation>
  </tile>
  <tile id="866">
   <animation>
    <frame tileid="866" duration="150"/>
    <frame tileid="874" duration="150"/>
    <frame tileid="882" duration="150"/>
    <frame tileid="890" duration="150"/>
    <frame tileid="898" duration="150"/>
    <frame tileid="906" duration="150"/>
   </animation>
  </tile>
  <tile id="867">
   <animation>
    <frame tileid="867" duration="150"/>
    <frame tileid="875" duration="150"/>
    <frame tileid="883" duration="150"/>
    <frame tileid="891" duration="150"/>
    <frame tileid="899" duration="150"/>
    <frame tileid="907" duration="150"/>
   </animation>
  </tile>
  <tile id="868">
   <animation>
    <frame tileid="868" duration="150"/>
    <frame tileid="876" duration="150"/>
    <frame tileid="884" duration="150"/>
    <frame tileid="892" duration="150"/>
    <frame tileid="900" duration="150"/>
    <frame tileid="908" duration="150"/>
   </animation>
  </tile>
  <tile id="869">
   <animation>
    <frame tileid="869" duration="150"/>
    <frame tileid="877" duration="150"/>
    <frame tileid="885" duration="150"/>
    <frame tileid="893" duration="150"/>
    <frame tileid="901" duration="150"/>
    <frame tileid="909" duration="150"/>
   </animation>
  </tile>
  <tile id="914">
   <animation>
    <frame tileid="914" duration="150"/>
    <frame tileid="922" duration="150"/>
    <frame tileid="930" duration="150"/>
    <frame tileid="938" duration="150"/>
    <frame tileid="946" duration="150"/>
    <frame tileid="954" duration="150"/>
   </animation>
  </tile>
  <tile id="915">
   <animation>
    <frame tileid="915" duration="150"/>
    <frame tileid="923" duration="150"/>
    <frame tileid="931" duration="150"/>
    <frame tileid="939" duration="150"/>
    <frame tileid="947" duration="150"/>
    <frame tileid="955" duration="150"/>
   </animation>
  </tile>
  <tile id="916">
   <animation>
    <frame tileid="916" duration="150"/>
    <frame tileid="924" duration="150"/>
    <frame tileid="932" duration="150"/>
    <frame tileid="940" duration="150"/>
    <frame tileid="948" duration="150"/>
    <frame tileid="956" duration="150"/>
   </animation>
  </tile>
  <tile id="917">
   <animation>
    <frame tileid="917" duration="150"/>
    <frame tileid="925" duration="150"/>
    <frame tileid="933" duration="150"/>
    <frame tileid="941" duration="150"/>
    <frame tileid="949" duration="150"/>
    <frame tileid="957" duration="150"/>
   </animation>
  </tile>
  <tile id="918">
   <animation>
    <frame tileid="918" duration="150"/>
    <frame tileid="926" duration="150"/>
    <frame tileid="934" duration="150"/>
    <frame tileid="942" duration="150"/>
    <frame tileid="950" duration="150"/>
    <frame tileid="958" duration="150"/>
   </animation>
  </tile>
  <tile id="962">
   <animation>
    <frame tileid="962" duration="150"/>
    <frame tileid="970" duration="150"/>
    <frame tileid="978" duration="150"/>
    <frame tileid="986" duration="150"/>
    <frame tileid="994" duration="150"/>
    <frame tileid="1002" duration="150"/>
   </animation>
  </tile>
  <tile id="963">
   <animation>
    <frame tileid="963" duration="150"/>
    <frame tileid="971" duration="150"/>
    <frame tileid="979" duration="150"/>
    <frame tileid="987" duration="150"/>
    <frame tileid="995" duration="150"/>
    <frame tileid="1003" duration="150"/>
   </animation>
  </tile>
  <tile id="964">
   <animation>
    <frame tileid="964" duration="150"/>
    <frame tileid="972" duration="150"/>
    <frame tileid="980" duration="150"/>
    <frame tileid="988" duration="150"/>
    <frame tileid="996" duration="150"/>
    <frame tileid="1004" duration="150"/>
   </animation>
  </tile>
  <tile id="965">
   <animation>
    <frame tileid="965" duration="150"/>
    <frame tileid="973" duration="150"/>
    <frame tileid="981" duration="150"/>
    <frame tileid="989" duration="150"/>
    <frame tileid="997" duration="150"/>
    <frame tileid="1005" duration="150"/>
   </animation>
  </tile>
  <tile id="966">
   <animation>
    <frame tileid="966" duration="150"/>
    <frame tileid="974" duration="150"/>
    <frame tileid="982" duration="150"/>
    <frame tileid="990" duration="150"/>
    <frame tileid="998" duration="150"/>
    <frame tileid="1006" duration="150"/>
   </animation>
  </tile>
  <tile id="1250">
   <animation>
    <frame tileid="1250" duration="150"/>
    <frame tileid="1258" duration="150"/>
    <frame tileid="1266" duration="150"/>
    <frame tileid="1273" duration="150"/>
    <frame tileid="1282" duration="150"/>
    <frame tileid="1290" duration="150"/>
   </animation>
  </tile>
  <tile id="1251">
   <animation>
    <frame tileid="1251" duration="150"/>
    <frame tileid="1259" duration="150"/>
    <frame tileid="1267" duration="150"/>
    <frame tileid="1275" duration="150"/>
    <frame tileid="1283" duration="150"/>
    <frame tileid="1291" duration="150"/>
   </animation>
  </tile>
  <tile id="1252">
   <animation>
    <frame tileid="1252" duration="150"/>
    <frame tileid="1260" duration="150"/>
    <frame tileid="1268" duration="150"/>
    <frame tileid="1276" duration="150"/>
    <frame tileid="1284" duration="150"/>
    <frame tileid="1292" duration="150"/>
   </animation>
  </tile>
  <tile id="1253">
   <animation>
    <frame tileid="1253" duration="150"/>
    <frame tileid="1261" duration="150"/>
    <frame tileid="1269" duration="150"/>
    <frame tileid="1277" duration="150"/>
    <frame tileid="1285" duration="150"/>
    <frame tileid="1293" duration="150"/>
   </animation>
  </tile>
  <tile id="1297">
   <animation>
    <frame tileid="1297" duration="150"/>
    <frame tileid="1305" duration="150"/>
    <frame tileid="1313" duration="150"/>
    <frame tileid="1321" duration="150"/>
    <frame tileid="1329" duration="150"/>
    <frame tileid="1337" duration="150"/>
   </animation>
  </tile>
  <tile id="1298">
   <animation>
    <frame tileid="1298" duration="150"/>
    <frame tileid="1306" duration="150"/>
    <frame tileid="1314" duration="150"/>
    <frame tileid="1322" duration="150"/>
    <frame tileid="1330" duration="150"/>
    <frame tileid="1338" duration="150"/>
   </animation>
  </tile>
  <tile id="1299">
   <animation>
    <frame tileid="1299" duration="150"/>
    <frame tileid="1307" duration="150"/>
    <frame tileid="1315" duration="150"/>
    <frame tileid="1323" duration="150"/>
    <frame tileid="1331" duration="150"/>
    <frame tileid="1339" duration="150"/>
   </animation>
  </tile>
  <tile id="1300">
   <animation>
    <frame tileid="1300" duration="150"/>
    <frame tileid="1308" duration="150"/>
    <frame tileid="1316" duration="150"/>
    <frame tileid="1324" duration="150"/>
    <frame tileid="1332" duration="150"/>
    <frame tileid="1340" duration="150"/>
   </animation>
  </tile>
  <tile id="1301">
   <animation>
    <frame tileid="1301" duration="150"/>
    <frame tileid="1309" duration="150"/>
    <frame tileid="1317" duration="150"/>
    <frame tileid="1325" duration="150"/>
    <frame tileid="1333" duration="150"/>
    <frame tileid="1341" duration="150"/>
   </animation>
  </tile>
  <tile id="1345">
   <animation>
    <frame tileid="1345" duration="150"/>
    <frame tileid="1353" duration="150"/>
    <frame tileid="1361" duration="150"/>
    <frame tileid="1369" duration="150"/>
    <frame tileid="1377" duration="150"/>
    <frame tileid="1385" duration="150"/>
   </animation>
  </tile>
  <tile id="1346">
   <animation>
    <frame tileid="1346" duration="150"/>
    <frame tileid="1354" duration="150"/>
    <frame tileid="1362" duration="150"/>
    <frame tileid="1370" duration="150"/>
    <frame tileid="1378" duration="150"/>
    <frame tileid="1386" duration="150"/>
   </animation>
  </tile>
  <tile id="1347">
   <animation>
    <frame tileid="1347" duration="150"/>
    <frame tileid="1355" duration="150"/>
    <frame tileid="1363" duration="150"/>
    <frame tileid="1371" duration="150"/>
    <frame tileid="1379" duration="150"/>
    <frame tileid="1387" duration="150"/>
   </animation>
  </tile>
  <tile id="1348">
   <animation>
    <frame tileid="1348" duration="150"/>
    <frame tileid="1356" duration="150"/>
    <frame tileid="1364" duration="150"/>
    <frame tileid="1372" duration="150"/>
    <frame tileid="1380" duration="150"/>
    <frame tileid="1388" duration="150"/>
   </animation>
  </tile>
  <tile id="1349">
   <animation>
    <frame tileid="1349" duration="150"/>
    <frame tileid="1357" duration="150"/>
    <frame tileid="1365" duration="150"/>
    <frame tileid="1373" duration="150"/>
    <frame tileid="1381" duration="150"/>
    <frame tileid="1389" duration="150"/>
   </animation>
  </tile>
 </tileset>
 <tileset firstgid="35205" name="Rat2_Attack_full" tilewidth="16" tileheight="16" tilecount="2048" columns="64">
  <image source="Rat2_Attack_without_shadow.png" width="1024" height="512"/>
  <tile id="67">
   <animation>
    <frame tileid="67" duration="150"/>
    <frame tileid="75" duration="150"/>
    <frame tileid="83" duration="150"/>
    <frame tileid="91" duration="150"/>
    <frame tileid="99" duration="150"/>
    <frame tileid="107" duration="150"/>
    <frame tileid="115" duration="150"/>
    <frame tileid="123" duration="150"/>
   </animation>
  </tile>
  <tile id="68">
   <animation>
    <frame tileid="68" duration="150"/>
    <frame tileid="76" duration="150"/>
    <frame tileid="84" duration="150"/>
    <frame tileid="92" duration="150"/>
    <frame tileid="100" duration="150"/>
    <frame tileid="108" duration="150"/>
    <frame tileid="116" duration="150"/>
    <frame tileid="124" duration="150"/>
   </animation>
  </tile>
  <tile id="131">
   <animation>
    <frame tileid="131" duration="150"/>
    <frame tileid="139" duration="150"/>
    <frame tileid="147" duration="150"/>
    <frame tileid="155" duration="150"/>
    <frame tileid="163" duration="150"/>
    <frame tileid="171" duration="150"/>
    <frame tileid="179" duration="150"/>
    <frame tileid="187" duration="150"/>
   </animation>
  </tile>
  <tile id="132">
   <animation>
    <frame tileid="132" duration="150"/>
    <frame tileid="140" duration="150"/>
    <frame tileid="148" duration="150"/>
    <frame tileid="156" duration="150"/>
    <frame tileid="164" duration="150"/>
    <frame tileid="172" duration="150"/>
    <frame tileid="180" duration="150"/>
    <frame tileid="188" duration="150"/>
   </animation>
  </tile>
  <tile id="194">
   <animation>
    <frame tileid="194" duration="150"/>
    <frame tileid="202" duration="150"/>
    <frame tileid="210" duration="150"/>
    <frame tileid="218" duration="150"/>
    <frame tileid="226" duration="150"/>
    <frame tileid="234" duration="150"/>
    <frame tileid="242" duration="150"/>
    <frame tileid="250" duration="150"/>
   </animation>
  </tile>
  <tile id="195">
   <animation>
    <frame tileid="195" duration="150"/>
    <frame tileid="203" duration="150"/>
    <frame tileid="211" duration="150"/>
    <frame tileid="219" duration="150"/>
    <frame tileid="227" duration="150"/>
    <frame tileid="235" duration="150"/>
    <frame tileid="243" duration="150"/>
    <frame tileid="251" duration="150"/>
   </animation>
  </tile>
  <tile id="196">
   <animation>
    <frame tileid="196" duration="150"/>
    <frame tileid="204" duration="150"/>
    <frame tileid="212" duration="150"/>
    <frame tileid="220" duration="150"/>
    <frame tileid="228" duration="150"/>
    <frame tileid="236" duration="150"/>
    <frame tileid="244" duration="150"/>
    <frame tileid="252" duration="150"/>
   </animation>
  </tile>
  <tile id="197">
   <animation>
    <frame tileid="197" duration="150"/>
    <frame tileid="205" duration="150"/>
    <frame tileid="213" duration="150"/>
    <frame tileid="221" duration="150"/>
    <frame tileid="229" duration="150"/>
    <frame tileid="237" duration="150"/>
    <frame tileid="245" duration="150"/>
    <frame tileid="253" duration="150"/>
   </animation>
  </tile>
  <tile id="258">
   <animation>
    <frame tileid="258" duration="150"/>
    <frame tileid="266" duration="150"/>
    <frame tileid="274" duration="150"/>
    <frame tileid="282" duration="150"/>
    <frame tileid="290" duration="150"/>
    <frame tileid="298" duration="150"/>
    <frame tileid="306" duration="150"/>
    <frame tileid="314" duration="150"/>
   </animation>
  </tile>
  <tile id="259">
   <animation>
    <frame tileid="259" duration="150"/>
    <frame tileid="267" duration="150"/>
    <frame tileid="275" duration="150"/>
    <frame tileid="283" duration="150"/>
    <frame tileid="291" duration="150"/>
    <frame tileid="299" duration="150"/>
    <frame tileid="307" duration="150"/>
    <frame tileid="315" duration="150"/>
   </animation>
  </tile>
  <tile id="260">
   <animation>
    <frame tileid="260" duration="150"/>
    <frame tileid="268" duration="150"/>
    <frame tileid="276" duration="150"/>
    <frame tileid="284" duration="150"/>
    <frame tileid="292" duration="150"/>
    <frame tileid="300" duration="150"/>
    <frame tileid="308" duration="150"/>
    <frame tileid="316" duration="150"/>
   </animation>
  </tile>
  <tile id="261">
   <animation>
    <frame tileid="261" duration="150"/>
    <frame tileid="269" duration="150"/>
    <frame tileid="277" duration="150"/>
    <frame tileid="285" duration="150"/>
    <frame tileid="293" duration="150"/>
    <frame tileid="301" duration="150"/>
    <frame tileid="309" duration="150"/>
    <frame tileid="317" duration="150"/>
   </animation>
  </tile>
  <tile id="322">
   <animation>
    <frame tileid="322" duration="150"/>
    <frame tileid="330" duration="150"/>
    <frame tileid="338" duration="150"/>
    <frame tileid="346" duration="150"/>
    <frame tileid="354" duration="150"/>
    <frame tileid="362" duration="150"/>
    <frame tileid="370" duration="150"/>
    <frame tileid="378" duration="150"/>
   </animation>
  </tile>
  <tile id="323">
   <animation>
    <frame tileid="323" duration="150"/>
    <frame tileid="331" duration="150"/>
    <frame tileid="339" duration="150"/>
    <frame tileid="347" duration="150"/>
    <frame tileid="355" duration="150"/>
    <frame tileid="363" duration="150"/>
    <frame tileid="371" duration="150"/>
    <frame tileid="379" duration="150"/>
   </animation>
  </tile>
  <tile id="324">
   <animation>
    <frame tileid="324" duration="150"/>
    <frame tileid="332" duration="150"/>
    <frame tileid="340" duration="150"/>
    <frame tileid="348" duration="150"/>
    <frame tileid="356" duration="150"/>
    <frame tileid="364" duration="150"/>
    <frame tileid="372" duration="150"/>
    <frame tileid="380" duration="150"/>
   </animation>
  </tile>
  <tile id="325">
   <animation>
    <frame tileid="325" duration="150"/>
    <frame tileid="333" duration="150"/>
    <frame tileid="341" duration="150"/>
    <frame tileid="349" duration="150"/>
    <frame tileid="357" duration="150"/>
    <frame tileid="365" duration="150"/>
    <frame tileid="373" duration="150"/>
    <frame tileid="381" duration="150"/>
   </animation>
  </tile>
  <tile id="388">
   <animation>
    <frame tileid="388" duration="150"/>
    <frame tileid="396" duration="150"/>
    <frame tileid="404" duration="150"/>
    <frame tileid="412" duration="150"/>
    <frame tileid="420" duration="150"/>
    <frame tileid="428" duration="150"/>
    <frame tileid="436" duration="150"/>
    <frame tileid="444" duration="150"/>
   </animation>
  </tile>
  <tile id="579">
   <animation>
    <frame tileid="579" duration="150"/>
    <frame tileid="587" duration="150"/>
    <frame tileid="595" duration="150"/>
    <frame tileid="603" duration="150"/>
    <frame tileid="611" duration="150"/>
    <frame tileid="619" duration="150"/>
    <frame tileid="627" duration="150"/>
    <frame tileid="635" duration="150"/>
   </animation>
  </tile>
  <tile id="580">
   <animation>
    <frame tileid="580" duration="150"/>
    <frame tileid="588" duration="150"/>
    <frame tileid="596" duration="150"/>
    <frame tileid="604" duration="150"/>
    <frame tileid="612" duration="150"/>
    <frame tileid="620" duration="150"/>
    <frame tileid="628" duration="150"/>
    <frame tileid="636" duration="150"/>
   </animation>
  </tile>
  <tile id="642">
   <animation>
    <frame tileid="642" duration="150"/>
    <frame tileid="650" duration="150"/>
    <frame tileid="658" duration="150"/>
    <frame tileid="666" duration="150"/>
    <frame tileid="674" duration="150"/>
    <frame tileid="682" duration="150"/>
    <frame tileid="690" duration="150"/>
    <frame tileid="698" duration="150"/>
   </animation>
  </tile>
  <tile id="643">
   <animation>
    <frame tileid="643" duration="150"/>
    <frame tileid="651" duration="150"/>
    <frame tileid="659" duration="150"/>
    <frame tileid="667" duration="150"/>
    <frame tileid="675" duration="150"/>
    <frame tileid="683" duration="150"/>
    <frame tileid="691" duration="150"/>
    <frame tileid="699" duration="150"/>
   </animation>
  </tile>
  <tile id="644">
   <animation>
    <frame tileid="644" duration="150"/>
    <frame tileid="652" duration="150"/>
    <frame tileid="660" duration="150"/>
    <frame tileid="668" duration="150"/>
    <frame tileid="676" duration="150"/>
    <frame tileid="684" duration="150"/>
    <frame tileid="692" duration="150"/>
    <frame tileid="700" duration="150"/>
   </animation>
  </tile>
  <tile id="645">
   <animation>
    <frame tileid="645" duration="150"/>
    <frame tileid="653" duration="150"/>
    <frame tileid="661" duration="150"/>
    <frame tileid="669" duration="150"/>
    <frame tileid="677" duration="150"/>
    <frame tileid="685" duration="150"/>
    <frame tileid="693" duration="150"/>
    <frame tileid="701" duration="150"/>
   </animation>
  </tile>
  <tile id="706">
   <animation>
    <frame tileid="706" duration="150"/>
    <frame tileid="714" duration="150"/>
    <frame tileid="722" duration="150"/>
    <frame tileid="730" duration="150"/>
    <frame tileid="738" duration="150"/>
    <frame tileid="746" duration="150"/>
    <frame tileid="754" duration="150"/>
    <frame tileid="762" duration="150"/>
   </animation>
  </tile>
  <tile id="707">
   <animation>
    <frame tileid="707" duration="150"/>
    <frame tileid="715" duration="150"/>
    <frame tileid="723" duration="150"/>
    <frame tileid="731" duration="150"/>
    <frame tileid="739" duration="150"/>
    <frame tileid="747" duration="150"/>
    <frame tileid="755" duration="150"/>
    <frame tileid="763" duration="150"/>
   </animation>
  </tile>
  <tile id="708">
   <animation>
    <frame tileid="708" duration="150"/>
    <frame tileid="716" duration="150"/>
    <frame tileid="724" duration="150"/>
    <frame tileid="732" duration="150"/>
    <frame tileid="740" duration="150"/>
    <frame tileid="748" duration="150"/>
    <frame tileid="756" duration="150"/>
    <frame tileid="764" duration="150"/>
   </animation>
  </tile>
  <tile id="709">
   <animation>
    <frame tileid="709" duration="150"/>
    <frame tileid="717" duration="150"/>
    <frame tileid="725" duration="150"/>
    <frame tileid="733" duration="150"/>
    <frame tileid="741" duration="150"/>
    <frame tileid="749" duration="150"/>
    <frame tileid="757" duration="150"/>
    <frame tileid="765" duration="150"/>
   </animation>
  </tile>
  <tile id="771">
   <animation>
    <frame tileid="771" duration="150"/>
    <frame tileid="779" duration="150"/>
    <frame tileid="787" duration="150"/>
    <frame tileid="795" duration="150"/>
    <frame tileid="803" duration="150"/>
    <frame tileid="811" duration="150"/>
    <frame tileid="819" duration="150"/>
    <frame tileid="827" duration="150"/>
   </animation>
  </tile>
  <tile id="772">
   <animation>
    <frame tileid="772" duration="150"/>
    <frame tileid="780" duration="150"/>
    <frame tileid="788" duration="150"/>
    <frame tileid="796" duration="150"/>
    <frame tileid="804" duration="150"/>
    <frame tileid="812" duration="150"/>
    <frame tileid="820" duration="150"/>
    <frame tileid="828" duration="150"/>
   </animation>
  </tile>
  <tile id="773">
   <animation>
    <frame tileid="773" duration="150"/>
    <frame tileid="781" duration="150"/>
    <frame tileid="789" duration="150"/>
    <frame tileid="797" duration="150"/>
    <frame tileid="805" duration="150"/>
    <frame tileid="813" duration="150"/>
    <frame tileid="821" duration="150"/>
    <frame tileid="829" duration="150"/>
   </animation>
  </tile>
  <tile id="1093">
   <animation>
    <frame tileid="1093" duration="150"/>
    <frame tileid="1101" duration="150"/>
    <frame tileid="1109" duration="150"/>
    <frame tileid="1117" duration="150"/>
    <frame tileid="1125" duration="150"/>
    <frame tileid="1133" duration="150"/>
    <frame tileid="1141" duration="150"/>
    <frame tileid="1149" duration="150"/>
   </animation>
  </tile>
  <tile id="1094">
   <animation>
    <frame tileid="1094" duration="150"/>
    <frame tileid="1102" duration="150"/>
    <frame tileid="1110" duration="150"/>
    <frame tileid="1118" duration="150"/>
    <frame tileid="1126" duration="150"/>
    <frame tileid="1134" duration="150"/>
    <frame tileid="1142" duration="150"/>
    <frame tileid="1150" duration="150"/>
   </animation>
  </tile>
  <tile id="1154">
   <animation>
    <frame tileid="1154" duration="150"/>
    <frame tileid="1162" duration="150"/>
    <frame tileid="1170" duration="150"/>
    <frame tileid="1178" duration="150"/>
    <frame tileid="1186" duration="150"/>
    <frame tileid="1194" duration="150"/>
    <frame tileid="1202" duration="150"/>
    <frame tileid="1210" duration="150"/>
   </animation>
  </tile>
  <tile id="1155">
   <animation>
    <frame tileid="1155" duration="150"/>
    <frame tileid="1163" duration="150"/>
    <frame tileid="1171" duration="150"/>
    <frame tileid="1179" duration="150"/>
    <frame tileid="1187" duration="150"/>
    <frame tileid="1195" duration="150"/>
    <frame tileid="1203" duration="150"/>
    <frame tileid="1211" duration="150"/>
   </animation>
  </tile>
  <tile id="1156">
   <animation>
    <frame tileid="1156" duration="150"/>
    <frame tileid="1164" duration="150"/>
    <frame tileid="1172" duration="150"/>
    <frame tileid="1180" duration="150"/>
    <frame tileid="1188" duration="150"/>
    <frame tileid="1196" duration="150"/>
    <frame tileid="1204" duration="150"/>
    <frame tileid="1212" duration="150"/>
   </animation>
  </tile>
  <tile id="1157">
   <animation>
    <frame tileid="1157" duration="150"/>
    <frame tileid="1165" duration="150"/>
    <frame tileid="1173" duration="150"/>
    <frame tileid="1181" duration="150"/>
    <frame tileid="1189" duration="150"/>
    <frame tileid="1197" duration="150"/>
    <frame tileid="1205" duration="150"/>
    <frame tileid="1213" duration="150"/>
   </animation>
  </tile>
  <tile id="1158">
   <animation>
    <frame tileid="1158" duration="150"/>
    <frame tileid="1166" duration="150"/>
    <frame tileid="1174" duration="150"/>
    <frame tileid="1182" duration="150"/>
    <frame tileid="1190" duration="150"/>
    <frame tileid="1198" duration="150"/>
    <frame tileid="1206" duration="150"/>
    <frame tileid="1214" duration="150"/>
   </animation>
  </tile>
  <tile id="1216">
   <animation>
    <frame tileid="1216" duration="150"/>
    <frame tileid="1224" duration="150"/>
    <frame tileid="1232" duration="150"/>
    <frame tileid="1240" duration="150"/>
    <frame tileid="1248" duration="150"/>
    <frame tileid="1256" duration="150"/>
    <frame tileid="1264" duration="150"/>
    <frame tileid="1272" duration="150"/>
   </animation>
  </tile>
  <tile id="1217">
   <animation>
    <frame tileid="1217" duration="150"/>
    <frame tileid="1225" duration="150"/>
    <frame tileid="1233" duration="150"/>
    <frame tileid="1241" duration="150"/>
    <frame tileid="1249" duration="150"/>
    <frame tileid="1257" duration="150"/>
    <frame tileid="1265" duration="150"/>
    <frame tileid="1273" duration="150"/>
   </animation>
  </tile>
  <tile id="1218">
   <animation>
    <frame tileid="1218" duration="150"/>
    <frame tileid="1226" duration="150"/>
    <frame tileid="1234" duration="150"/>
    <frame tileid="1242" duration="150"/>
    <frame tileid="1250" duration="150"/>
    <frame tileid="1258" duration="150"/>
    <frame tileid="1266" duration="150"/>
    <frame tileid="1274" duration="150"/>
   </animation>
  </tile>
  <tile id="1219">
   <animation>
    <frame tileid="1219" duration="150"/>
    <frame tileid="1227" duration="150"/>
    <frame tileid="1235" duration="150"/>
    <frame tileid="1243" duration="150"/>
    <frame tileid="1251" duration="150"/>
    <frame tileid="1259" duration="150"/>
    <frame tileid="1267" duration="150"/>
    <frame tileid="1275" duration="150"/>
   </animation>
  </tile>
  <tile id="1220">
   <animation>
    <frame tileid="1220" duration="150"/>
    <frame tileid="1228" duration="150"/>
    <frame tileid="1236" duration="150"/>
    <frame tileid="1244" duration="150"/>
    <frame tileid="1252" duration="150"/>
    <frame tileid="1260" duration="150"/>
    <frame tileid="1268" duration="150"/>
    <frame tileid="1276" duration="150"/>
   </animation>
  </tile>
  <tile id="1221">
   <animation>
    <frame tileid="1221" duration="150"/>
    <frame tileid="1229" duration="150"/>
    <frame tileid="1237" duration="150"/>
    <frame tileid="1245" duration="150"/>
    <frame tileid="1253" duration="150"/>
    <frame tileid="1261" duration="150"/>
    <frame tileid="1269" duration="150"/>
    <frame tileid="1277" duration="150"/>
   </animation>
  </tile>
  <tile id="1222">
   <animation>
    <frame tileid="1222" duration="150"/>
    <frame tileid="1230" duration="150"/>
    <frame tileid="1238" duration="150"/>
    <frame tileid="1246" duration="150"/>
    <frame tileid="1254" duration="150"/>
    <frame tileid="1262" duration="150"/>
    <frame tileid="1270" duration="150"/>
    <frame tileid="1278" duration="150"/>
   </animation>
  </tile>
  <tile id="1280">
   <animation>
    <frame tileid="1280" duration="150"/>
    <frame tileid="1288" duration="150"/>
    <frame tileid="1296" duration="150"/>
    <frame tileid="1304" duration="150"/>
    <frame tileid="1312" duration="150"/>
    <frame tileid="1320" duration="150"/>
    <frame tileid="1328" duration="150"/>
    <frame tileid="1336" duration="150"/>
   </animation>
  </tile>
  <tile id="1281">
   <animation>
    <frame tileid="1281" duration="150"/>
    <frame tileid="1289" duration="150"/>
    <frame tileid="1297" duration="150"/>
    <frame tileid="1305" duration="150"/>
    <frame tileid="1313" duration="150"/>
    <frame tileid="1321" duration="150"/>
    <frame tileid="1329" duration="150"/>
    <frame tileid="1337" duration="150"/>
   </animation>
  </tile>
  <tile id="1282">
   <animation>
    <frame tileid="1282" duration="150"/>
    <frame tileid="1290" duration="150"/>
    <frame tileid="1298" duration="150"/>
    <frame tileid="1306" duration="150"/>
    <frame tileid="1314" duration="150"/>
    <frame tileid="1322" duration="150"/>
    <frame tileid="1330" duration="150"/>
    <frame tileid="1338" duration="150"/>
   </animation>
  </tile>
  <tile id="1283">
   <animation>
    <frame tileid="1283" duration="150"/>
    <frame tileid="1291" duration="150"/>
    <frame tileid="1299" duration="150"/>
    <frame tileid="1307" duration="150"/>
    <frame tileid="1315" duration="150"/>
    <frame tileid="1323" duration="150"/>
    <frame tileid="1331" duration="150"/>
    <frame tileid="1339" duration="150"/>
   </animation>
  </tile>
  <tile id="1284">
   <animation>
    <frame tileid="1284" duration="150"/>
    <frame tileid="1292" duration="150"/>
    <frame tileid="1300" duration="150"/>
    <frame tileid="1308" duration="150"/>
    <frame tileid="1316" duration="150"/>
    <frame tileid="1324" duration="150"/>
    <frame tileid="1332" duration="150"/>
    <frame tileid="1340" duration="150"/>
   </animation>
  </tile>
  <tile id="1285">
   <animation>
    <frame tileid="1285" duration="150"/>
    <frame tileid="1293" duration="150"/>
    <frame tileid="1301" duration="150"/>
    <frame tileid="1309" duration="150"/>
    <frame tileid="1317" duration="150"/>
    <frame tileid="1325" duration="150"/>
    <frame tileid="1333" duration="150"/>
    <frame tileid="1341" duration="150"/>
   </animation>
  </tile>
  <tile id="1286">
   <animation>
    <frame tileid="1286" duration="150"/>
    <frame tileid="1294" duration="150"/>
    <frame tileid="1302" duration="150"/>
    <frame tileid="1310" duration="150"/>
    <frame tileid="1318" duration="150"/>
    <frame tileid="1326" duration="150"/>
    <frame tileid="1334" duration="150"/>
    <frame tileid="1342" duration="150"/>
   </animation>
  </tile>
  <tile id="1344">
   <animation>
    <frame tileid="1344" duration="150"/>
    <frame tileid="1352" duration="150"/>
    <frame tileid="1360" duration="150"/>
    <frame tileid="1368" duration="150"/>
    <frame tileid="1376" duration="150"/>
    <frame tileid="1384" duration="150"/>
    <frame tileid="1392" duration="150"/>
    <frame tileid="1400" duration="150"/>
   </animation>
  </tile>
  <tile id="1345">
   <animation>
    <frame tileid="1345" duration="150"/>
    <frame tileid="1353" duration="150"/>
    <frame tileid="1361" duration="150"/>
    <frame tileid="1369" duration="150"/>
    <frame tileid="1377" duration="150"/>
    <frame tileid="1385" duration="150"/>
    <frame tileid="1393" duration="150"/>
    <frame tileid="1401" duration="150"/>
   </animation>
  </tile>
  <tile id="1346">
   <animation>
    <frame tileid="1346" duration="150"/>
    <frame tileid="1354" duration="150"/>
    <frame tileid="1362" duration="150"/>
    <frame tileid="1370" duration="150"/>
    <frame tileid="1378" duration="150"/>
    <frame tileid="1386" duration="150"/>
    <frame tileid="1394" duration="150"/>
    <frame tileid="1402" duration="150"/>
   </animation>
  </tile>
  <tile id="1601">
   <animation>
    <frame tileid="1601" duration="150"/>
    <frame tileid="1609" duration="150"/>
    <frame tileid="1617" duration="150"/>
    <frame tileid="1625" duration="150"/>
    <frame tileid="1633" duration="150"/>
    <frame tileid="1641" duration="150"/>
    <frame tileid="1649" duration="150"/>
    <frame tileid="1657" duration="150"/>
   </animation>
  </tile>
  <tile id="1602">
   <animation>
    <frame tileid="1602" duration="150"/>
    <frame tileid="1610" duration="150"/>
    <frame tileid="1618" duration="150"/>
    <frame tileid="1626" duration="150"/>
    <frame tileid="1634" duration="150"/>
    <frame tileid="1642" duration="150"/>
    <frame tileid="1650" duration="150"/>
    <frame tileid="1658" duration="150"/>
   </animation>
  </tile>
  <tile id="1603">
   <animation>
    <frame tileid="1603" duration="150"/>
    <frame tileid="1611" duration="150"/>
    <frame tileid="1619" duration="150"/>
    <frame tileid="1627" duration="150"/>
    <frame tileid="1635" duration="150"/>
    <frame tileid="1643" duration="150"/>
    <frame tileid="1651" duration="150"/>
    <frame tileid="1659" duration="150"/>
   </animation>
  </tile>
  <tile id="1604">
   <animation>
    <frame tileid="1604" duration="150"/>
    <frame tileid="1612" duration="150"/>
    <frame tileid="1620" duration="150"/>
    <frame tileid="1628" duration="150"/>
    <frame tileid="1636" duration="150"/>
    <frame tileid="1644" duration="150"/>
    <frame tileid="1652" duration="150"/>
    <frame tileid="1660" duration="150"/>
   </animation>
  </tile>
  <tile id="1665">
   <animation>
    <frame tileid="1665" duration="150"/>
    <frame tileid="1673" duration="150"/>
    <frame tileid="1681" duration="150"/>
    <frame tileid="1689" duration="150"/>
    <frame tileid="1697" duration="150"/>
    <frame tileid="1705" duration="150"/>
    <frame tileid="1713" duration="150"/>
    <frame tileid="1721" duration="150"/>
   </animation>
  </tile>
  <tile id="1666">
   <animation>
    <frame tileid="1666" duration="150"/>
    <frame tileid="1674" duration="150"/>
    <frame tileid="1682" duration="150"/>
    <frame tileid="1690" duration="150"/>
    <frame tileid="1698" duration="150"/>
    <frame tileid="1706" duration="150"/>
    <frame tileid="1714" duration="150"/>
    <frame tileid="1722" duration="150"/>
   </animation>
  </tile>
  <tile id="1667">
   <animation>
    <frame tileid="1667" duration="150"/>
    <frame tileid="1675" duration="150"/>
    <frame tileid="1683" duration="150"/>
    <frame tileid="1691" duration="150"/>
    <frame tileid="1699" duration="150"/>
    <frame tileid="1707" duration="150"/>
    <frame tileid="1715" duration="150"/>
    <frame tileid="1723" duration="150"/>
   </animation>
  </tile>
  <tile id="1668">
   <animation>
    <frame tileid="1668" duration="150"/>
    <frame tileid="1676" duration="150"/>
    <frame tileid="1684" duration="150"/>
    <frame tileid="1692" duration="150"/>
    <frame tileid="1700" duration="150"/>
    <frame tileid="1708" duration="150"/>
    <frame tileid="1716" duration="150"/>
    <frame tileid="1724" duration="150"/>
   </animation>
  </tile>
  <tile id="1669">
   <animation>
    <frame tileid="1669" duration="150"/>
    <frame tileid="1677" duration="150"/>
    <frame tileid="1685" duration="150"/>
    <frame tileid="1693" duration="150"/>
    <frame tileid="1701" duration="150"/>
    <frame tileid="1709" duration="150"/>
    <frame tileid="1717" duration="150"/>
    <frame tileid="1725" duration="150"/>
   </animation>
  </tile>
  <tile id="1729">
   <animation>
    <frame tileid="1729" duration="150"/>
    <frame tileid="1737" duration="150"/>
    <frame tileid="1745" duration="150"/>
    <frame tileid="1753" duration="150"/>
    <frame tileid="1761" duration="150"/>
    <frame tileid="1769" duration="150"/>
    <frame tileid="1777" duration="150"/>
    <frame tileid="1785" duration="150"/>
   </animation>
  </tile>
  <tile id="1730">
   <animation>
    <frame tileid="1730" duration="150"/>
    <frame tileid="1738" duration="150"/>
    <frame tileid="1746" duration="150"/>
    <frame tileid="1754" duration="150"/>
    <frame tileid="1762" duration="150"/>
    <frame tileid="1770" duration="150"/>
    <frame tileid="1778" duration="150"/>
    <frame tileid="1786" duration="150"/>
   </animation>
  </tile>
  <tile id="1731">
   <animation>
    <frame tileid="1731" duration="150"/>
    <frame tileid="1739" duration="150"/>
    <frame tileid="1747" duration="150"/>
    <frame tileid="1755" duration="150"/>
    <frame tileid="1763" duration="150"/>
    <frame tileid="1771" duration="150"/>
    <frame tileid="1779" duration="150"/>
    <frame tileid="1787" duration="150"/>
   </animation>
  </tile>
  <tile id="1732">
   <animation>
    <frame tileid="1732" duration="150"/>
    <frame tileid="1740" duration="150"/>
    <frame tileid="1748" duration="150"/>
    <frame tileid="1756" duration="150"/>
    <frame tileid="1764" duration="150"/>
    <frame tileid="1772" duration="150"/>
    <frame tileid="1780" duration="150"/>
    <frame tileid="1788" duration="150"/>
   </animation>
  </tile>
  <tile id="1733">
   <animation>
    <frame tileid="1733" duration="150"/>
    <frame tileid="1741" duration="150"/>
    <frame tileid="1749" duration="150"/>
    <frame tileid="1757" duration="150"/>
    <frame tileid="1765" duration="150"/>
    <frame tileid="1773" duration="150"/>
    <frame tileid="1781" duration="150"/>
    <frame tileid="1789" duration="150"/>
   </animation>
  </tile>
  <tile id="1734">
   <animation>
    <frame tileid="1734" duration="150"/>
    <frame tileid="1742" duration="150"/>
    <frame tileid="1750" duration="150"/>
    <frame tileid="1758" duration="150"/>
    <frame tileid="1766" duration="150"/>
    <frame tileid="1774" duration="150"/>
    <frame tileid="1782" duration="150"/>
    <frame tileid="1790" duration="150"/>
   </animation>
  </tile>
  <tile id="1735">
   <animation>
    <frame tileid="1735" duration="150"/>
    <frame tileid="1743" duration="150"/>
    <frame tileid="1751" duration="150"/>
    <frame tileid="1759" duration="150"/>
    <frame tileid="1767" duration="150"/>
    <frame tileid="1775" duration="150"/>
    <frame tileid="1783" duration="150"/>
    <frame tileid="1791" duration="150"/>
   </animation>
  </tile>
  <tile id="1793">
   <animation>
    <frame tileid="1793" duration="150"/>
    <frame tileid="1801" duration="150"/>
    <frame tileid="1809" duration="150"/>
    <frame tileid="1817" duration="150"/>
    <frame tileid="1825" duration="150"/>
    <frame tileid="1833" duration="150"/>
    <frame tileid="1841" duration="150"/>
    <frame tileid="1849" duration="150"/>
   </animation>
  </tile>
  <tile id="1794">
   <animation>
    <frame tileid="1794" duration="150"/>
    <frame tileid="1802" duration="150"/>
    <frame tileid="1810" duration="150"/>
    <frame tileid="1818" duration="150"/>
    <frame tileid="1826" duration="150"/>
    <frame tileid="1834" duration="150"/>
    <frame tileid="1842" duration="150"/>
    <frame tileid="1850" duration="150"/>
   </animation>
  </tile>
  <tile id="1795">
   <animation>
    <frame tileid="1795" duration="150"/>
    <frame tileid="1803" duration="150"/>
    <frame tileid="1811" duration="150"/>
    <frame tileid="1819" duration="150"/>
    <frame tileid="1827" duration="150"/>
    <frame tileid="1835" duration="150"/>
    <frame tileid="1843" duration="150"/>
    <frame tileid="1851" duration="150"/>
   </animation>
  </tile>
  <tile id="1796">
   <animation>
    <frame tileid="1796" duration="150"/>
    <frame tileid="1804" duration="150"/>
    <frame tileid="1812" duration="150"/>
    <frame tileid="1820" duration="150"/>
    <frame tileid="1828" duration="150"/>
    <frame tileid="1836" duration="150"/>
    <frame tileid="1844" duration="150"/>
    <frame tileid="1852" duration="150"/>
   </animation>
  </tile>
  <tile id="1797">
   <animation>
    <frame tileid="1797" duration="150"/>
    <frame tileid="1805" duration="150"/>
    <frame tileid="1813" duration="150"/>
    <frame tileid="1821" duration="150"/>
    <frame tileid="1829" duration="150"/>
    <frame tileid="1837" duration="150"/>
    <frame tileid="1845" duration="150"/>
    <frame tileid="1853" duration="150"/>
   </animation>
  </tile>
  <tile id="1798">
   <animation>
    <frame tileid="1798" duration="150"/>
    <frame tileid="1806" duration="150"/>
    <frame tileid="1814" duration="150"/>
    <frame tileid="1822" duration="150"/>
    <frame tileid="1830" duration="150"/>
    <frame tileid="1838" duration="150"/>
    <frame tileid="1846" duration="150"/>
    <frame tileid="1854" duration="150"/>
   </animation>
  </tile>
  <tile id="1799">
   <animation>
    <frame tileid="1799" duration="150"/>
    <frame tileid="1807" duration="150"/>
    <frame tileid="1815" duration="150"/>
    <frame tileid="1823" duration="150"/>
    <frame tileid="1831" duration="150"/>
    <frame tileid="1839" duration="150"/>
    <frame tileid="1847" duration="150"/>
    <frame tileid="1855" duration="150"/>
   </animation>
  </tile>
  <tile id="1861">
   <animation>
    <frame tileid="1861" duration="150"/>
    <frame tileid="1869" duration="150"/>
    <frame tileid="1877" duration="150"/>
    <frame tileid="1885" duration="150"/>
    <frame tileid="1893" duration="150"/>
    <frame tileid="1901" duration="150"/>
    <frame tileid="1909" duration="150"/>
    <frame tileid="1917" duration="150"/>
   </animation>
  </tile>
  <tile id="1862">
   <animation>
    <frame tileid="1862" duration="150"/>
    <frame tileid="1870" duration="150"/>
    <frame tileid="1878" duration="150"/>
    <frame tileid="1886" duration="150"/>
    <frame tileid="1894" duration="150"/>
    <frame tileid="1902" duration="150"/>
    <frame tileid="1910" duration="150"/>
    <frame tileid="1918" duration="150"/>
   </animation>
  </tile>
  <tile id="1863">
   <animation>
    <frame tileid="1863" duration="150"/>
    <frame tileid="1871" duration="150"/>
    <frame tileid="1879" duration="150"/>
    <frame tileid="1887" duration="150"/>
    <frame tileid="1895" duration="150"/>
    <frame tileid="1903" duration="150"/>
    <frame tileid="1911" duration="150"/>
    <frame tileid="1919" duration="150"/>
   </animation>
  </tile>
 </tileset>
 <tileset firstgid="37253" name="Rat2_Walk_full" tilewidth="16" tileheight="16" tilecount="1536" columns="48">
  <image source="Rat2_Walk_without_shadow.png" width="768" height="512"/>
  <tile id="99">
   <animation>
    <frame tileid="99" duration="150"/>
    <frame tileid="107" duration="150"/>
    <frame tileid="115" duration="150"/>
    <frame tileid="123" duration="150"/>
    <frame tileid="131" duration="150"/>
    <frame tileid="139" duration="150"/>
   </animation>
  </tile>
  <tile id="100">
   <animation>
    <frame tileid="100" duration="150"/>
    <frame tileid="108" duration="150"/>
    <frame tileid="116" duration="150"/>
    <frame tileid="124" duration="150"/>
    <frame tileid="132" duration="150"/>
    <frame tileid="140" duration="150"/>
   </animation>
  </tile>
  <tile id="146">
   <animation>
    <frame tileid="146" duration="150"/>
    <frame tileid="154" duration="150"/>
    <frame tileid="162" duration="150"/>
    <frame tileid="170" duration="150"/>
    <frame tileid="178" duration="150"/>
    <frame tileid="186" duration="150"/>
   </animation>
  </tile>
  <tile id="147">
   <animation>
    <frame tileid="147" duration="150"/>
    <frame tileid="155" duration="150"/>
    <frame tileid="163" duration="150"/>
    <frame tileid="171" duration="150"/>
    <frame tileid="179" duration="150"/>
    <frame tileid="187" duration="150"/>
   </animation>
  </tile>
  <tile id="148">
   <animation>
    <frame tileid="148" duration="150"/>
    <frame tileid="156" duration="150"/>
    <frame tileid="164" duration="150"/>
    <frame tileid="172" duration="150"/>
    <frame tileid="180" duration="150"/>
    <frame tileid="188" duration="150"/>
   </animation>
  </tile>
  <tile id="149">
   <animation>
    <frame tileid="149" duration="150"/>
    <frame tileid="157" duration="150"/>
    <frame tileid="165" duration="150"/>
    <frame tileid="173" duration="150"/>
    <frame tileid="181" duration="150"/>
    <frame tileid="189" duration="150"/>
   </animation>
  </tile>
  <tile id="195">
   <animation>
    <frame tileid="195" duration="150"/>
    <frame tileid="203" duration="150"/>
    <frame tileid="211" duration="150"/>
    <frame tileid="219" duration="150"/>
    <frame tileid="227" duration="150"/>
    <frame tileid="235" duration="150"/>
   </animation>
  </tile>
  <tile id="196">
   <animation>
    <frame tileid="196" duration="150"/>
    <frame tileid="204" duration="150"/>
    <frame tileid="212" duration="150"/>
    <frame tileid="220" duration="150"/>
    <frame tileid="228" duration="150"/>
    <frame tileid="236" duration="150"/>
   </animation>
  </tile>
  <tile id="483">
   <animation>
    <frame tileid="483" duration="150"/>
    <frame tileid="491" duration="150"/>
    <frame tileid="499" duration="150"/>
    <frame tileid="507" duration="150"/>
    <frame tileid="515" duration="150"/>
    <frame tileid="523" duration="150"/>
   </animation>
  </tile>
  <tile id="484">
   <animation>
    <frame tileid="484" duration="150"/>
    <frame tileid="492" duration="150"/>
    <frame tileid="500" duration="150"/>
    <frame tileid="508" duration="150"/>
    <frame tileid="516" duration="150"/>
    <frame tileid="524" duration="150"/>
   </animation>
  </tile>
  <tile id="530">
   <animation>
    <frame tileid="530" duration="150"/>
    <frame tileid="538" duration="150"/>
    <frame tileid="546" duration="150"/>
    <frame tileid="554" duration="150"/>
    <frame tileid="562" duration="150"/>
    <frame tileid="570" duration="150"/>
   </animation>
  </tile>
  <tile id="531">
   <animation>
    <frame tileid="531" duration="150"/>
    <frame tileid="539" duration="150"/>
    <frame tileid="547" duration="150"/>
    <frame tileid="555" duration="150"/>
    <frame tileid="563" duration="150"/>
    <frame tileid="571" duration="150"/>
   </animation>
  </tile>
  <tile id="532">
   <animation>
    <frame tileid="532" duration="150"/>
    <frame tileid="540" duration="150"/>
    <frame tileid="548" duration="150"/>
    <frame tileid="556" duration="150"/>
    <frame tileid="564" duration="150"/>
    <frame tileid="572" duration="150"/>
   </animation>
  </tile>
  <tile id="533">
   <animation>
    <frame tileid="533" duration="150"/>
    <frame tileid="541" duration="150"/>
    <frame tileid="549" duration="150"/>
    <frame tileid="557" duration="150"/>
    <frame tileid="565" duration="150"/>
    <frame tileid="573" duration="150"/>
   </animation>
  </tile>
  <tile id="578">
   <animation>
    <frame tileid="578" duration="150"/>
    <frame tileid="586" duration="150"/>
    <frame tileid="594" duration="150"/>
    <frame tileid="602" duration="150"/>
    <frame tileid="610" duration="150"/>
    <frame tileid="618" duration="150"/>
   </animation>
  </tile>
  <tile id="579">
   <animation>
    <frame tileid="579" duration="150"/>
    <frame tileid="587" duration="150"/>
    <frame tileid="595" duration="150"/>
    <frame tileid="603" duration="150"/>
    <frame tileid="611" duration="150"/>
    <frame tileid="619" duration="150"/>
   </animation>
  </tile>
  <tile id="580">
   <animation>
    <frame tileid="580" duration="150"/>
    <frame tileid="588" duration="150"/>
    <frame tileid="596" duration="150"/>
    <frame tileid="604" duration="150"/>
    <frame tileid="612" duration="150"/>
    <frame tileid="620" duration="150"/>
   </animation>
  </tile>
  <tile id="581">
   <animation>
    <frame tileid="581" duration="150"/>
    <frame tileid="589" duration="150"/>
    <frame tileid="597" duration="150"/>
    <frame tileid="605" duration="150"/>
    <frame tileid="613" duration="150"/>
    <frame tileid="621" duration="150"/>
   </animation>
  </tile>
  <tile id="627">
   <animation>
    <frame tileid="627" duration="150"/>
    <frame tileid="635" duration="150"/>
    <frame tileid="643" duration="150"/>
    <frame tileid="651" duration="150"/>
    <frame tileid="659" duration="150"/>
    <frame tileid="667" duration="150"/>
   </animation>
  </tile>
  <tile id="628">
   <animation>
    <frame tileid="628" duration="150"/>
    <frame tileid="636" duration="150"/>
    <frame tileid="644" duration="150"/>
    <frame tileid="652" duration="150"/>
    <frame tileid="660" duration="150"/>
    <frame tileid="668" duration="150"/>
   </animation>
  </tile>
  <tile id="867">
   <animation>
    <frame tileid="867" duration="150"/>
    <frame tileid="875" duration="150"/>
    <frame tileid="883" duration="150"/>
    <frame tileid="891" duration="150"/>
    <frame tileid="899" duration="150"/>
    <frame tileid="907" duration="150"/>
   </animation>
  </tile>
  <tile id="868">
   <animation>
    <frame tileid="868" duration="150"/>
    <frame tileid="876" duration="150"/>
    <frame tileid="884" duration="150"/>
    <frame tileid="892" duration="150"/>
    <frame tileid="900" duration="150"/>
    <frame tileid="908" duration="150"/>
   </animation>
  </tile>
  <tile id="914">
   <animation>
    <frame tileid="914" duration="150"/>
    <frame tileid="922" duration="150"/>
    <frame tileid="930" duration="150"/>
    <frame tileid="938" duration="150"/>
    <frame tileid="946" duration="150"/>
    <frame tileid="954" duration="150"/>
   </animation>
  </tile>
  <tile id="915">
   <animation>
    <frame tileid="915" duration="150"/>
    <frame tileid="923" duration="150"/>
    <frame tileid="931" duration="150"/>
    <frame tileid="939" duration="150"/>
    <frame tileid="947" duration="150"/>
    <frame tileid="955" duration="150"/>
   </animation>
  </tile>
  <tile id="916">
   <animation>
    <frame tileid="916" duration="150"/>
    <frame tileid="924" duration="150"/>
    <frame tileid="932" duration="150"/>
    <frame tileid="940" duration="150"/>
    <frame tileid="948" duration="150"/>
    <frame tileid="956" duration="150"/>
   </animation>
  </tile>
  <tile id="917">
   <animation>
    <frame tileid="917" duration="150"/>
    <frame tileid="925" duration="150"/>
    <frame tileid="933" duration="150"/>
    <frame tileid="941" duration="150"/>
    <frame tileid="949" duration="150"/>
    <frame tileid="957" duration="150"/>
   </animation>
  </tile>
  <tile id="962">
   <animation>
    <frame tileid="962" duration="150"/>
    <frame tileid="970" duration="150"/>
    <frame tileid="978" duration="150"/>
    <frame tileid="986" duration="150"/>
    <frame tileid="994" duration="150"/>
    <frame tileid="1002" duration="150"/>
   </animation>
  </tile>
  <tile id="963">
   <animation>
    <frame tileid="963" duration="150"/>
    <frame tileid="971" duration="150"/>
    <frame tileid="979" duration="150"/>
    <frame tileid="987" duration="150"/>
    <frame tileid="995" duration="150"/>
    <frame tileid="1003" duration="150"/>
   </animation>
  </tile>
  <tile id="964">
   <animation>
    <frame tileid="964" duration="150"/>
    <frame tileid="972" duration="150"/>
    <frame tileid="980" duration="150"/>
    <frame tileid="988" duration="150"/>
    <frame tileid="996" duration="150"/>
    <frame tileid="1004" duration="150"/>
   </animation>
  </tile>
  <tile id="965">
   <animation>
    <frame tileid="965" duration="150"/>
    <frame tileid="973" duration="150"/>
    <frame tileid="981" duration="150"/>
    <frame tileid="989" duration="150"/>
    <frame tileid="997" duration="150"/>
    <frame tileid="1005" duration="150"/>
   </animation>
  </tile>
  <tile id="966">
   <animation>
    <frame tileid="966" duration="150"/>
    <frame tileid="974" duration="150"/>
    <frame tileid="982" duration="150"/>
    <frame tileid="990" duration="150"/>
    <frame tileid="998" duration="150"/>
    <frame tileid="1006" duration="150"/>
   </animation>
  </tile>
  <tile id="1251">
   <animation>
    <frame tileid="1251" duration="150"/>
    <frame tileid="1259" duration="150"/>
    <frame tileid="1267" duration="150"/>
    <frame tileid="1275" duration="150"/>
    <frame tileid="1283" duration="150"/>
    <frame tileid="1291" duration="150"/>
   </animation>
  </tile>
  <tile id="1252">
   <animation>
    <frame tileid="1252" duration="150"/>
    <frame tileid="1260" duration="150"/>
    <frame tileid="1268" duration="150"/>
    <frame tileid="1276" duration="150"/>
    <frame tileid="1284" duration="150"/>
    <frame tileid="1292" duration="150"/>
   </animation>
  </tile>
  <tile id="1298">
   <animation>
    <frame tileid="1298" duration="150"/>
    <frame tileid="1306" duration="150"/>
    <frame tileid="1314" duration="150"/>
    <frame tileid="1322" duration="150"/>
    <frame tileid="1330" duration="150"/>
    <frame tileid="1338" duration="150"/>
   </animation>
  </tile>
  <tile id="1299">
   <animation>
    <frame tileid="1299" duration="150"/>
    <frame tileid="1307" duration="150"/>
    <frame tileid="1315" duration="150"/>
    <frame tileid="1323" duration="150"/>
    <frame tileid="1331" duration="150"/>
    <frame tileid="1339" duration="150"/>
   </animation>
  </tile>
  <tile id="1300">
   <animation>
    <frame tileid="1300" duration="150"/>
    <frame tileid="1308" duration="150"/>
    <frame tileid="1316" duration="150"/>
    <frame tileid="1324" duration="150"/>
    <frame tileid="1332" duration="150"/>
    <frame tileid="1340" duration="150"/>
   </animation>
  </tile>
  <tile id="1301">
   <animation>
    <frame tileid="1301" duration="150"/>
    <frame tileid="1309" duration="150"/>
    <frame tileid="1317" duration="150"/>
    <frame tileid="1325" duration="150"/>
    <frame tileid="1333" duration="150"/>
    <frame tileid="1341" duration="150"/>
   </animation>
  </tile>
  <tile id="1345">
   <animation>
    <frame tileid="1345" duration="150"/>
    <frame tileid="1353" duration="150"/>
    <frame tileid="1361" duration="150"/>
    <frame tileid="1369" duration="150"/>
    <frame tileid="1377" duration="150"/>
    <frame tileid="1385" duration="150"/>
   </animation>
  </tile>
  <tile id="1346">
   <animation>
    <frame tileid="1346" duration="150"/>
    <frame tileid="1354" duration="150"/>
    <frame tileid="1362" duration="150"/>
    <frame tileid="1370" duration="150"/>
    <frame tileid="1378" duration="150"/>
    <frame tileid="1386" duration="150"/>
   </animation>
  </tile>
  <tile id="1347">
   <animation>
    <frame tileid="1347" duration="150"/>
    <frame tileid="1355" duration="150"/>
    <frame tileid="1363" duration="150"/>
    <frame tileid="1371" duration="150"/>
    <frame tileid="1379" duration="150"/>
    <frame tileid="1387" duration="150"/>
   </animation>
  </tile>
  <tile id="1348">
   <animation>
    <frame tileid="1348" duration="150"/>
    <frame tileid="1356" duration="150"/>
    <frame tileid="1364" duration="150"/>
    <frame tileid="1372" duration="150"/>
    <frame tileid="1380" duration="150"/>
    <frame tileid="1388" duration="150"/>
   </animation>
  </tile>
  <tile id="1349">
   <animation>
    <frame tileid="1349" duration="150"/>
    <frame tileid="1357" duration="150"/>
    <frame tileid="1365" duration="150"/>
    <frame tileid="1373" duration="150"/>
    <frame tileid="1381" duration="150"/>
    <frame tileid="1389" duration="150"/>
   </animation>
  </tile>
 </tileset>
 <tileset firstgid="38789" name="Rat2_Idle_full" tilewidth="16" tileheight="16" tilecount="1536" columns="48">
  <image source="Rat2_Idle_without_shadow.png" width="768" height="512"/>
  <tile id="99">
   <animation>
    <frame tileid="99" duration="150"/>
    <frame tileid="107" duration="150"/>
    <frame tileid="115" duration="150"/>
    <frame tileid="123" duration="150"/>
    <frame tileid="131" duration="150"/>
    <frame tileid="139" duration="150"/>
   </animation>
  </tile>
  <tile id="100">
   <animation>
    <frame tileid="100" duration="150"/>
    <frame tileid="108" duration="150"/>
    <frame tileid="116" duration="150"/>
    <frame tileid="124" duration="150"/>
    <frame tileid="132" duration="150"/>
    <frame tileid="140" duration="150"/>
   </animation>
  </tile>
  <tile id="146">
   <animation>
    <frame tileid="146" duration="150"/>
    <frame tileid="154" duration="150"/>
    <frame tileid="162" duration="150"/>
    <frame tileid="170" duration="150"/>
    <frame tileid="178" duration="150"/>
    <frame tileid="186" duration="150"/>
   </animation>
  </tile>
  <tile id="147">
   <animation>
    <frame tileid="147" duration="150"/>
    <frame tileid="155" duration="150"/>
    <frame tileid="163" duration="150"/>
    <frame tileid="171" duration="150"/>
    <frame tileid="179" duration="150"/>
    <frame tileid="187" duration="150"/>
   </animation>
  </tile>
  <tile id="148">
   <animation>
    <frame tileid="148" duration="150"/>
    <frame tileid="156" duration="150"/>
    <frame tileid="164" duration="150"/>
    <frame tileid="172" duration="150"/>
    <frame tileid="180" duration="150"/>
    <frame tileid="188" duration="150"/>
   </animation>
  </tile>
  <tile id="149">
   <animation>
    <frame tileid="149" duration="150"/>
    <frame tileid="157" duration="150"/>
    <frame tileid="165" duration="150"/>
    <frame tileid="173" duration="150"/>
    <frame tileid="181" duration="150"/>
    <frame tileid="189" duration="150"/>
   </animation>
  </tile>
  <tile id="195">
   <animation>
    <frame tileid="195" duration="150"/>
    <frame tileid="203" duration="150"/>
    <frame tileid="211" duration="150"/>
    <frame tileid="219" duration="150"/>
    <frame tileid="227" duration="150"/>
    <frame tileid="235" duration="150"/>
   </animation>
  </tile>
  <tile id="196">
   <animation>
    <frame tileid="196" duration="150"/>
    <frame tileid="204" duration="150"/>
    <frame tileid="212" duration="150"/>
    <frame tileid="220" duration="150"/>
    <frame tileid="228" duration="150"/>
    <frame tileid="236" duration="150"/>
   </animation>
  </tile>
  <tile id="483">
   <animation>
    <frame tileid="483" duration="150"/>
    <frame tileid="491" duration="150"/>
    <frame tileid="499" duration="150"/>
    <frame tileid="507" duration="150"/>
    <frame tileid="515" duration="150"/>
    <frame tileid="523" duration="150"/>
   </animation>
  </tile>
  <tile id="484">
   <animation>
    <frame tileid="484" duration="150"/>
    <frame tileid="492" duration="150"/>
    <frame tileid="500" duration="150"/>
    <frame tileid="508" duration="150"/>
    <frame tileid="516" duration="150"/>
    <frame tileid="524" duration="150"/>
   </animation>
  </tile>
  <tile id="530">
   <animation>
    <frame tileid="530" duration="150"/>
    <frame tileid="538" duration="150"/>
    <frame tileid="546" duration="150"/>
    <frame tileid="554" duration="150"/>
    <frame tileid="562" duration="150"/>
    <frame tileid="570" duration="150"/>
   </animation>
  </tile>
  <tile id="531">
   <animation>
    <frame tileid="531" duration="150"/>
    <frame tileid="539" duration="150"/>
    <frame tileid="547" duration="150"/>
    <frame tileid="555" duration="150"/>
    <frame tileid="563" duration="150"/>
    <frame tileid="571" duration="150"/>
   </animation>
  </tile>
  <tile id="532">
   <animation>
    <frame tileid="532" duration="150"/>
    <frame tileid="540" duration="150"/>
    <frame tileid="548" duration="150"/>
    <frame tileid="556" duration="150"/>
    <frame tileid="564" duration="150"/>
    <frame tileid="572" duration="150"/>
   </animation>
  </tile>
  <tile id="533">
   <animation>
    <frame tileid="533" duration="150"/>
    <frame tileid="541" duration="150"/>
    <frame tileid="549" duration="150"/>
    <frame tileid="557" duration="150"/>
    <frame tileid="565" duration="150"/>
    <frame tileid="573" duration="150"/>
   </animation>
  </tile>
  <tile id="579">
   <animation>
    <frame tileid="579" duration="150"/>
    <frame tileid="587" duration="150"/>
    <frame tileid="595" duration="150"/>
    <frame tileid="603" duration="150"/>
    <frame tileid="611" duration="150"/>
    <frame tileid="619" duration="150"/>
   </animation>
  </tile>
  <tile id="580">
   <animation>
    <frame tileid="580" duration="150"/>
    <frame tileid="588" duration="150"/>
    <frame tileid="596" duration="150"/>
    <frame tileid="604" duration="150"/>
    <frame tileid="612" duration="150"/>
    <frame tileid="620" duration="150"/>
   </animation>
  </tile>
  <tile id="866">
   <animation>
    <frame tileid="866" duration="150"/>
    <frame tileid="874" duration="150"/>
    <frame tileid="882" duration="150"/>
    <frame tileid="890" duration="150"/>
    <frame tileid="898" duration="150"/>
    <frame tileid="906" duration="150"/>
   </animation>
  </tile>
  <tile id="867">
   <animation>
    <frame tileid="867" duration="150"/>
    <frame tileid="875" duration="150"/>
    <frame tileid="883" duration="150"/>
    <frame tileid="891" duration="150"/>
    <frame tileid="899" duration="150"/>
    <frame tileid="907" duration="150"/>
   </animation>
  </tile>
  <tile id="868">
   <animation>
    <frame tileid="868" duration="150"/>
    <frame tileid="876" duration="150"/>
    <frame tileid="884" duration="150"/>
    <frame tileid="892" duration="150"/>
    <frame tileid="900" duration="150"/>
    <frame tileid="908" duration="150"/>
   </animation>
  </tile>
  <tile id="869">
   <animation>
    <frame tileid="869" duration="150"/>
    <frame tileid="877" duration="150"/>
    <frame tileid="885" duration="150"/>
    <frame tileid="893" duration="150"/>
    <frame tileid="901" duration="150"/>
    <frame tileid="909" duration="150"/>
   </animation>
  </tile>
  <tile id="914">
   <animation>
    <frame tileid="914" duration="150"/>
    <frame tileid="922" duration="150"/>
    <frame tileid="930" duration="150"/>
    <frame tileid="938" duration="150"/>
    <frame tileid="946" duration="150"/>
    <frame tileid="954" duration="150"/>
   </animation>
  </tile>
  <tile id="915">
   <animation>
    <frame tileid="915" duration="150"/>
    <frame tileid="923" duration="150"/>
    <frame tileid="931" duration="150"/>
    <frame tileid="939" duration="150"/>
    <frame tileid="947" duration="150"/>
    <frame tileid="955" duration="150"/>
   </animation>
  </tile>
  <tile id="916">
   <animation>
    <frame tileid="916" duration="150"/>
    <frame tileid="924" duration="150"/>
    <frame tileid="932" duration="150"/>
    <frame tileid="940" duration="150"/>
    <frame tileid="948" duration="150"/>
    <frame tileid="956" duration="150"/>
   </animation>
  </tile>
  <tile id="917">
   <animation>
    <frame tileid="917" duration="150"/>
    <frame tileid="925" duration="150"/>
    <frame tileid="933" duration="150"/>
    <frame tileid="941" duration="150"/>
    <frame tileid="949" duration="150"/>
    <frame tileid="957" duration="150"/>
   </animation>
  </tile>
  <tile id="962">
   <animation>
    <frame tileid="962" duration="150"/>
    <frame tileid="970" duration="150"/>
    <frame tileid="978" duration="150"/>
    <frame tileid="986" duration="150"/>
    <frame tileid="994" duration="150"/>
    <frame tileid="1002" duration="150"/>
   </animation>
  </tile>
  <tile id="963">
   <animation>
    <frame tileid="963" duration="150"/>
    <frame tileid="971" duration="150"/>
    <frame tileid="979" duration="150"/>
    <frame tileid="987" duration="150"/>
    <frame tileid="995" duration="150"/>
    <frame tileid="1003" duration="150"/>
   </animation>
  </tile>
  <tile id="964">
   <animation>
    <frame tileid="964" duration="150"/>
    <frame tileid="972" duration="150"/>
    <frame tileid="980" duration="150"/>
    <frame tileid="988" duration="150"/>
    <frame tileid="996" duration="150"/>
    <frame tileid="1004" duration="150"/>
   </animation>
  </tile>
  <tile id="965">
   <animation>
    <frame tileid="965" duration="150"/>
    <frame tileid="973" duration="150"/>
    <frame tileid="981" duration="150"/>
    <frame tileid="989" duration="150"/>
    <frame tileid="997" duration="150"/>
    <frame tileid="1005" duration="150"/>
   </animation>
  </tile>
  <tile id="966">
   <animation>
    <frame tileid="966" duration="150"/>
    <frame tileid="974" duration="150"/>
    <frame tileid="982" duration="150"/>
    <frame tileid="990" duration="150"/>
    <frame tileid="998" duration="150"/>
    <frame tileid="1006" duration="150"/>
   </animation>
  </tile>
  <tile id="1250">
   <animation>
    <frame tileid="1250" duration="150"/>
    <frame tileid="1258" duration="150"/>
    <frame tileid="1266" duration="150"/>
    <frame tileid="1274" duration="150"/>
    <frame tileid="1282" duration="150"/>
    <frame tileid="1290" duration="150"/>
   </animation>
  </tile>
  <tile id="1251">
   <animation>
    <frame tileid="1251" duration="150"/>
    <frame tileid="1259" duration="150"/>
    <frame tileid="1267" duration="150"/>
    <frame tileid="1275" duration="150"/>
    <frame tileid="1283" duration="150"/>
    <frame tileid="1291" duration="150"/>
   </animation>
  </tile>
  <tile id="1252">
   <animation>
    <frame tileid="1252" duration="150"/>
    <frame tileid="1260" duration="150"/>
    <frame tileid="1268" duration="150"/>
    <frame tileid="1276" duration="150"/>
    <frame tileid="1284" duration="150"/>
    <frame tileid="1292" duration="150"/>
   </animation>
  </tile>
  <tile id="1253">
   <animation>
    <frame tileid="1253" duration="150"/>
    <frame tileid="1261" duration="150"/>
    <frame tileid="1269" duration="150"/>
    <frame tileid="1277" duration="150"/>
    <frame tileid="1285" duration="150"/>
    <frame tileid="1293" duration="150"/>
   </animation>
  </tile>
  <tile id="1298">
   <animation>
    <frame tileid="1298" duration="150"/>
    <frame tileid="1306" duration="150"/>
    <frame tileid="1314" duration="150"/>
    <frame tileid="1322" duration="150"/>
    <frame tileid="1330" duration="150"/>
    <frame tileid="1338" duration="150"/>
   </animation>
  </tile>
  <tile id="1299">
   <animation>
    <frame tileid="1299" duration="150"/>
    <frame tileid="1307" duration="150"/>
    <frame tileid="1315" duration="150"/>
    <frame tileid="1323" duration="150"/>
    <frame tileid="1331" duration="150"/>
    <frame tileid="1339" duration="150"/>
   </animation>
  </tile>
  <tile id="1300">
   <animation>
    <frame tileid="1300" duration="150"/>
    <frame tileid="1308" duration="150"/>
    <frame tileid="1316" duration="150"/>
    <frame tileid="1324" duration="150"/>
    <frame tileid="1332" duration="150"/>
    <frame tileid="1340" duration="150"/>
   </animation>
  </tile>
  <tile id="1301">
   <animation>
    <frame tileid="1301" duration="150"/>
    <frame tileid="1309" duration="150"/>
    <frame tileid="1317" duration="150"/>
    <frame tileid="1325" duration="150"/>
    <frame tileid="1333" duration="150"/>
    <frame tileid="1341" duration="150"/>
   </animation>
  </tile>
  <tile id="1345">
   <animation>
    <frame tileid="1345" duration="150"/>
    <frame tileid="1353" duration="150"/>
    <frame tileid="1361" duration="150"/>
    <frame tileid="1369" duration="150"/>
    <frame tileid="1377" duration="150"/>
    <frame tileid="1385" duration="150"/>
   </animation>
  </tile>
  <tile id="1346">
   <animation>
    <frame tileid="1346" duration="150"/>
    <frame tileid="1354" duration="150"/>
    <frame tileid="1362" duration="150"/>
    <frame tileid="1370" duration="150"/>
    <frame tileid="1378" duration="150"/>
    <frame tileid="1386" duration="150"/>
   </animation>
  </tile>
  <tile id="1347">
   <animation>
    <frame tileid="1347" duration="150"/>
    <frame tileid="1355" duration="150"/>
    <frame tileid="1363" duration="150"/>
    <frame tileid="1371" duration="150"/>
    <frame tileid="1379" duration="150"/>
    <frame tileid="1387" duration="150"/>
   </animation>
  </tile>
  <tile id="1348">
   <animation>
    <frame tileid="1348" duration="150"/>
    <frame tileid="1356" duration="150"/>
    <frame tileid="1364" duration="150"/>
    <frame tileid="1372" duration="150"/>
    <frame tileid="1380" duration="150"/>
    <frame tileid="1388" duration="150"/>
   </animation>
  </tile>
  <tile id="1349">
   <animation>
    <frame tileid="1349" duration="150"/>
    <frame tileid="1357" duration="150"/>
    <frame tileid="1365" duration="150"/>
    <frame tileid="1373" duration="150"/>
    <frame tileid="1381" duration="150"/>
    <frame tileid="1389" duration="150"/>
   </animation>
  </tile>
 </tileset>
 <layer id="1" name="Full" width="32" height="48">
  <data encoding="csv">
1,2,3,4,5,6,7,8,513,514,515,516,517,518,519,520,1025,1026,1027,1028,1029,1030,1031,1032,1537,1538,1539,1540,1541,1542,1543,1544,
65,66,67,68,69,70,71,72,577,578,579,580,581,582,583,584,1089,1090,1091,1092,1093,1094,1095,1096,1601,1602,1603,1604,1605,1606,1607,1608,
129,130,131,132,133,134,135,136,641,642,643,644,645,646,647,648,1153,1154,1155,1156,1157,1158,1159,1160,1665,1666,1667,1668,1669,1670,1671,1672,
193,194,195,196,197,198,199,200,705,706,707,708,709,710,711,712,1217,1218,1219,1220,1221,1222,1223,1224,1729,1730,1731,1732,1733,1734,1735,1736,
257,258,259,260,261,262,263,264,769,770,771,772,773,774,775,776,1281,1282,1283,1284,1285,1286,1287,1288,1793,1794,1795,1796,1797,1798,1799,1800,
321,322,323,324,325,326,327,328,833,834,835,836,837,838,839,840,1345,1346,1347,1348,1349,1350,1351,1352,1857,1858,1859,1860,1861,1862,1863,1864,
385,386,387,388,389,390,391,392,897,898,899,900,901,902,903,904,1409,1410,1411,1412,1413,1414,1415,1416,1921,1922,1923,1924,1925,1926,1927,1928,
449,450,451,452,453,454,455,456,961,962,963,964,965,966,967,968,1473,1474,1475,1476,1477,1478,1479,1480,1985,1986,1987,1988,1989,1990,1991,1992,
2049,2050,2051,2052,2053,2054,2055,2056,2369,2370,2371,2372,2373,2374,2375,2376,2689,2690,2691,2692,2693,2694,2695,2696,3009,3010,3011,3012,3013,3014,3015,3016,
2089,2090,2091,2092,2093,2094,2095,2096,2409,2410,2411,2412,2413,2414,2415,2416,2729,2730,2731,2732,2733,2734,2735,2736,3049,3050,3051,3052,3053,3054,3055,3056,
2129,2130,2131,2132,2133,2134,2135,2136,2449,2450,2451,2452,2453,2454,2455,2456,2769,2770,2771,2772,2773,2774,2775,2776,3089,3090,3091,3092,3093,3094,3095,3096,
2169,2170,2171,2172,2173,2174,2175,2176,2489,2490,2491,2492,2493,2494,2495,2496,2809,2810,2811,2812,2813,2814,2815,2816,3129,3130,3131,3132,3133,3134,3135,3136,
2209,2210,2211,2212,2213,2214,2215,2216,2529,2530,2531,2532,2533,2534,2535,2536,2849,2850,2851,2852,2853,2854,2855,2856,3169,3170,3171,3172,3173,3174,3175,3176,
2249,2250,2251,2252,2253,2254,2255,2256,2569,2570,2571,2572,2573,2574,2575,2576,2889,2890,2891,2892,2893,2894,2895,2896,3209,3210,3211,3212,3213,3214,3215,3216,
2289,2290,2291,2292,2293,2294,2295,2296,2609,2610,2611,2612,2613,2614,2615,2616,2929,2930,2931,2932,2933,2934,2935,2936,3249,3250,3251,3252,3253,3254,3255,3256,
2329,2330,2331,2332,2333,2334,2335,2336,2649,2650,2651,2652,2653,2654,2655,2656,2969,2970,2971,2972,2973,2974,2975,2976,3289,3290,3291,3292,3293,3294,3295,3296,
3329,3330,3331,3332,3333,3334,3335,3336,3585,3586,3587,3588,3589,3590,3591,3592,3841,3842,3843,3844,3845,3846,3847,3848,4097,4098,4099,4100,4101,4102,4103,4104,
3361,3362,3363,3364,3365,3366,3367,3368,3617,3618,3619,3620,3621,3622,3623,3624,3873,3874,3875,3876,3877,3878,3879,3880,4129,4130,4131,4132,4133,4134,4135,4136,
3393,3394,3395,3396,3397,3398,3399,3400,3649,3650,3651,3652,3653,3654,3655,3656,3905,3906,3907,3908,3909,3910,3911,3912,4161,4162,4163,4164,4165,4166,4167,4168,
3425,3426,3427,3428,3429,3430,3431,3432,3681,3682,3683,3684,3685,3686,3687,3688,3937,3938,3939,3940,3941,3942,3943,3944,4193,4194,4195,4196,4197,4198,4199,4200,
3457,3458,3459,3460,3461,3462,3463,3464,3713,3714,3715,3716,3717,3718,3719,3720,3969,3970,3971,3972,3973,3974,3975,3976,4225,4226,4227,4228,4229,4230,4231,4232,
3489,3490,3491,3492,3493,3494,3495,3496,3745,3746,3747,3748,3749,3750,3751,3752,4001,4002,4003,4004,4005,4006,4007,4008,4257,4258,4259,4260,4261,4262,4263,4264,
3521,3522,3523,3524,3525,3526,3527,3528,3777,3778,3779,3780,3781,3782,3783,3784,4033,4034,4035,4036,4037,4038,4039,4040,4289,4290,4291,4292,4293,4294,4295,4296,
3553,3554,3555,3556,3557,3558,3559,3560,3809,3810,3811,3812,3813,3814,3815,3816,4065,4066,4067,4068,4069,4070,4071,4072,4321,4322,4323,4324,4325,4326,4327,4328,
4353,4354,4355,4356,4357,4358,4359,4360,4737,4738,4739,4740,4741,4742,4743,4744,5121,5122,5123,5124,5125,5126,5127,5128,5505,5506,5507,5508,5509,5510,5511,5512,
4401,4402,4403,4404,4405,4406,4407,4408,4785,4786,4787,4788,4789,4790,4791,4792,5169,5170,5171,5172,5173,5174,5175,5176,5553,5554,5555,5556,5557,5558,5559,5560,
4449,4450,4451,4452,4453,4454,4455,4456,4833,4834,4835,4836,4837,4838,4839,4840,5217,5218,5219,5220,5221,5222,5223,5224,5601,5602,5603,5604,5605,5606,5607,5608,
4497,4498,4499,4500,4501,4502,4503,4504,4881,4882,4883,4884,4885,4886,4887,4888,5265,5266,5267,5268,5269,5270,5271,5272,5649,5650,5651,5652,5653,5654,5655,5656,
4545,4546,4547,4548,4549,4550,4551,4552,4929,4930,4931,4932,4933,4934,4935,4936,5313,5314,5315,5316,5317,5318,5319,5320,5697,5698,5699,5700,5701,5702,5703,5704,
4593,4594,4595,4596,4597,4598,4599,4600,4977,4978,4979,4980,4981,4982,4983,4984,5361,5362,5363,5364,5365,5366,5367,5368,5745,5746,5747,5748,5749,5750,5751,5752,
4641,4642,4643,4644,4645,4646,4647,4648,5025,5026,5027,5028,5029,5030,5031,5032,5409,5410,5411,5412,5413,5414,5415,5416,5793,5794,5795,5796,5797,5798,5799,5800,
4689,4690,4691,4692,4693,4694,4695,4696,5073,5074,5075,5076,5077,5078,5079,5080,5457,5458,5459,5460,5461,5462,5463,5464,5841,5842,5843,5844,5845,5846,5847,5848,
5889,5890,5891,5892,5893,5894,5895,5896,6273,6274,6275,6276,6277,6278,6279,6280,6657,6658,6659,6660,6661,6662,6663,6664,7041,7042,7043,7044,7045,7046,7047,7048,
5937,5938,5939,5940,5941,5942,5943,5944,6321,6322,6323,6324,6325,6326,6327,6328,6705,6706,6707,6708,6709,6710,6711,6712,7089,7090,7091,7092,7093,7094,7095,7096,
5985,5986,5987,5988,5989,5990,5991,5992,6369,6370,6371,6372,6373,6374,6375,6376,6753,6754,6755,6756,6757,6758,6759,6760,7137,7138,7139,7140,7141,7142,7143,7144,
6033,6034,6035,6036,6037,6038,6039,6040,6417,6418,6419,6420,6421,6422,6423,6424,6801,6802,6803,6804,6805,6806,6807,6808,7185,7186,7187,7188,7189,7190,7191,7192,
6081,6082,6083,6084,6085,6086,6087,6088,6465,6466,6467,6468,6469,6470,6471,6472,6849,6850,6851,6852,6853,6854,6855,6856,7233,7234,7235,7236,7237,7238,7239,7240,
6129,6130,6131,6132,6133,6134,6135,6136,6513,6514,6515,6516,6517,6518,6519,6520,6897,6898,6899,6900,6901,6902,6903,6904,7281,7282,7283,7284,7285,7286,7287,7288,
6177,6178,6179,6180,6181,6182,6183,6184,6561,6562,6563,6564,6565,6566,6567,6568,6945,6946,6947,6948,6949,6950,6951,6952,7329,7330,7331,7332,7333,7334,7335,7336,
6225,6226,6227,6228,6229,6230,6231,6232,6609,6610,6611,6612,6613,6614,6615,6616,6993,6994,6995,6996,6997,6998,6999,7000,7377,7378,7379,7380,7381,7382,7383,7384,
7425,7426,7427,7428,7429,7430,7431,7432,7809,7810,7811,7812,7813,7814,7815,7816,8193,8194,8195,8196,8197,8198,8199,8200,8577,8578,8579,8580,8581,8582,8583,8584,
7473,7474,7475,7476,7477,7478,7479,7480,7857,7858,7859,7860,7861,7862,7863,7864,8241,8242,8243,8244,8245,8246,8247,8248,8625,8626,8627,8628,8629,8630,8631,8632,
7521,7522,7523,7524,7525,7526,7527,7528,7905,7906,7907,7908,7909,7910,7911,7912,8289,8290,8291,8292,8293,8294,8295,8296,8673,8674,8675,8676,8677,8678,8679,8680,
7569,7570,7571,7572,7573,7574,7575,7576,7953,7954,7955,7956,7957,7958,7959,7960,8337,8338,8339,8340,8341,8342,8343,8344,8721,8722,8723,8724,8725,8726,8727,8728,
7617,7618,7619,7620,7621,7622,7623,7624,8001,8002,8003,8004,8005,8006,8007,8008,8385,8386,8387,8388,8389,8390,8391,8392,8769,8770,8771,8772,8773,8774,8775,8776,
7665,7666,7667,7668,7669,7670,7671,7672,8049,8050,8051,8052,8053,8054,8055,8056,8433,8434,8435,8436,8437,8438,8439,8440,8817,8818,8819,8820,8821,8822,8823,8824,
7713,7714,7715,7716,7717,7718,7719,7720,8097,8098,8099,8100,8101,8102,8103,8104,8481,8482,8483,8484,8485,8486,8487,8488,8865,8866,8867,8868,8869,8870,8871,8872,
7761,7762,7763,7764,7765,7766,7767,7768,8145,8146,8147,8148,8149,8150,8151,8152,8529,8530,8531,8532,8533,8534,8535,8536,8913,8914,8915,8916,8917,8918,8919,8920
</data>
 </layer>
 <layer id="2" name="Shadow" width="32" height="48" visible="0">
  <data encoding="csv">
0,0,0,0,0,0,0,0,0,0,0,0,0,0,0,0,0,0,0,0,0,0,0,0,0,0,0,0,0,0,0,0,
0,0,0,0,0,0,0,0,0,0,0,0,0,0,0,0,0,0,0,0,0,0,0,0,0,0,0,0,0,0,0,0,
0,0,0,0,0,0,0,0,0,0,0,0,0,0,0,0,0,0,0,0,0,0,0,0,0,0,0,0,0,0,0,0,
0,0,0,31293,31294,0,0,0,0,0,0,31353,31354,0,0,0,0,0,0,0,0,0,0,0,0,0,0,0,0,0,0,0,
0,0,0,31323,31324,0,0,0,0,0,0,31357,31358,0,0,0,0,0,31233,31234,31235,31236,31237,0,0,31263,31264,31265,31266,31267,0,0,
0,0,0,0,0,0,0,0,0,0,0,0,0,0,0,0,0,0,0,0,0,0,0,0,0,0,0,0,0,0,0,0,
0,0,0,0,0,0,0,0,0,0,0,0,0,0,0,0,0,0,0,0,0,0,0,0,0,0,0,0,0,0,0,0,
0,0,0,0,0,0,0,0,0,0,0,0,0,0,0,0,0,0,0,0,0,0,0,0,0,0,0,0,0,0,0,0,
0,0,0,0,0,0,0,0,0,0,0,0,0,0,0,0,0,0,0,0,0,0,0,0,0,0,0,0,0,0,0,0,
0,0,0,0,0,0,0,0,0,0,0,0,0,0,0,0,0,0,0,0,0,0,0,0,0,0,0,0,0,0,0,0,
0,0,0,0,0,0,0,0,0,0,0,0,0,0,0,0,0,0,0,0,0,0,0,0,0,0,0,0,0,0,0,0,
0,0,0,31353,31354,0,0,0,0,0,0,31353,31354,0,0,0,0,0,0,0,0,0,0,0,0,0,0,0,0,0,0,0,
0,0,0,31357,31358,0,0,0,0,0,0,31357,31358,0,0,0,0,0,31361,31362,31363,31364,0,0,0,0,31361,31362,31363,31364,0,0,
0,0,0,0,0,0,0,0,0,0,0,0,0,0,0,0,0,0,0,0,0,0,0,0,0,0,0,0,0,0,0,0,
0,0,0,0,0,0,0,0,0,0,0,0,0,0,0,0,0,0,0,0,0,0,0,0,0,0,0,0,0,0,0,0,
0,0,0,0,0,0,0,0,0,0,0,0,0,0,0,0,0,0,0,0,0,0,0,0,0,0,0,0,0,0,0,0,
0,0,0,0,0,0,0,0,0,0,0,0,0,0,0,0,0,0,0,0,0,0,0,0,0,0,0,0,0,0,0,0,
0,0,0,0,0,0,0,0,0,0,0,0,0,0,0,0,0,0,0,0,0,0,0,0,0,0,0,0,0,0,0,0,
0,0,0,0,0,0,0,0,0,0,0,0,0,0,0,0,0,0,0,0,0,0,0,0,0,0,0,0,0,0,0,0,
0,0,0,31353,31354,0,0,0,0,0,0,31353,31354,0,0,0,0,0,0,0,0,0,0,0,0,0,0,0,0,0,0,0,
0,0,0,31357,31358,0,0,0,0,0,0,31357,31358,0,0,0,0,0,31361,31362,31363,31364,0,0,0,0,31361,31362,31363,31364,0,0,
0,0,0,0,0,0,0,0,0,0,0,0,0,0,0,0,0,0,0,0,0,0,0,0,0,0,0,0,0,0,0,0,
0,0,0,0,0,0,0,0,0,0,0,0,0,0,0,0,0,0,0,0,0,0,0,0,0,0,0,0,0,0,0,0,
0,0,0,0,0,0,0,0,0,0,0,0,0,0,0,0,0,0,0,0,0,0,0,0,0,0,0,0,0,0,0,0,
0,0,0,0,0,0,0,0,0,0,0,0,0,0,0,0,0,0,0,0,0,0,0,0,0,0,0,0,0,0,0,0,
0,0,0,0,0,0,0,0,0,0,0,0,0,0,0,0,0,0,0,0,0,0,0,0,0,0,0,0,0,0,0,0,
0,0,0,0,0,0,0,0,0,0,0,0,0,0,0,0,0,0,0,0,0,0,0,0,0,0,0,0,0,0,0,0,
0,0,0,31353,31354,0,0,0,0,0,0,31353,31354,0,0,0,0,0,0,0,0,0,0,0,0,0,0,0,0,0,0,0,
0,0,0,31357,31358,0,0,0,0,0,0,31357,31358,0,0,0,0,0,31361,31362,31363,31364,0,0,0,0,31361,31362,31363,31364,0,0,
0,0,0,0,0,0,0,0,0,0,0,0,0,0,0,0,0,0,0,0,0,0,0,0,0,0,0,0,0,0,0,0,
0,0,0,0,0,0,0,0,0,0,0,0,0,0,0,0,0,0,0,0,0,0,0,0,0,0,0,0,0,0,0,0,
0,0,0,0,0,0,0,0,0,0,0,0,0,0,0,0,0,0,0,0,0,0,0,0,0,0,0,0,0,0,0,0,
0,0,0,0,0,0,0,0,0,0,0,0,0,0,0,0,0,0,0,0,0,0,0,0,0,0,0,0,0,0,0,0,
0,0,0,0,0,0,0,0,0,0,0,0,0,0,0,0,0,0,0,0,0,0,0,0,0,0,0,0,0,0,0,0,
0,0,0,0,0,0,0,0,0,0,0,0,0,0,0,0,0,0,0,0,0,0,0,0,0,0,0,0,0,0,0,0,
0,0,0,31353,31354,0,0,0,0,0,0,31353,31354,0,0,0,0,0,0,0,0,0,0,0,0,0,0,0,0,0,0,0,
0,0,0,31357,31358,0,0,0,0,0,0,31357,31358,0,0,0,0,0,31361,31362,31363,31364,0,0,0,0,31361,31362,31363,31364,0,0,
0,0,0,0,0,0,0,0,0,0,0,0,0,0,0,0,0,0,0,0,0,0,0,0,0,0,0,0,0,0,0,0,
0,0,0,0,0,0,0,0,0,0,0,0,0,0,0,0,0,0,0,0,0,0,0,0,0,0,0,0,0,0,0,0,
0,0,0,0,0,0,0,0,0,0,0,0,0,0,0,0,0,0,0,0,0,0,0,0,0,0,0,0,0,0,0,0,
0,0,0,0,0,0,0,0,0,0,0,0,0,0,0,0,0,0,0,0,0,0,0,0,0,0,0,0,0,0,0,0,
0,0,0,0,0,0,0,0,0,0,0,0,0,0,0,0,0,0,0,0,0,0,0,0,0,0,0,0,0,0,0,0,
0,0,0,0,0,0,0,0,0,0,0,0,0,0,0,0,0,0,0,0,0,0,0,0,0,0,0,0,0,0,0,0,
0,0,0,31353,31354,0,0,0,0,0,0,31353,31354,0,0,0,0,0,0,0,0,0,0,0,0,0,0,0,0,0,0,0,
0,0,0,31357,31358,0,0,0,0,0,0,31357,31358,0,0,0,0,0,31361,31362,31363,31364,0,0,0,0,31361,31362,31363,31364,0,0,
0,0,0,0,0,0,0,0,0,0,0,0,0,0,0,0,0,0,0,0,0,0,0,0,0,0,0,0,0,0,0,0,
0,0,0,0,0,0,0,0,0,0,0,0,0,0,0,0,0,0,0,0,0,0,0,0,0,0,0,0,0,0,0,0,
0,0,0,0,0,0,0,0,0,0,0,0,0,0,0,0,0,0,0,0,0,0,0,0,0,0,0,0,0,0,0,0
</data>
 </layer>
 <layer id="7" name="Full_Without_Shadow" width="32" height="48">
  <data encoding="csv">
35205,35206,35207,35208,35209,35210,35211,35212,35717,35718,35719,35720,35721,35722,35723,35724,36229,36230,36231,36232,36233,36234,36235,36236,36741,36742,36743,36744,36745,36746,36747,36748,
35269,35270,35271,35272,35273,35274,35275,35276,35781,35782,35783,35784,35785,35786,35787,35788,36293,36294,36295,36296,36297,36298,36299,36300,36805,36806,36807,36808,36809,36810,36811,36812,
35333,35334,35335,35336,35337,35338,35339,35340,35845,35846,35847,35848,35849,35850,35851,35852,36357,36358,36359,36360,36361,36362,36363,36364,36869,36870,36871,36872,36873,36874,36875,36876,
35397,35398,35399,35400,35401,35402,35403,35404,35909,35910,35911,35912,35913,35914,35915,35916,36421,36422,36423,36424,36425,36426,36427,36428,36933,36934,36935,36936,36937,36938,36939,36940,
35461,35462,35463,35464,35465,35466,35467,35468,35973,35974,35975,35976,35977,35978,35979,35980,36485,36486,36487,36488,36489,36490,36491,36492,36997,36998,36999,37000,37001,37002,37003,37004,
35525,35526,35527,35528,35529,35530,35531,35532,36037,36038,36039,36040,36041,36042,36043,36044,36549,36550,36551,36552,36553,36554,36555,36556,37061,37062,37063,37064,37065,37066,37067,37068,
35589,35590,35591,35592,35593,35594,35595,35596,36101,36102,36103,36104,36105,36106,36107,36108,36613,36614,36615,36616,36617,36618,36619,36620,37125,37126,37127,37128,37129,37130,37131,37132,
35653,35654,35655,35656,35657,35658,35659,35660,36165,36166,36167,36168,36169,36170,36171,36172,36677,36678,36679,36680,36681,36682,36683,36684,37189,37190,37191,37192,37193,37194,37195,37196,
32389,32390,32391,32392,32393,32394,32395,32396,32709,32710,32711,32712,32713,32714,32715,32716,33029,33030,33031,33032,33033,33034,33035,33036,33349,33350,33351,33352,33353,33354,33355,33356,
32429,32430,32431,32432,32433,32434,32435,32436,32749,32750,32751,32752,32753,32754,32755,32756,33069,33070,33071,33072,33073,33074,33075,33076,33389,33390,33391,33392,33393,33394,33395,33396,
32469,32470,32471,32472,32473,32474,32475,32476,32789,32790,32791,32792,32793,32794,32795,32796,33109,33110,33111,33112,33113,33114,33115,33116,33429,33430,33431,33432,33433,33434,33435,33436,
32509,32510,32511,32512,32513,32514,32515,32516,32829,32830,32831,32832,32833,32834,32835,32836,33149,33150,33151,33152,33153,33154,33155,33156,33469,33470,33471,33472,33473,33474,33475,33476,
32549,32550,32551,32552,32553,32554,32555,32556,32869,32870,32871,32872,32873,32874,32875,32876,33189,33190,33191,33192,33193,33194,33195,33196,33509,33510,33511,33512,33513,33514,33515,33516,
32589,32590,32591,32592,32593,32594,32595,32596,32909,32910,32911,32912,32913,32914,32915,32916,33229,33230,33231,33232,33233,33234,33235,33236,33549,33550,33551,33552,33553,33554,33555,33556,
32629,32630,32631,32632,32633,32634,32635,32636,32949,32950,32951,32952,32953,32954,32955,32956,33269,33270,33271,33272,33273,33274,33275,33276,33589,33590,33591,33592,33593,33594,33595,33596,
32669,32670,32671,32672,32673,32674,32675,32676,32989,32990,32991,32992,32993,32994,32995,32996,33309,33310,33311,33312,33313,33314,33315,33316,33629,33630,33631,33632,33633,33634,33635,33636,
31365,31366,31367,31368,31369,31370,31371,31372,31621,31622,31623,31624,31625,31626,31627,31628,31877,31878,31879,31880,31881,31882,31883,31884,32133,32134,32135,32136,32137,32138,32139,32140,
31397,31398,31399,31400,31401,31402,31403,31404,31653,31654,31655,31656,31657,31658,31659,31660,31909,31910,31911,31912,31913,31914,31915,31916,32165,32166,32167,32168,32169,32170,32171,32172,
31429,31430,31431,31432,31433,31434,31435,31436,31685,31686,31687,31688,31689,31690,31691,31692,31941,31942,31943,31944,31945,31946,31947,31948,32197,32198,32199,32200,32201,32202,32203,32204,
31461,31462,31463,31464,31465,31466,31467,31468,31717,31718,31719,31720,31721,31722,31723,31724,31973,31974,31975,31976,31977,31978,31979,31980,32229,32230,32231,32232,32233,32234,32235,32236,
31493,31494,31495,31496,31497,31498,31499,31500,31749,31750,31751,31752,31753,31754,31755,31756,32005,32006,32007,32008,32009,32010,32011,32012,32261,32262,32263,32264,32265,32266,32267,32268,
31525,31526,31527,31528,31529,31530,31531,31532,31781,31782,31783,31784,31785,31786,31787,31788,32037,32038,32039,32040,32041,32042,32043,32044,32293,32294,32295,32296,32297,32298,32299,32300,
31557,31558,31559,31560,31561,31562,31563,31564,31813,31814,31815,31816,31817,31818,31819,31820,32069,32070,32071,32072,32073,32074,32075,32076,32325,32326,32327,32328,32329,32330,32331,32332,
31589,31590,31591,31592,31593,31594,31595,31596,31845,31846,31847,31848,31849,31850,31851,31852,32101,32102,32103,32104,32105,32106,32107,32108,32357,32358,32359,32360,32361,32362,32363,32364,
38789,38790,38791,38792,38793,38794,38795,38796,39173,39174,39175,39176,39177,39178,39179,39180,39557,39558,39559,39560,39561,39562,39563,39564,39941,39942,39943,39944,39945,39946,39947,39948,
38837,38838,38839,38840,38841,38842,38843,38844,39221,39222,39223,39224,39225,39226,39227,39228,39605,39606,39607,39608,39609,39610,39611,39612,39989,39990,39991,39992,39993,39994,39995,39996,
38885,38886,38887,38888,38889,38890,38891,38892,39269,39270,39271,39272,39273,39274,39275,39276,39653,39654,39655,39656,39657,39658,39659,39660,40037,40038,40039,40040,40041,40042,40043,40044,
38933,38934,38935,38936,38937,38938,38939,38940,39317,39318,39319,39320,39321,39322,39323,39324,39701,39702,39703,39704,39705,39706,39707,39708,40085,40086,40087,40088,40089,40090,40091,40092,
38981,38982,38983,38984,38985,38986,38987,38988,39365,39366,39367,39368,39369,39370,39371,39372,39749,39750,39751,39752,39753,39754,39755,39756,40133,40134,40135,40136,40137,40138,40139,40140,
39029,39030,39031,39032,39033,39034,39035,39036,39413,39414,39415,39416,39417,39418,39419,39420,39797,39798,39799,39800,39801,39802,39803,39804,40181,40182,40183,40184,40185,40186,40187,40188,
39077,39078,39079,39080,39081,39082,39083,39084,39461,39462,39463,39464,39465,39466,39467,39468,39845,39846,39847,39848,39849,39850,39851,39852,40229,40230,40231,40232,40233,40234,40235,40236,
39125,39126,39127,39128,39129,39130,39131,39132,39509,39510,39511,39512,39513,39514,39515,39516,39893,39894,39895,39896,39897,39898,39899,39900,40277,40278,40279,40280,40281,40282,40283,40284,
33669,33670,33671,33672,33673,33674,33675,33676,34053,34054,34055,34056,34057,34058,34059,34060,34437,34438,34439,34440,34441,34442,34443,34444,34821,34822,34823,34824,34825,34826,34827,34828,
33717,33718,33719,33720,33721,33722,33723,33724,34101,34102,34103,34104,34105,34106,34107,34108,34485,34486,34487,34488,34489,34490,34491,34492,34869,34870,34871,34872,34873,34874,34875,34876,
33765,33766,33767,33768,33769,33770,33771,33772,34149,34150,34151,34152,34153,34154,34155,34156,34533,34534,34535,34536,34537,34538,34539,34540,34917,34918,34919,34920,34921,34922,34923,34924,
33813,33814,33815,33816,33817,33818,33819,33820,34197,34198,34199,34200,34201,34202,34203,34204,34581,34582,34583,34584,34585,34586,34587,34588,34965,34966,34967,34968,34969,34970,34971,34972,
33861,33862,33863,33864,33865,33866,33867,33868,34245,34246,34247,34248,34249,34250,34251,34252,34629,34630,34631,34632,34633,34634,34635,34636,35013,35014,35015,35016,35017,35018,35019,35020,
33909,33910,33911,33912,33913,33914,33915,33916,34293,34294,34295,34296,34297,34298,34299,34300,34677,34678,34679,34680,34681,34682,34683,34684,35061,35062,35063,35064,35065,35066,35067,35068,
33957,33958,33959,33960,33961,33962,33963,33964,34341,34342,34343,34344,34345,34346,34347,34348,34725,34726,34727,34728,34729,34730,34731,34732,35109,35110,35111,35112,35113,35114,35115,35116,
34005,34006,34007,34008,34009,34010,34011,34012,34389,34390,34391,34392,34393,34394,34395,34396,34773,34774,34775,34776,34777,34778,34779,34780,35157,35158,35159,35160,35161,35162,35163,35164,
37253,37254,37255,37256,37257,37258,37259,37260,37637,37638,37639,37640,37641,37642,37643,37644,38021,38022,38023,38024,38025,38026,38027,38028,38405,38406,38407,38408,38409,38410,38411,38412,
37301,37302,37303,37304,37305,37306,37307,37308,37685,37686,37687,37688,37689,37690,37691,37692,38069,38070,38071,38072,38073,38074,38075,38076,38453,38454,38455,38456,38457,38458,38459,38460,
37349,37350,37351,37352,37353,37354,37355,37356,37733,37734,37735,37736,37737,37738,37739,37740,38117,38118,38119,38120,38121,38122,38123,38124,38501,38502,38503,38504,38505,38506,38507,38508,
37397,37398,37399,37400,37401,37402,37403,37404,37781,37782,37783,37784,37785,37786,37787,37788,38165,38166,38167,38168,38169,38170,38171,38172,38549,38550,38551,38552,38553,38554,38555,38556,
37445,37446,37447,37448,37449,37450,37451,37452,37829,37830,37831,37832,37833,37834,37835,37836,38213,38214,38215,38216,38217,38218,38219,38220,38597,38598,38599,38600,38601,38602,38603,38604,
37493,37494,37495,37496,37497,37498,37499,37500,37877,37878,37879,37880,37881,37882,37883,37884,38261,38262,38263,38264,38265,38266,38267,38268,38645,38646,38647,38648,38649,38650,38651,38652,
37541,37542,37543,37544,37545,37546,37547,37548,37925,37926,37927,37928,37929,37930,37931,37932,38309,38310,38311,38312,38313,38314,38315,38316,38693,38694,38695,38696,38697,38698,38699,38700,
37589,37590,37591,37592,37593,37594,37595,37596,37973,37974,37975,37976,37977,37978,37979,37980,38357,38358,38359,38360,38361,38362,38363,38364,38741,38742,38743,38744,38745,38746,38747,38748
</data>
 </layer>
 <group id="6" name="Parts" visible="0">
  <layer id="3" name="Body" width="32" height="48">
   <data encoding="csv">
8961,8962,8963,8964,8965,8966,8967,8968,9473,9474,9475,9476,9477,9478,9479,9480,9985,9986,9987,9988,9989,9990,9991,9992,10497,10498,10499,10500,10501,10502,10503,10504,
9025,9026,9027,9028,9029,9030,9031,9032,9537,9538,9539,9540,9541,9542,9543,9544,10049,10050,10051,10052,10053,10054,10055,10056,10561,10562,10563,10564,10565,10566,10567,10568,
9089,9090,9091,9092,9093,9094,9095,9096,9601,9602,9603,9604,9605,9606,9607,9608,10113,10114,10115,10116,10117,10118,10119,10120,10625,10626,10627,10628,10629,10630,10631,10632,
9153,9154,9155,9156,9157,9158,9159,9160,9665,9666,9667,9668,9669,9670,9671,9672,10177,10178,10179,10180,10181,10182,10183,10184,10689,10690,10691,10692,10693,10694,10695,10696,
9217,9218,9219,9220,9221,9222,9223,9224,9729,9730,9731,9732,9733,9734,9735,9736,10241,10242,10243,10244,10245,10246,10247,10248,10753,10754,10755,10756,10757,10758,10759,10760,
9281,9282,9283,9284,9285,9286,9287,9288,9793,9794,9795,9796,9797,9798,9799,9800,10305,10306,10307,10308,10309,10310,10311,10312,10817,10818,10819,10820,10821,10822,10823,10824,
9345,9346,9347,9348,9349,9350,9351,9352,9857,9858,9859,9860,9861,9862,9863,9864,10369,10370,10371,10372,10373,10374,10375,10376,10881,10882,10883,10884,10885,10886,10887,10888,
9409,9410,9411,9412,9413,9414,9415,9416,9921,9922,9923,9924,9925,9926,9927,9928,10433,10434,10435,10436,10437,10438,10439,10440,10945,10946,10947,10948,10949,10950,10951,10952,
12545,12546,12547,12548,12549,12550,12551,12552,12865,12866,12867,12868,12869,12870,12871,12872,13185,13186,13187,13188,13189,13190,13191,13192,13505,13506,13507,13508,13509,13510,13511,13512,
12585,12586,12587,12588,12589,12590,12591,12592,12905,12906,12907,12908,12909,12910,12911,12912,13225,13226,13227,13228,13229,13230,13231,13232,13545,13546,13547,13548,13549,13550,13551,13552,
12625,12626,12627,12628,12629,12630,12631,12632,12945,12946,12947,12948,12949,12950,12951,12952,13265,13266,13267,13268,13269,13270,13271,13272,13585,13586,13587,13588,13589,13590,13591,13592,
12665,12666,12667,12668,12669,12670,12671,12672,12985,12986,12987,12988,12989,12990,12991,12992,13305,13306,13307,13308,13309,13310,13311,13312,13625,13626,13627,13628,13629,13630,13631,13632,
12705,12706,12707,12708,12709,12710,12711,12712,13025,13026,13027,13028,13029,13030,13031,13032,13345,13346,13347,13348,13349,13350,13351,13352,13665,13666,13667,13668,13669,13670,13671,13672,
12745,12746,12747,12748,12749,12750,12751,12752,13065,13066,13067,13068,13069,13070,13071,13072,13385,13386,13387,13388,13389,13390,13391,13392,13705,13706,13707,13708,13709,13710,13711,13712,
12785,12786,12787,12788,12789,12790,12791,12792,13105,13106,13107,13108,13109,13110,13111,13112,13425,13426,13427,13428,13429,13430,13431,13432,13745,13746,13747,13748,13749,13750,13751,13752,
12825,12826,12827,12828,12829,12830,12831,12832,13145,13146,13147,13148,13149,13150,13151,13152,13465,13466,13467,13468,13469,13470,13471,13472,13785,13786,13787,13788,13789,13790,13791,13792,
13825,13826,13827,13828,13829,13830,13831,13832,14081,14082,14083,14084,14085,14086,14087,14088,14337,14338,14339,14340,14341,14342,14343,14344,14593,14594,14595,14596,14597,14598,14599,14600,
13857,13858,13859,13860,13861,13862,13863,13864,14113,14114,14115,14116,14117,14118,14119,14120,14369,14370,14371,14372,14373,14374,14375,14376,14625,14626,14627,14628,14629,14630,14631,14632,
13889,13890,13891,13892,13893,13894,13895,13896,14145,14146,14147,14148,14149,14150,14151,14152,14401,14402,14403,14404,14405,14406,14407,14408,14657,14658,14659,14660,14661,14662,14663,14664,
13921,13922,13923,13924,13925,13926,13927,13928,14177,14178,14179,14180,14181,14182,14183,14184,14433,14434,14435,14436,14437,14438,14439,14440,14689,14690,14691,14692,14693,14694,14695,14696,
13953,13954,13955,13956,13957,13958,13959,13960,14209,14210,14211,14212,14213,14214,14215,14216,14465,14466,14467,14468,14469,14470,14471,14472,14721,14722,14723,14724,14725,14726,14727,14728,
13985,13986,13987,13988,13989,13990,13991,13992,14241,14242,14243,14244,14245,14246,14247,14248,14497,14498,14499,14500,14501,14502,14503,14504,14753,14754,14755,14756,14757,14758,14759,14760,
14017,14018,14019,14020,14021,14022,14023,14024,14273,14274,14275,14276,14277,14278,14279,14280,14529,14530,14531,14532,14533,14534,14535,14536,14785,14786,14787,14788,14789,14790,14791,14792,
14049,14050,14051,14052,14053,14054,14055,14056,14305,14306,14307,14308,14309,14310,14311,14312,14561,14562,14563,14564,14565,14566,14567,14568,14817,14818,14819,14820,14821,14822,14823,14824,
14849,14850,14851,14852,14853,14854,14855,14856,15233,15234,15235,15236,15237,15238,15239,15240,15617,15618,15619,15620,15621,15622,15623,15624,16001,16002,16003,16004,16005,16006,16007,16008,
14897,14898,14899,14900,14901,14902,14903,14904,15281,15282,15283,15284,15285,15286,15287,15288,15665,15666,15667,15668,15669,15670,15671,15672,16049,16050,16051,16052,16053,16054,16055,16056,
14945,14946,14947,14948,14949,14950,14951,14952,15329,15330,15331,15332,15333,15334,15335,15336,15713,15714,15715,15716,15717,15718,15719,15720,16097,16098,16099,16100,16101,16102,16103,16104,
14993,14994,14995,14996,14997,14998,14999,15000,15377,15378,15379,15380,15381,15382,15383,15384,15761,15762,15763,15764,15765,15766,15767,15768,16145,16146,16147,16148,16149,16150,16151,16152,
15041,15042,15043,15044,15045,15046,15047,15048,15425,15426,15427,15428,15429,15430,15431,15432,15809,15810,15811,15812,15813,15814,15815,15816,16193,16194,16195,16196,16197,16198,16199,16200,
15089,15090,15091,15092,15093,15094,15095,15096,15473,15474,15475,15476,15477,15478,15479,15480,15857,15858,15859,15860,15861,15862,15863,15864,16241,16242,16243,16244,16245,16246,16247,16248,
15137,15138,15139,15140,15141,15142,15143,15144,15521,15522,15523,15524,15525,15526,15527,15528,15905,15906,15907,15908,15909,15910,15911,15912,16289,16290,16291,16292,16293,16294,16295,16296,
15185,15186,15187,15188,15189,15190,15191,15192,15569,15570,15571,15572,15573,15574,15575,15576,15953,15954,15955,15956,15957,15958,15959,15960,16337,16338,16339,16340,16341,16342,16343,16344,
16385,16386,16387,16388,16389,16390,16391,16392,16769,16770,16771,16772,16773,16774,16775,16776,17153,17154,17155,17156,17157,17158,17159,17160,17537,17538,17539,17540,17541,17542,17543,17544,
16433,16434,16435,16436,16437,16438,16439,16440,16817,16818,16819,16820,16821,16822,16823,16824,17201,17202,17203,17204,17205,17206,17207,17208,17585,17586,17587,17588,17589,17590,17591,17592,
16481,16482,16483,16484,16485,16486,16487,16488,16865,16866,16867,16868,16869,16870,16871,16872,17249,17250,17251,17252,17253,17254,17255,17256,17633,17634,17635,17636,17637,17638,17639,17640,
16529,16530,16531,16532,16533,16534,16535,16536,16913,16914,16915,16916,16917,16918,16919,16920,17297,17298,17299,17300,17301,17302,17303,17304,17681,17682,17683,17684,17685,17686,17687,17688,
16577,16578,16579,16580,16581,16582,16583,16584,16961,16962,16963,16964,16965,16966,16967,16968,17345,17346,17347,17348,17349,17350,17351,17352,17729,17730,17731,17732,17733,17734,17735,17736,
16625,16626,16627,16628,16629,16630,16631,16632,17009,17010,17011,17012,17013,17014,17015,17016,17393,17394,17395,17396,17397,17398,17399,17400,17777,17778,17779,17780,17781,17782,17783,17784,
16673,16674,16675,16676,16677,16678,16679,16680,17057,17058,17059,17060,17061,17062,17063,17064,17441,17442,17443,17444,17445,17446,17447,17448,17825,17826,17827,17828,17829,17830,17831,17832,
16721,16722,16723,16724,16725,16726,16727,16728,17105,17106,17107,17108,17109,17110,17111,17112,17489,17490,17491,17492,17493,17494,17495,17496,17873,17874,17875,17876,17877,17878,17879,17880,
11009,11010,11011,11012,11013,11014,11015,11016,11393,11394,11395,11396,11397,11398,11399,11400,11777,11778,11779,11780,11781,11782,11783,11784,12161,12162,12163,12164,12165,12166,12167,12168,
11057,11058,11059,11060,11061,11062,11063,11064,11441,11442,11443,11444,11445,11446,11447,11448,11825,11826,11827,11828,11829,11830,11831,11832,12209,12210,12211,12212,12213,12214,12215,12216,
11105,11106,11107,11108,11109,11110,11111,11112,11489,11490,11491,11492,11493,11494,11495,11496,11873,11874,11875,11876,11877,11878,11879,11880,12257,12258,12259,12260,12261,12262,12263,12264,
11153,11154,11155,11156,11157,11158,11159,11160,11537,11538,11539,11540,11541,11542,11543,11544,11921,11922,11923,11924,11925,11926,11927,11928,12305,12306,12307,12308,12309,12310,12311,12312,
11201,11202,11203,11204,11205,11206,11207,11208,11585,11586,11587,11588,11589,11590,11591,11592,11969,11970,11971,11972,11973,11974,11975,11976,12353,12354,12355,12356,12357,12358,12359,12360,
11249,11250,11251,11252,11253,11254,11255,11256,11633,11634,11635,11636,11637,11638,11639,11640,12017,12018,12019,12020,12021,12022,12023,12024,12401,12402,12403,12404,12405,12406,12407,12408,
11297,11298,11299,11300,11301,11302,11303,11304,11681,11682,11683,11684,11685,11686,11687,11688,12065,12066,12067,12068,12069,12070,12071,12072,12449,12450,12451,12452,12453,12454,12455,12456,
11345,11346,11347,11348,11349,11350,11351,11352,11729,11730,11731,11732,11733,11734,11735,11736,12113,12114,12115,12116,12117,12118,12119,12120,12497,12498,12499,12500,12501,12502,12503,12504
</data>
  </layer>
  <layer id="4" name="Head" width="32" height="48">
   <data encoding="csv">
24833,24834,24835,24836,24837,24838,24839,24840,25345,25346,25347,25348,25349,25350,25351,25352,25857,25858,25859,25860,25861,25862,25863,25864,26369,26370,26371,26372,26373,26374,26375,26376,
24897,24898,24899,24900,24901,24902,24903,24904,25409,25410,25411,25412,25413,25414,25415,25416,25921,25922,25923,25924,25925,25926,25927,25928,26433,26434,26435,26436,26437,26438,26439,26440,
24961,24962,24963,24964,24965,24966,24967,24968,25473,25474,25475,25476,25477,25478,25479,25480,25985,25986,25987,25988,25989,25990,25991,25992,26497,26498,26499,26500,26501,26502,26503,26504,
25025,25026,25027,25028,25029,25030,25031,25032,25537,25538,25539,25540,25541,25542,25543,25544,26049,26050,26051,26052,26053,26054,26055,26056,26561,26562,26563,26564,26565,26566,26567,26568,
25089,25090,25091,25092,25093,25094,25095,25096,25601,25602,25603,25604,25605,25606,25607,25608,26113,26114,26115,26116,26117,26118,26119,26120,26625,26626,26627,26628,26629,26630,26631,26632,
25153,25154,25155,25156,25157,25158,25159,25160,25665,25666,25667,25668,25669,25670,25671,25672,26177,26178,26179,26180,26181,26182,26183,26184,26689,26690,26691,26692,26693,26694,26695,26696,
25217,25218,25219,25220,25221,25222,25223,25224,25729,25730,25731,25732,25733,25734,25735,25736,26241,26242,26243,26244,26245,26246,26247,26248,26753,26754,26755,26756,26757,26758,26759,26760,
25281,25282,25283,25284,25285,25286,25287,25288,25793,25794,25795,25796,25797,25798,25799,25800,26305,26306,26307,26308,26309,26310,26311,26312,26817,26818,26819,26820,26821,26822,26823,26824,
22017,22018,22019,22020,22021,22022,22023,22024,22337,22338,22339,22340,22341,22342,22343,22344,22657,22658,22659,22660,22661,22662,22663,22664,22977,22978,22979,22980,22981,22982,22983,22984,
22057,22058,22059,22060,22061,22062,22063,22064,22377,22378,22379,22380,22381,22382,22383,22384,22697,22698,22699,22700,22701,22702,22703,22704,23017,23018,23019,23020,23021,23022,23023,23024,
22097,22098,22099,22100,22101,22102,22103,22104,22417,22418,22419,22420,22421,22422,22423,22424,22737,22738,22739,22740,22741,22742,22743,22744,23057,23058,23059,23060,23061,23062,23063,23064,
22137,22138,22139,22140,22141,22142,22143,22144,22457,22458,22459,22460,22461,22462,22463,22464,22777,22778,22779,22780,22781,22782,22783,22784,23097,23098,23099,23100,23101,23102,23103,23104,
22177,22178,22179,22180,22181,22182,22183,22184,22497,22498,22499,22500,22501,22502,22503,22504,22817,22818,22819,22820,22821,22822,22823,22824,23137,23138,23139,23140,23141,23142,23143,23144,
22217,22218,22219,22220,22221,22222,22223,22224,22537,22538,22539,22540,22541,22542,22543,22544,22857,22858,22859,22860,22861,22862,22863,22864,23177,23178,23179,23180,23181,23182,23183,23184,
22257,22258,22259,22260,22261,22262,22263,22264,22577,22578,22579,22580,22581,22582,22583,22584,22897,22898,22899,22900,22901,22902,22903,22904,23217,23218,23219,23220,23221,23222,23223,23224,
22297,22298,22299,22300,22301,22302,22303,22304,22617,22618,22619,22620,22621,22622,22623,22624,22937,22938,22939,22940,22941,22942,22943,22944,23257,23258,23259,23260,23261,23262,23263,23264,
19457,19458,19459,19460,19461,19462,19463,19464,19713,19714,19715,19716,19717,19718,19719,19720,19969,19970,19971,19972,19973,19974,19975,19976,20225,20226,20227,20228,20229,20230,20231,20232,
19489,19490,19491,19492,19493,19494,19495,19496,19745,19746,19747,19748,19749,19750,19751,19752,20001,20002,20003,20004,20005,20006,20007,20008,20257,20258,20259,20260,20261,20262,20263,20264,
19521,19522,19523,19524,19525,19526,19527,19528,19777,19778,19779,19780,19781,19782,19783,19784,20033,20034,20035,20036,20037,20038,20039,20040,20289,20290,20291,20292,20293,20294,20295,20296,
19553,19554,19555,19556,19557,19558,19559,19560,19809,19810,19811,19812,19813,19814,19815,19816,20065,20066,20067,20068,20069,20070,20071,20072,20321,20322,20323,20324,20325,20326,20327,20328,
19585,19586,19587,19588,19589,19590,19591,19592,19841,19842,19843,19844,19845,19846,19847,19848,20097,20098,20099,20100,20101,20102,20103,20104,20353,20354,20355,20356,20357,20358,20359,20360,
19617,19618,19619,19620,19621,19622,19623,19624,19873,19874,19875,19876,19877,19878,19879,19880,20129,20130,20131,20132,20133,20134,20135,20136,20385,20386,20387,20388,20389,20390,20391,20392,
19649,19650,19651,19652,19653,19654,19655,19656,19905,19906,19907,19908,19909,19910,19911,19912,20161,20162,20163,20164,20165,20166,20167,20168,20417,20418,20419,20420,20421,20422,20423,20424,
19681,19682,19683,19684,19685,19686,19687,19688,19937,19938,19939,19940,19941,19942,19943,19944,20193,20194,20195,20196,20197,20198,20199,20200,20449,20450,20451,20452,20453,20454,20455,20456,
17921,17922,17923,17924,17925,17926,17927,17928,18305,18306,18307,18308,18309,18310,18311,18312,18689,18690,18691,18692,18693,18694,18695,18696,19073,19074,19075,19076,19077,19078,19079,19080,
17969,17970,17971,17972,17973,17974,17975,17976,18353,18354,18355,18356,18357,18358,18359,18360,18737,18738,18739,18740,18741,18742,18743,18744,19121,19122,19123,19124,19125,19126,19127,19128,
18017,18018,18019,18020,18021,18022,18023,18024,18401,18402,18403,18404,18405,18406,18407,18408,18785,18786,18787,18788,18789,18790,18791,18792,19169,19170,19171,19172,19173,19174,19175,19176,
18065,18066,18067,18068,18069,18070,18071,18072,18449,18450,18451,18452,18453,18454,18455,18456,18833,18834,18835,18836,18837,18838,18839,18840,19217,19218,19219,19220,19221,19222,19223,19224,
18113,18114,18115,18116,18117,18118,18119,18120,18497,18498,18499,18500,18501,18502,18503,18504,18881,18882,18883,18884,18885,18886,18887,18888,19265,19266,19267,19268,19269,19270,19271,19272,
18161,18162,18163,18164,18165,18166,18167,18168,18545,18546,18547,18548,18549,18550,18551,18552,18929,18930,18931,18932,18933,18934,18935,18936,19313,19314,19315,19316,19317,19318,19319,19320,
18209,18210,18211,18212,18213,18214,18215,18216,18593,18594,18595,18596,18597,18598,18599,18600,18977,18978,18979,18980,18981,18982,18983,18984,19361,19362,19363,19364,19365,19366,19367,19368,
18257,18258,18259,18260,18261,18262,18263,18264,18641,18642,18643,18644,18645,18646,18647,18648,19025,19026,19027,19028,19029,19030,19031,19032,19409,19410,19411,19412,19413,19414,19415,19416,
23297,23298,23299,23300,23301,23302,23303,23304,23681,23682,23683,23684,23685,23686,23687,23688,24065,24066,24067,24068,24069,24070,24071,24072,24449,24450,24451,24452,24453,24454,24455,24456,
23345,23346,23347,23348,23349,23350,23351,23352,23729,23730,23731,23732,23733,23734,23735,23736,24113,24114,24115,24116,24117,24118,24119,24120,24497,24498,24499,24500,24501,24502,24503,24504,
23393,23394,23395,23396,23397,23398,23399,23400,23777,23778,23779,23780,23781,23782,23783,23784,24161,24162,24163,24164,24165,24166,24167,24168,24545,24546,24547,24548,24549,24550,24551,24552,
23441,23442,23443,23444,23445,23446,23447,23448,23825,23826,23827,23828,23829,23830,23831,23832,24209,24210,24211,24212,24213,24214,24215,24216,24593,24594,24595,24596,24597,24598,24599,24600,
23489,23490,23491,23492,23493,23494,23495,23496,23873,23874,23875,23876,23877,23878,23879,23880,24257,24258,24259,24260,24261,24262,24263,24264,24641,24642,24643,24644,24645,24646,24647,24648,
23537,23538,23539,23540,23541,23542,23543,23544,23921,23922,23923,23924,23925,23926,23927,23928,24305,24306,24307,24308,24309,24310,24311,24312,24689,24690,24691,24692,24693,24694,24695,24696,
23585,23586,23587,23588,23589,23590,23591,23592,23969,23970,23971,23972,23973,23974,23975,23976,24353,24354,24355,24356,24357,24358,24359,24360,24737,24738,24739,24740,24741,24742,24743,24744,
23633,23634,23635,23636,23637,23638,23639,23640,24017,24018,24019,24020,24021,24022,24023,24024,24401,24402,24403,24404,24405,24406,24407,24408,24785,24786,24787,24788,24789,24790,24791,24792,
20481,20482,20483,20484,20485,20486,20487,20488,20865,20866,20867,20868,20869,20870,20871,20872,21249,21250,21251,21252,21253,21254,21255,21256,21633,21634,21635,21636,21637,21638,21639,21640,
20529,20530,20531,20532,20533,20534,20535,20536,20913,20914,20915,20916,20917,20918,20919,20920,21297,21298,21299,21300,21301,21302,21303,21304,21681,21682,21683,21684,21685,21686,21687,21688,
20577,20578,20579,20580,20581,20582,20583,20584,20961,20962,20963,20964,20965,20966,20967,20968,21345,21346,21347,21348,21349,21350,21351,21352,21729,21730,21731,21732,21733,21734,21735,21736,
20625,20626,20627,20628,20629,20630,20631,20632,21009,21010,21011,21012,21013,21014,21015,21016,21393,21394,21395,21396,21397,21398,21399,21400,21777,21778,21779,21780,21781,21782,21783,21784,
20673,20674,20675,20676,20677,20678,20679,20680,21057,21058,21059,21060,21061,21062,21063,21064,21441,21442,21443,21444,21445,21446,21447,21448,21825,21826,21827,21828,21829,21830,21831,21832,
20721,20722,20723,20724,20725,20726,20727,20728,21105,21106,21107,21108,21109,21110,21111,21112,21489,21490,21491,21492,21493,21494,21495,21496,21873,21874,21875,21876,21877,21878,21879,21880,
20769,20770,20771,20772,20773,20774,20775,20776,21153,21154,21155,21156,21157,21158,21159,21160,21537,21538,21539,21540,21541,21542,21543,21544,21921,21922,21923,21924,21925,21926,21927,21928,
20817,20818,20819,20820,20821,20822,20823,20824,21201,21202,21203,21204,21205,21206,21207,21208,21585,21586,21587,21588,21589,21590,21591,21592,21969,21970,21971,21972,21973,21974,21975,21976
</data>
  </layer>
  <layer id="5" name="Effects" width="32" height="48">
   <data encoding="csv">
29185,29186,29187,29188,29189,29190,29191,29192,29697,29698,29699,29700,29701,29702,29703,29704,30209,30210,30211,30212,30213,30214,30215,30216,30721,30722,30723,30724,30725,30726,30727,30728,
29249,29250,29251,29252,29253,29254,29255,29256,29761,29762,29763,29764,29765,29766,29767,29768,30273,30274,30275,30276,30277,30278,30279,30280,30785,30786,30787,30788,30789,30790,30791,30792,
29313,29314,29315,29316,29317,29318,29319,29320,29825,29826,29827,29828,29829,29830,29831,29832,30337,30338,30339,30340,30341,30342,30343,30344,30849,30850,30851,30852,30853,30854,30855,30856,
29377,29378,29379,29380,29381,29382,29383,29384,29889,29890,29891,29892,29893,29894,29895,29896,30401,30402,30403,30404,30405,30406,30407,30408,30913,30914,30915,30916,30917,30918,30919,30920,
29441,29442,29443,29444,29445,29446,29447,29448,29953,29954,29955,29956,29957,29958,29959,29960,30465,30466,30467,30468,30469,30470,30471,30472,30977,30978,30979,30980,30981,30982,30983,30984,
29505,29506,29507,29508,29509,29510,29511,29512,30017,30018,30019,30020,30021,30022,30023,30024,30529,30530,30531,30532,30533,30534,30535,30536,31041,31042,31043,31044,31045,31046,31047,31048,
29569,29570,29571,29572,29573,29574,29575,29576,30081,30082,30083,30084,30085,30086,30087,30088,30593,30594,30595,30596,30597,30598,30599,30600,31105,31106,31107,31108,31109,31110,31111,31112,
29633,29634,29635,29636,29637,29638,29639,29640,30145,30146,30147,30148,30149,30150,30151,30152,30657,30658,30659,30660,30661,30662,30663,30664,31169,31170,31171,31172,31173,31174,31175,31176,
27905,27906,27907,27908,27909,27910,27911,27912,28225,28226,28227,28228,28229,28230,28231,28232,28545,28546,28547,28548,28549,28550,28551,28552,28865,28866,28867,28868,28869,28870,28871,28872,
27945,27946,27947,27948,27949,27950,27951,27952,28265,28266,28267,28268,28269,28270,28271,28272,28585,28586,28587,28588,28589,28590,28591,28592,28905,28906,28907,28908,28909,28910,28911,28912,
27985,27986,27987,27988,27989,27990,27991,27992,28305,28306,28307,28308,28309,28310,28311,28312,28625,28626,28627,28628,28629,28630,28631,28632,28945,28946,28947,28948,28949,28950,28951,28952,
28025,28026,28027,28028,28029,28030,28031,28032,28345,28346,28347,28348,28349,28350,28351,28352,28665,28666,28667,28668,28669,28670,28671,28672,28985,28986,28987,28988,28989,28990,28991,28992,
28065,28066,28067,28068,28069,28070,28071,28072,28385,28386,28387,28388,28389,28390,28391,28392,28705,28706,28707,28708,28709,28710,28711,28712,29025,29026,29027,29028,29029,29030,29031,29032,
28105,28106,28107,28108,28109,28110,28111,28112,28425,28426,28427,28428,28429,28430,28431,28432,28745,28746,28747,28748,28749,28750,28751,28752,29065,29066,29067,29068,29069,29070,29071,29072,
28145,28146,28147,28148,28149,28150,28151,28152,28465,28466,28467,28468,28469,28470,28471,28472,28785,28786,28787,28788,28789,28790,28791,28792,29105,29106,29107,29108,29109,29110,29111,29112,
28185,28186,28187,28188,28189,28190,28191,28192,28505,28506,28507,28508,28509,28510,28511,28512,28825,28826,28827,28828,28829,28830,28831,28832,29145,29146,29147,29148,29149,29150,29151,29152,
26881,26882,26883,26884,26885,26886,26887,26888,27137,27138,27139,27140,27141,27142,27143,27144,27393,27394,27395,27396,27397,27398,27399,27400,27649,27650,27651,27652,27653,27654,27655,27656,
26913,26914,26915,26916,26917,26918,26919,26920,27169,27170,27171,27172,27173,27174,27175,27176,27425,27426,27427,27428,27429,27430,27431,27432,27681,27682,27683,27684,27685,27686,27687,27688,
26945,26946,26947,26948,26949,26950,26951,26952,27201,27202,27203,27204,27205,27206,27207,27208,27457,27458,27459,27460,27461,27462,27463,27464,27713,27714,27715,27716,27717,27718,27719,27720,
26977,26978,26979,26980,26981,26982,26983,26984,27233,27234,27235,27236,27237,27238,27239,27240,27489,27490,27491,27492,27493,27494,27495,27496,27745,27746,27747,27748,27749,27750,27751,27752,
27009,27010,27011,27012,27013,27014,27015,27016,27265,27266,27267,27268,27269,27270,27271,27272,27521,27522,27523,27524,27525,27526,27527,27528,27777,27778,27779,27780,27781,27782,27783,27784,
27041,27042,27043,27044,27045,27046,27047,27048,27297,27298,27299,27300,27301,27302,27303,27304,27553,27554,27555,27556,27557,27558,27559,27560,27809,27810,27811,27812,27813,27814,27815,27816,
27073,27074,27075,27076,27077,27078,27079,27080,27329,27330,27331,27332,27333,27334,27335,27336,27585,27586,27587,27588,27589,27590,27591,27592,27841,27842,27843,27844,27845,27846,27847,27848,
27105,27106,27107,27108,27109,27110,27111,27112,27361,27362,27363,27364,27365,27366,27367,27368,27617,27618,27619,27620,27621,27622,27623,27624,27873,27874,27875,27876,27877,27878,27879,27880,
0,0,0,0,0,0,0,0,0,0,0,0,0,0,0,0,0,0,0,0,0,0,0,0,0,0,0,0,0,0,0,0,
0,0,0,0,0,0,0,0,0,0,0,0,0,0,0,0,0,0,0,0,0,0,0,0,0,0,0,0,0,0,0,0,
0,0,0,0,0,0,0,0,0,0,0,0,0,0,0,0,0,0,0,0,0,0,0,0,0,0,0,0,0,0,0,0,
0,0,0,0,0,0,0,0,0,0,0,0,0,0,0,0,0,0,0,0,0,0,0,0,0,0,0,0,0,0,0,0,
0,0,0,0,0,0,0,0,0,0,0,0,0,0,0,0,0,0,0,0,0,0,0,0,0,0,0,0,0,0,0,0,
0,0,0,0,0,0,0,0,0,0,0,0,0,0,0,0,0,0,0,0,0,0,0,0,0,0,0,0,0,0,0,0,
0,0,0,0,0,0,0,0,0,0,0,0,0,0,0,0,0,0,0,0,0,0,0,0,0,0,0,0,0,0,0,0,
0,0,0,0,0,0,0,0,0,0,0,0,0,0,0,0,0,0,0,0,0,0,0,0,0,0,0,0,0,0,0,0,
0,0,0,0,0,0,0,0,0,0,0,0,0,0,0,0,0,0,0,0,0,0,0,0,0,0,0,0,0,0,0,0,
0,0,0,0,0,0,0,0,0,0,0,0,0,0,0,0,0,0,0,0,0,0,0,0,0,0,0,0,0,0,0,0,
0,0,0,0,0,0,0,0,0,0,0,0,0,0,0,0,0,0,0,0,0,0,0,0,0,0,0,0,0,0,0,0,
0,0,0,0,0,0,0,0,0,0,0,0,0,0,0,0,0,0,0,0,0,0,0,0,0,0,0,0,0,0,0,0,
0,0,0,0,0,0,0,0,0,0,0,0,0,0,0,0,0,0,0,0,0,0,0,0,0,0,0,0,0,0,0,0,
0,0,0,0,0,0,0,0,0,0,0,0,0,0,0,0,0,0,0,0,0,0,0,0,0,0,0,0,0,0,0,0,
0,0,0,0,0,0,0,0,0,0,0,0,0,0,0,0,0,0,0,0,0,0,0,0,0,0,0,0,0,0,0,0,
0,0,0,0,0,0,0,0,0,0,0,0,0,0,0,0,0,0,0,0,0,0,0,0,0,0,0,0,0,0,0,0,
0,0,0,0,0,0,0,0,0,0,0,0,0,0,0,0,0,0,0,0,0,0,0,0,0,0,0,0,0,0,0,0,
0,0,0,0,0,0,0,0,0,0,0,0,0,0,0,0,0,0,0,0,0,0,0,0,0,0,0,0,0,0,0,0,
0,0,0,0,0,0,0,0,0,0,0,0,0,0,0,0,0,0,0,0,0,0,0,0,0,0,0,0,0,0,0,0,
0,0,0,0,0,0,0,0,0,0,0,0,0,0,0,0,0,0,0,0,0,0,0,0,0,0,0,0,0,0,0,0,
0,0,0,0,0,0,0,0,0,0,0,0,0,0,0,0,0,0,0,0,0,0,0,0,0,0,0,0,0,0,0,0,
0,0,0,0,0,0,0,0,0,0,0,0,0,0,0,0,0,0,0,0,0,0,0,0,0,0,0,0,0,0,0,0,
0,0,0,0,0,0,0,0,0,0,0,0,0,0,0,0,0,0,0,0,0,0,0,0,0,0,0,0,0,0,0,0,
0,0,0,0,0,0,0,0,0,0,0,0,0,0,0,0,0,0,0,0,0,0,0,0,0,0,0,0,0,0,0,0
</data>
  </layer>
 </group>
</map>
