<?xml version="1.0" encoding="UTF-8"?>
<map version="1.10" tiledversion="1.10.2" orientation="orthogonal" renderorder="right-down" width="16" height="24" tilewidth="16" tileheight="16" infinite="1" nextlayerid="14" nextobjectid="1">
 <tileset firstgid="1" name="Exterior" tilewidth="16" tileheight="16" tilecount="390" columns="26">
  <image source="Exterior.png" width="416" height="240"/>
 </tileset>
 <tileset firstgid="391" name="Dragon_wing" tilewidth="16" tileheight="16" tilecount="240" columns="30">
  <image source="Dragon_wing.png" width="480" height="128"/>
  <tile id="3">
   <animation>
    <frame tileid="3" duration="150"/>
    <frame tileid="3" duration="150"/>
    <frame tileid="3" duration="150"/>
    <frame tileid="3" duration="150"/>
    <frame tileid="3" duration="150"/>
    <frame tileid="3" duration="150"/>
    <frame tileid="3" duration="150"/>
    <frame tileid="8" duration="150"/>
    <frame tileid="13" duration="150"/>
    <frame tileid="18" duration="150"/>
    <frame tileid="23" duration="150"/>
    <frame tileid="28" duration="150"/>
   </animation>
  </tile>
  <tile id="4">
   <animation>
    <frame tileid="4" duration="150"/>
    <frame tileid="4" duration="150"/>
    <frame tileid="4" duration="150"/>
    <frame tileid="4" duration="150"/>
    <frame tileid="4" duration="150"/>
    <frame tileid="4" duration="150"/>
    <frame tileid="4" duration="150"/>
    <frame tileid="9" duration="150"/>
    <frame tileid="14" duration="150"/>
    <frame tileid="19" duration="150"/>
    <frame tileid="24" duration="150"/>
    <frame tileid="29" duration="150"/>
   </animation>
  </tile>
  <tile id="32">
   <animation>
    <frame tileid="32" duration="150"/>
    <frame tileid="32" duration="150"/>
    <frame tileid="32" duration="150"/>
    <frame tileid="32" duration="150"/>
    <frame tileid="32" duration="150"/>
    <frame tileid="32" duration="150"/>
    <frame tileid="32" duration="150"/>
    <frame tileid="37" duration="150"/>
    <frame tileid="42" duration="150"/>
    <frame tileid="47" duration="150"/>
    <frame tileid="52" duration="150"/>
    <frame tileid="57" duration="150"/>
   </animation>
  </tile>
  <tile id="33">
   <animation>
    <frame tileid="33" duration="150"/>
    <frame tileid="33" duration="150"/>
    <frame tileid="33" duration="150"/>
    <frame tileid="33" duration="150"/>
    <frame tileid="33" duration="150"/>
    <frame tileid="33" duration="150"/>
    <frame tileid="33" duration="150"/>
    <frame tileid="38" duration="150"/>
    <frame tileid="43" duration="150"/>
    <frame tileid="48" duration="150"/>
    <frame tileid="53" duration="150"/>
    <frame tileid="58" duration="150"/>
   </animation>
  </tile>
  <tile id="34">
   <animation>
    <frame tileid="34" duration="150"/>
    <frame tileid="34" duration="150"/>
    <frame tileid="34" duration="150"/>
    <frame tileid="34" duration="150"/>
    <frame tileid="34" duration="150"/>
    <frame tileid="34" duration="150"/>
    <frame tileid="34" duration="150"/>
    <frame tileid="39" duration="150"/>
    <frame tileid="44" duration="150"/>
    <frame tileid="49" duration="150"/>
    <frame tileid="54" duration="150"/>
    <frame tileid="59" duration="150"/>
   </animation>
  </tile>
  <tile id="60">
   <animation>
    <frame tileid="60" duration="150"/>
    <frame tileid="60" duration="150"/>
    <frame tileid="60" duration="150"/>
    <frame tileid="60" duration="150"/>
    <frame tileid="60" duration="150"/>
    <frame tileid="60" duration="150"/>
    <frame tileid="60" duration="150"/>
    <frame tileid="65" duration="150"/>
    <frame tileid="70" duration="150"/>
    <frame tileid="75" duration="150"/>
    <frame tileid="80" duration="150"/>
    <frame tileid="85" duration="150"/>
   </animation>
  </tile>
  <tile id="61">
   <animation>
    <frame tileid="61" duration="150"/>
    <frame tileid="61" duration="150"/>
    <frame tileid="61" duration="150"/>
    <frame tileid="61" duration="150"/>
    <frame tileid="61" duration="150"/>
    <frame tileid="61" duration="150"/>
    <frame tileid="61" duration="150"/>
    <frame tileid="66" duration="150"/>
    <frame tileid="71" duration="150"/>
    <frame tileid="76" duration="150"/>
    <frame tileid="81" duration="150"/>
    <frame tileid="86" duration="150"/>
   </animation>
  </tile>
  <tile id="62">
   <animation>
    <frame tileid="62" duration="150"/>
    <frame tileid="62" duration="150"/>
    <frame tileid="62" duration="150"/>
    <frame tileid="62" duration="150"/>
    <frame tileid="62" duration="150"/>
    <frame tileid="62" duration="150"/>
    <frame tileid="62" duration="150"/>
    <frame tileid="67" duration="150"/>
    <frame tileid="72" duration="150"/>
    <frame tileid="77" duration="150"/>
    <frame tileid="82" duration="150"/>
    <frame tileid="87" duration="150"/>
   </animation>
  </tile>
  <tile id="63">
   <animation>
    <frame tileid="63" duration="150"/>
    <frame tileid="63" duration="150"/>
    <frame tileid="63" duration="150"/>
    <frame tileid="63" duration="150"/>
    <frame tileid="63" duration="150"/>
    <frame tileid="63" duration="150"/>
    <frame tileid="63" duration="150"/>
    <frame tileid="68" duration="150"/>
    <frame tileid="73" duration="150"/>
    <frame tileid="78" duration="150"/>
    <frame tileid="83" duration="150"/>
    <frame tileid="88" duration="150"/>
   </animation>
  </tile>
  <tile id="64">
   <animation>
    <frame tileid="64" duration="150"/>
    <frame tileid="64" duration="150"/>
    <frame tileid="64" duration="150"/>
    <frame tileid="64" duration="150"/>
    <frame tileid="64" duration="150"/>
    <frame tileid="64" duration="150"/>
    <frame tileid="64" duration="150"/>
    <frame tileid="69" duration="150"/>
    <frame tileid="74" duration="150"/>
    <frame tileid="79" duration="150"/>
    <frame tileid="84" duration="150"/>
    <frame tileid="89" duration="150"/>
   </animation>
  </tile>
  <tile id="90">
   <animation>
    <frame tileid="90" duration="150"/>
    <frame tileid="90" duration="150"/>
    <frame tileid="90" duration="150"/>
    <frame tileid="90" duration="150"/>
    <frame tileid="90" duration="150"/>
    <frame tileid="90" duration="150"/>
    <frame tileid="90" duration="150"/>
    <frame tileid="95" duration="150"/>
    <frame tileid="100" duration="150"/>
    <frame tileid="105" duration="150"/>
    <frame tileid="110" duration="150"/>
    <frame tileid="115" duration="150"/>
   </animation>
  </tile>
  <tile id="91">
   <animation>
    <frame tileid="91" duration="150"/>
    <frame tileid="91" duration="150"/>
    <frame tileid="91" duration="150"/>
    <frame tileid="91" duration="150"/>
    <frame tileid="91" duration="150"/>
    <frame tileid="91" duration="150"/>
    <frame tileid="91" duration="150"/>
    <frame tileid="96" duration="150"/>
    <frame tileid="101" duration="150"/>
    <frame tileid="106" duration="150"/>
    <frame tileid="111" duration="150"/>
    <frame tileid="116" duration="150"/>
   </animation>
  </tile>
  <tile id="92">
   <animation>
    <frame tileid="92" duration="150"/>
    <frame tileid="92" duration="150"/>
    <frame tileid="92" duration="150"/>
    <frame tileid="92" duration="150"/>
    <frame tileid="92" duration="150"/>
    <frame tileid="92" duration="150"/>
    <frame tileid="92" duration="150"/>
    <frame tileid="97" duration="150"/>
    <frame tileid="102" duration="150"/>
    <frame tileid="107" duration="150"/>
    <frame tileid="112" duration="150"/>
    <frame tileid="117" duration="150"/>
   </animation>
  </tile>
  <tile id="93">
   <animation>
    <frame tileid="93" duration="150"/>
    <frame tileid="93" duration="150"/>
    <frame tileid="93" duration="150"/>
    <frame tileid="93" duration="150"/>
    <frame tileid="93" duration="150"/>
    <frame tileid="93" duration="150"/>
    <frame tileid="93" duration="150"/>
    <frame tileid="98" duration="150"/>
    <frame tileid="103" duration="150"/>
    <frame tileid="108" duration="150"/>
    <frame tileid="113" duration="150"/>
    <frame tileid="118" duration="150"/>
   </animation>
  </tile>
  <tile id="94">
   <animation>
    <frame tileid="94" duration="150"/>
    <frame tileid="94" duration="150"/>
    <frame tileid="94" duration="150"/>
    <frame tileid="94" duration="150"/>
    <frame tileid="94" duration="150"/>
    <frame tileid="94" duration="150"/>
    <frame tileid="94" duration="150"/>
    <frame tileid="99" duration="150"/>
    <frame tileid="104" duration="150"/>
    <frame tileid="109" duration="150"/>
    <frame tileid="114" duration="150"/>
    <frame tileid="119" duration="150"/>
   </animation>
  </tile>
  <tile id="120">
   <animation>
    <frame tileid="120" duration="150"/>
    <frame tileid="120" duration="150"/>
    <frame tileid="120" duration="150"/>
    <frame tileid="120" duration="150"/>
    <frame tileid="120" duration="150"/>
    <frame tileid="120" duration="150"/>
    <frame tileid="120" duration="150"/>
    <frame tileid="125" duration="150"/>
    <frame tileid="130" duration="150"/>
    <frame tileid="135" duration="150"/>
    <frame tileid="140" duration="150"/>
    <frame tileid="145" duration="150"/>
   </animation>
  </tile>
  <tile id="121">
   <animation>
    <frame tileid="121" duration="150"/>
    <frame tileid="121" duration="150"/>
    <frame tileid="121" duration="150"/>
    <frame tileid="121" duration="150"/>
    <frame tileid="121" duration="150"/>
    <frame tileid="121" duration="150"/>
    <frame tileid="121" duration="150"/>
    <frame tileid="126" duration="150"/>
    <frame tileid="131" duration="150"/>
    <frame tileid="136" duration="150"/>
    <frame tileid="141" duration="150"/>
    <frame tileid="146" duration="150"/>
   </animation>
  </tile>
  <tile id="122">
   <animation>
    <frame tileid="122" duration="150"/>
    <frame tileid="122" duration="150"/>
    <frame tileid="122" duration="150"/>
    <frame tileid="122" duration="150"/>
    <frame tileid="122" duration="150"/>
    <frame tileid="122" duration="150"/>
    <frame tileid="122" duration="150"/>
    <frame tileid="127" duration="150"/>
    <frame tileid="132" duration="150"/>
    <frame tileid="137" duration="150"/>
    <frame tileid="142" duration="150"/>
    <frame tileid="147" duration="150"/>
   </animation>
  </tile>
  <tile id="123">
   <animation>
    <frame tileid="123" duration="150"/>
    <frame tileid="123" duration="150"/>
    <frame tileid="123" duration="150"/>
    <frame tileid="123" duration="150"/>
    <frame tileid="123" duration="150"/>
    <frame tileid="123" duration="150"/>
    <frame tileid="123" duration="150"/>
    <frame tileid="128" duration="150"/>
    <frame tileid="133" duration="150"/>
    <frame tileid="138" duration="150"/>
    <frame tileid="143" duration="150"/>
    <frame tileid="148" duration="150"/>
   </animation>
  </tile>
  <tile id="124">
   <animation>
    <frame tileid="124" duration="150"/>
    <frame tileid="124" duration="150"/>
    <frame tileid="124" duration="150"/>
    <frame tileid="124" duration="150"/>
    <frame tileid="124" duration="150"/>
    <frame tileid="124" duration="150"/>
    <frame tileid="124" duration="150"/>
    <frame tileid="129" duration="150"/>
    <frame tileid="134" duration="150"/>
    <frame tileid="139" duration="150"/>
    <frame tileid="144" duration="150"/>
    <frame tileid="149" duration="150"/>
   </animation>
  </tile>
  <tile id="150">
   <animation>
    <frame tileid="150" duration="150"/>
    <frame tileid="150" duration="150"/>
    <frame tileid="150" duration="150"/>
    <frame tileid="150" duration="150"/>
    <frame tileid="150" duration="150"/>
    <frame tileid="150" duration="150"/>
    <frame tileid="150" duration="150"/>
    <frame tileid="155" duration="150"/>
    <frame tileid="160" duration="150"/>
    <frame tileid="165" duration="150"/>
    <frame tileid="170" duration="150"/>
    <frame tileid="175" duration="150"/>
   </animation>
  </tile>
  <tile id="151">
   <animation>
    <frame tileid="151" duration="150"/>
    <frame tileid="151" duration="150"/>
    <frame tileid="151" duration="150"/>
    <frame tileid="151" duration="150"/>
    <frame tileid="151" duration="150"/>
    <frame tileid="151" duration="150"/>
    <frame tileid="151" duration="150"/>
    <frame tileid="156" duration="150"/>
    <frame tileid="161" duration="150"/>
    <frame tileid="166" duration="150"/>
    <frame tileid="171" duration="150"/>
    <frame tileid="176" duration="150"/>
   </animation>
  </tile>
  <tile id="152">
   <animation>
    <frame tileid="152" duration="150"/>
    <frame tileid="152" duration="150"/>
    <frame tileid="152" duration="150"/>
    <frame tileid="152" duration="150"/>
    <frame tileid="152" duration="150"/>
    <frame tileid="152" duration="150"/>
    <frame tileid="152" duration="150"/>
    <frame tileid="157" duration="150"/>
    <frame tileid="162" duration="150"/>
    <frame tileid="167" duration="150"/>
    <frame tileid="172" duration="150"/>
    <frame tileid="177" duration="150"/>
   </animation>
  </tile>
  <tile id="153">
   <animation>
    <frame tileid="153" duration="150"/>
    <frame tileid="153" duration="150"/>
    <frame tileid="153" duration="150"/>
    <frame tileid="153" duration="150"/>
    <frame tileid="153" duration="150"/>
    <frame tileid="153" duration="150"/>
    <frame tileid="153" duration="150"/>
    <frame tileid="158" duration="150"/>
    <frame tileid="163" duration="150"/>
    <frame tileid="168" duration="150"/>
    <frame tileid="173" duration="150"/>
    <frame tileid="178" duration="150"/>
   </animation>
  </tile>
  <tile id="154">
   <animation>
    <frame tileid="154" duration="150"/>
    <frame tileid="154" duration="150"/>
    <frame tileid="154" duration="150"/>
    <frame tileid="154" duration="150"/>
    <frame tileid="154" duration="150"/>
    <frame tileid="154" duration="150"/>
    <frame tileid="154" duration="150"/>
    <frame tileid="159" duration="150"/>
    <frame tileid="164" duration="150"/>
    <frame tileid="169" duration="150"/>
    <frame tileid="174" duration="150"/>
    <frame tileid="179" duration="150"/>
   </animation>
  </tile>
  <tile id="181">
   <animation>
    <frame tileid="181" duration="150"/>
    <frame tileid="181" duration="150"/>
    <frame tileid="181" duration="150"/>
    <frame tileid="181" duration="150"/>
    <frame tileid="181" duration="150"/>
    <frame tileid="181" duration="150"/>
    <frame tileid="181" duration="150"/>
    <frame tileid="186" duration="150"/>
    <frame tileid="191" duration="150"/>
    <frame tileid="196" duration="150"/>
    <frame tileid="201" duration="150"/>
    <frame tileid="206" duration="150"/>
   </animation>
  </tile>
  <tile id="182">
   <animation>
    <frame tileid="182" duration="150"/>
    <frame tileid="182" duration="150"/>
    <frame tileid="182" duration="150"/>
    <frame tileid="182" duration="150"/>
    <frame tileid="182" duration="150"/>
    <frame tileid="182" duration="150"/>
    <frame tileid="182" duration="150"/>
    <frame tileid="187" duration="150"/>
    <frame tileid="192" duration="150"/>
    <frame tileid="197" duration="150"/>
    <frame tileid="202" duration="150"/>
    <frame tileid="207" duration="150"/>
   </animation>
  </tile>
  <tile id="211">
   <animation>
    <frame tileid="211" duration="150"/>
    <frame tileid="211" duration="150"/>
    <frame tileid="211" duration="150"/>
    <frame tileid="211" duration="150"/>
    <frame tileid="211" duration="150"/>
    <frame tileid="211" duration="150"/>
    <frame tileid="211" duration="150"/>
    <frame tileid="216" duration="150"/>
    <frame tileid="221" duration="150"/>
    <frame tileid="226" duration="150"/>
    <frame tileid="231" duration="150"/>
    <frame tileid="236" duration="150"/>
   </animation>
  </tile>
  <tile id="212">
   <animation>
    <frame tileid="212" duration="150"/>
    <frame tileid="212" duration="150"/>
    <frame tileid="212" duration="150"/>
    <frame tileid="212" duration="150"/>
    <frame tileid="212" duration="150"/>
    <frame tileid="212" duration="150"/>
    <frame tileid="212" duration="150"/>
    <frame tileid="217" duration="150"/>
    <frame tileid="222" duration="150"/>
    <frame tileid="227" duration="150"/>
    <frame tileid="232" duration="150"/>
    <frame tileid="237" duration="150"/>
   </animation>
  </tile>
 </tileset>
 <tileset firstgid="631" name="Dragon_back" tilewidth="16" tileheight="16" tilecount="54" columns="18">
  <image source="Dragon_back.png" width="288" height="48"/>
  <tile id="1">
   <animation>
    <frame tileid="1" duration="150"/>
    <frame tileid="1" duration="150"/>
    <frame tileid="1" duration="150"/>
    <frame tileid="1" duration="150"/>
    <frame tileid="1" duration="150"/>
    <frame tileid="1" duration="150"/>
    <frame tileid="1" duration="150"/>
    <frame tileid="4" duration="150"/>
    <frame tileid="7" duration="150"/>
    <frame tileid="10" duration="150"/>
    <frame tileid="13" duration="150"/>
    <frame tileid="16" duration="150"/>
   </animation>
  </tile>
  <tile id="2">
   <animation>
    <frame tileid="2" duration="150"/>
    <frame tileid="2" duration="150"/>
    <frame tileid="2" duration="150"/>
    <frame tileid="2" duration="150"/>
    <frame tileid="2" duration="150"/>
    <frame tileid="2" duration="150"/>
    <frame tileid="2" duration="150"/>
    <frame tileid="5" duration="150"/>
    <frame tileid="8" duration="150"/>
    <frame tileid="11" duration="150"/>
    <frame tileid="14" duration="150"/>
    <frame tileid="17" duration="150"/>
   </animation>
  </tile>
  <tile id="19">
   <animation>
    <frame tileid="19" duration="150"/>
    <frame tileid="19" duration="150"/>
    <frame tileid="19" duration="150"/>
    <frame tileid="19" duration="150"/>
    <frame tileid="19" duration="150"/>
    <frame tileid="19" duration="150"/>
    <frame tileid="19" duration="150"/>
    <frame tileid="22" duration="150"/>
    <frame tileid="25" duration="150"/>
    <frame tileid="28" duration="150"/>
    <frame tileid="31" duration="150"/>
    <frame tileid="34" duration="150"/>
   </animation>
  </tile>
  <tile id="20">
   <animation>
    <frame tileid="20" duration="150"/>
    <frame tileid="20" duration="150"/>
    <frame tileid="20" duration="150"/>
    <frame tileid="20" duration="150"/>
    <frame tileid="20" duration="150"/>
    <frame tileid="20" duration="150"/>
    <frame tileid="20" duration="150"/>
    <frame tileid="23" duration="150"/>
    <frame tileid="26" duration="150"/>
    <frame tileid="29" duration="150"/>
    <frame tileid="32" duration="150"/>
    <frame tileid="35" duration="150"/>
   </animation>
  </tile>
  <tile id="37">
   <animation>
    <frame tileid="37" duration="150"/>
    <frame tileid="37" duration="150"/>
    <frame tileid="37" duration="150"/>
    <frame tileid="37" duration="150"/>
    <frame tileid="37" duration="150"/>
    <frame tileid="37" duration="150"/>
    <frame tileid="37" duration="150"/>
    <frame tileid="40" duration="150"/>
    <frame tileid="43" duration="150"/>
    <frame tileid="46" duration="150"/>
    <frame tileid="49" duration="150"/>
    <frame tileid="52" duration="150"/>
   </animation>
  </tile>
  <tile id="38">
   <animation>
    <frame tileid="38" duration="150"/>
    <frame tileid="38" duration="150"/>
    <frame tileid="38" duration="150"/>
    <frame tileid="38" duration="150"/>
    <frame tileid="38" duration="150"/>
    <frame tileid="38" duration="150"/>
    <frame tileid="38" duration="150"/>
    <frame tileid="41" duration="150"/>
    <frame tileid="44" duration="150"/>
    <frame tileid="47" duration="150"/>
    <frame tileid="50" duration="150"/>
    <frame tileid="53" duration="150"/>
   </animation>
  </tile>
 </tileset>
 <tileset firstgid="685" name="Dragon_body" tilewidth="16" tileheight="16" tilecount="840" columns="120">
  <image source="Dragon_body.png" width="1920" height="112"/>
  <tile id="2">
   <animation>
    <frame tileid="2" duration="150"/>
    <frame tileid="7" duration="150"/>
    <frame tileid="12" duration="150"/>
    <frame tileid="17" duration="150"/>
    <frame tileid="22" duration="150"/>
    <frame tileid="27" duration="150"/>
    <frame tileid="32" duration="150"/>
    <frame tileid="37" duration="150"/>
    <frame tileid="42" duration="150"/>
    <frame tileid="47" duration="150"/>
    <frame tileid="52" duration="150"/>
    <frame tileid="57" duration="150"/>
    <frame tileid="62" duration="150"/>
    <frame tileid="67" duration="150"/>
    <frame tileid="72" duration="150"/>
    <frame tileid="77" duration="150"/>
    <frame tileid="82" duration="150"/>
    <frame tileid="87" duration="150"/>
    <frame tileid="92" duration="150"/>
    <frame tileid="97" duration="150"/>
    <frame tileid="102" duration="150"/>
    <frame tileid="107" duration="150"/>
    <frame tileid="112" duration="150"/>
    <frame tileid="117" duration="150"/>
   </animation>
  </tile>
  <tile id="3">
   <animation>
    <frame tileid="3" duration="150"/>
    <frame tileid="8" duration="150"/>
    <frame tileid="13" duration="150"/>
    <frame tileid="18" duration="150"/>
    <frame tileid="23" duration="150"/>
    <frame tileid="28" duration="150"/>
    <frame tileid="33" duration="150"/>
    <frame tileid="38" duration="150"/>
    <frame tileid="43" duration="150"/>
    <frame tileid="48" duration="150"/>
    <frame tileid="53" duration="150"/>
    <frame tileid="58" duration="150"/>
    <frame tileid="63" duration="150"/>
    <frame tileid="68" duration="150"/>
    <frame tileid="73" duration="150"/>
    <frame tileid="78" duration="150"/>
    <frame tileid="83" duration="150"/>
    <frame tileid="88" duration="150"/>
    <frame tileid="93" duration="150"/>
    <frame tileid="98" duration="150"/>
    <frame tileid="103" duration="150"/>
    <frame tileid="108" duration="150"/>
    <frame tileid="113" duration="150"/>
    <frame tileid="118" duration="150"/>
   </animation>
  </tile>
  <tile id="121">
   <animation>
    <frame tileid="121" duration="150"/>
    <frame tileid="126" duration="150"/>
    <frame tileid="131" duration="150"/>
    <frame tileid="136" duration="150"/>
    <frame tileid="141" duration="150"/>
    <frame tileid="146" duration="150"/>
    <frame tileid="151" duration="150"/>
    <frame tileid="156" duration="150"/>
    <frame tileid="161" duration="150"/>
    <frame tileid="166" duration="150"/>
    <frame tileid="171" duration="150"/>
    <frame tileid="176" duration="150"/>
    <frame tileid="181" duration="150"/>
    <frame tileid="186" duration="150"/>
    <frame tileid="191" duration="150"/>
    <frame tileid="196" duration="150"/>
    <frame tileid="201" duration="150"/>
    <frame tileid="206" duration="150"/>
    <frame tileid="211" duration="150"/>
    <frame tileid="216" duration="150"/>
    <frame tileid="221" duration="150"/>
    <frame tileid="226" duration="150"/>
    <frame tileid="231" duration="150"/>
    <frame tileid="236" duration="150"/>
   </animation>
  </tile>
  <tile id="122">
   <animation>
    <frame tileid="122" duration="150"/>
    <frame tileid="127" duration="150"/>
    <frame tileid="132" duration="150"/>
    <frame tileid="137" duration="150"/>
    <frame tileid="142" duration="150"/>
    <frame tileid="147" duration="150"/>
    <frame tileid="152" duration="150"/>
    <frame tileid="157" duration="150"/>
    <frame tileid="162" duration="150"/>
    <frame tileid="167" duration="150"/>
    <frame tileid="172" duration="150"/>
    <frame tileid="177" duration="150"/>
    <frame tileid="182" duration="150"/>
    <frame tileid="187" duration="150"/>
    <frame tileid="192" duration="150"/>
    <frame tileid="197" duration="150"/>
    <frame tileid="202" duration="150"/>
    <frame tileid="207" duration="150"/>
    <frame tileid="212" duration="150"/>
    <frame tileid="217" duration="150"/>
    <frame tileid="222" duration="150"/>
    <frame tileid="227" duration="150"/>
    <frame tileid="232" duration="150"/>
    <frame tileid="237" duration="150"/>
   </animation>
  </tile>
  <tile id="123">
   <animation>
    <frame tileid="123" duration="150"/>
    <frame tileid="128" duration="150"/>
    <frame tileid="133" duration="150"/>
    <frame tileid="138" duration="150"/>
    <frame tileid="143" duration="150"/>
    <frame tileid="148" duration="150"/>
    <frame tileid="153" duration="150"/>
    <frame tileid="158" duration="150"/>
    <frame tileid="163" duration="150"/>
    <frame tileid="168" duration="150"/>
    <frame tileid="173" duration="150"/>
    <frame tileid="178" duration="150"/>
    <frame tileid="183" duration="150"/>
    <frame tileid="188" duration="150"/>
    <frame tileid="193" duration="150"/>
    <frame tileid="198" duration="150"/>
    <frame tileid="203" duration="150"/>
    <frame tileid="208" duration="150"/>
    <frame tileid="213" duration="150"/>
    <frame tileid="218" duration="150"/>
    <frame tileid="223" duration="150"/>
    <frame tileid="228" duration="150"/>
    <frame tileid="233" duration="150"/>
    <frame tileid="238" duration="150"/>
   </animation>
  </tile>
  <tile id="124">
   <animation>
    <frame tileid="124" duration="150"/>
    <frame tileid="129" duration="150"/>
    <frame tileid="134" duration="150"/>
    <frame tileid="139" duration="150"/>
    <frame tileid="144" duration="150"/>
    <frame tileid="149" duration="150"/>
    <frame tileid="154" duration="150"/>
    <frame tileid="159" duration="150"/>
    <frame tileid="164" duration="150"/>
    <frame tileid="169" duration="150"/>
    <frame tileid="174" duration="150"/>
    <frame tileid="179" duration="150"/>
    <frame tileid="184" duration="150"/>
    <frame tileid="189" duration="150"/>
    <frame tileid="194" duration="150"/>
    <frame tileid="199" duration="150"/>
    <frame tileid="204" duration="150"/>
    <frame tileid="209" duration="150"/>
    <frame tileid="214" duration="150"/>
    <frame tileid="219" duration="150"/>
    <frame tileid="224" duration="150"/>
    <frame tileid="229" duration="150"/>
    <frame tileid="234" duration="150"/>
    <frame tileid="239" duration="150"/>
   </animation>
  </tile>
  <tile id="241">
   <animation>
    <frame tileid="241" duration="150"/>
    <frame tileid="246" duration="150"/>
    <frame tileid="251" duration="150"/>
    <frame tileid="256" duration="150"/>
    <frame tileid="261" duration="150"/>
    <frame tileid="266" duration="150"/>
    <frame tileid="271" duration="150"/>
    <frame tileid="276" duration="150"/>
    <frame tileid="281" duration="150"/>
    <frame tileid="286" duration="150"/>
    <frame tileid="291" duration="150"/>
    <frame tileid="296" duration="150"/>
    <frame tileid="301" duration="150"/>
    <frame tileid="306" duration="150"/>
    <frame tileid="311" duration="150"/>
    <frame tileid="316" duration="150"/>
    <frame tileid="321" duration="150"/>
    <frame tileid="326" duration="150"/>
    <frame tileid="331" duration="150"/>
    <frame tileid="336" duration="150"/>
    <frame tileid="341" duration="150"/>
    <frame tileid="346" duration="150"/>
    <frame tileid="351" duration="150"/>
    <frame tileid="356" duration="150"/>
   </animation>
  </tile>
  <tile id="242">
   <animation>
    <frame tileid="242" duration="150"/>
    <frame tileid="247" duration="150"/>
    <frame tileid="252" duration="150"/>
    <frame tileid="257" duration="150"/>
    <frame tileid="262" duration="150"/>
    <frame tileid="267" duration="150"/>
    <frame tileid="272" duration="150"/>
    <frame tileid="277" duration="150"/>
    <frame tileid="282" duration="150"/>
    <frame tileid="287" duration="150"/>
    <frame tileid="292" duration="150"/>
    <frame tileid="297" duration="150"/>
    <frame tileid="302" duration="150"/>
    <frame tileid="307" duration="150"/>
    <frame tileid="312" duration="150"/>
    <frame tileid="317" duration="150"/>
    <frame tileid="322" duration="150"/>
    <frame tileid="327" duration="150"/>
    <frame tileid="332" duration="150"/>
    <frame tileid="337" duration="150"/>
    <frame tileid="342" duration="150"/>
    <frame tileid="347" duration="150"/>
    <frame tileid="352" duration="150"/>
    <frame tileid="357" duration="150"/>
   </animation>
  </tile>
  <tile id="243">
   <animation>
    <frame tileid="243" duration="150"/>
    <frame tileid="248" duration="150"/>
    <frame tileid="253" duration="150"/>
    <frame tileid="258" duration="150"/>
    <frame tileid="263" duration="150"/>
    <frame tileid="268" duration="150"/>
    <frame tileid="273" duration="150"/>
    <frame tileid="278" duration="150"/>
    <frame tileid="283" duration="150"/>
    <frame tileid="288" duration="150"/>
    <frame tileid="293" duration="150"/>
    <frame tileid="298" duration="150"/>
    <frame tileid="303" duration="150"/>
    <frame tileid="308" duration="150"/>
    <frame tileid="313" duration="150"/>
    <frame tileid="318" duration="150"/>
    <frame tileid="323" duration="150"/>
    <frame tileid="328" duration="150"/>
    <frame tileid="333" duration="150"/>
    <frame tileid="338" duration="150"/>
    <frame tileid="343" duration="150"/>
    <frame tileid="348" duration="150"/>
    <frame tileid="353" duration="150"/>
    <frame tileid="358" duration="150"/>
   </animation>
  </tile>
  <tile id="244">
   <animation>
    <frame tileid="244" duration="150"/>
    <frame tileid="249" duration="150"/>
    <frame tileid="254" duration="150"/>
    <frame tileid="259" duration="150"/>
    <frame tileid="264" duration="150"/>
    <frame tileid="269" duration="150"/>
    <frame tileid="274" duration="150"/>
    <frame tileid="279" duration="150"/>
    <frame tileid="284" duration="150"/>
    <frame tileid="289" duration="150"/>
    <frame tileid="294" duration="150"/>
    <frame tileid="299" duration="150"/>
    <frame tileid="304" duration="150"/>
    <frame tileid="309" duration="150"/>
    <frame tileid="314" duration="150"/>
    <frame tileid="319" duration="150"/>
    <frame tileid="324" duration="150"/>
    <frame tileid="329" duration="150"/>
    <frame tileid="334" duration="150"/>
    <frame tileid="339" duration="150"/>
    <frame tileid="344" duration="150"/>
    <frame tileid="349" duration="150"/>
    <frame tileid="354" duration="150"/>
    <frame tileid="359" duration="150"/>
   </animation>
  </tile>
  <tile id="361">
   <animation>
    <frame tileid="361" duration="150"/>
    <frame tileid="366" duration="150"/>
    <frame tileid="371" duration="150"/>
    <frame tileid="376" duration="150"/>
    <frame tileid="381" duration="150"/>
    <frame tileid="386" duration="150"/>
    <frame tileid="391" duration="150"/>
    <frame tileid="396" duration="150"/>
    <frame tileid="401" duration="150"/>
    <frame tileid="406" duration="150"/>
    <frame tileid="411" duration="150"/>
    <frame tileid="416" duration="150"/>
    <frame tileid="421" duration="150"/>
    <frame tileid="426" duration="150"/>
    <frame tileid="431" duration="150"/>
    <frame tileid="436" duration="150"/>
    <frame tileid="441" duration="150"/>
    <frame tileid="446" duration="150"/>
    <frame tileid="451" duration="150"/>
    <frame tileid="456" duration="150"/>
    <frame tileid="461" duration="150"/>
    <frame tileid="466" duration="150"/>
    <frame tileid="471" duration="150"/>
    <frame tileid="476" duration="150"/>
   </animation>
  </tile>
  <tile id="362">
   <animation>
    <frame tileid="362" duration="150"/>
    <frame tileid="367" duration="150"/>
    <frame tileid="372" duration="150"/>
    <frame tileid="377" duration="150"/>
    <frame tileid="382" duration="150"/>
    <frame tileid="387" duration="150"/>
    <frame tileid="392" duration="150"/>
    <frame tileid="397" duration="150"/>
    <frame tileid="402" duration="150"/>
    <frame tileid="407" duration="150"/>
    <frame tileid="412" duration="150"/>
    <frame tileid="417" duration="150"/>
    <frame tileid="422" duration="150"/>
    <frame tileid="427" duration="150"/>
    <frame tileid="432" duration="150"/>
    <frame tileid="437" duration="150"/>
    <frame tileid="442" duration="150"/>
    <frame tileid="447" duration="150"/>
    <frame tileid="452" duration="150"/>
    <frame tileid="457" duration="150"/>
    <frame tileid="462" duration="150"/>
    <frame tileid="467" duration="150"/>
    <frame tileid="472" duration="150"/>
    <frame tileid="477" duration="150"/>
   </animation>
  </tile>
  <tile id="480">
   <animation>
    <frame tileid="480" duration="150"/>
    <frame tileid="485" duration="150"/>
    <frame tileid="490" duration="150"/>
    <frame tileid="495" duration="150"/>
    <frame tileid="500" duration="150"/>
    <frame tileid="505" duration="150"/>
    <frame tileid="510" duration="150"/>
    <frame tileid="515" duration="150"/>
    <frame tileid="520" duration="150"/>
    <frame tileid="525" duration="150"/>
    <frame tileid="530" duration="150"/>
    <frame tileid="535" duration="150"/>
    <frame tileid="540" duration="150"/>
    <frame tileid="545" duration="150"/>
    <frame tileid="550" duration="150"/>
    <frame tileid="555" duration="150"/>
    <frame tileid="560" duration="150"/>
    <frame tileid="565" duration="150"/>
    <frame tileid="570" duration="150"/>
    <frame tileid="575" duration="150"/>
    <frame tileid="580" duration="150"/>
    <frame tileid="585" duration="150"/>
    <frame tileid="590" duration="150"/>
    <frame tileid="595" duration="150"/>
   </animation>
  </tile>
  <tile id="481">
   <animation>
    <frame tileid="481" duration="150"/>
    <frame tileid="486" duration="150"/>
    <frame tileid="491" duration="150"/>
    <frame tileid="496" duration="150"/>
    <frame tileid="501" duration="150"/>
    <frame tileid="506" duration="150"/>
    <frame tileid="511" duration="150"/>
    <frame tileid="516" duration="150"/>
    <frame tileid="521" duration="150"/>
    <frame tileid="526" duration="150"/>
    <frame tileid="531" duration="150"/>
    <frame tileid="536" duration="150"/>
    <frame tileid="541" duration="150"/>
    <frame tileid="546" duration="150"/>
    <frame tileid="551" duration="150"/>
    <frame tileid="556" duration="150"/>
    <frame tileid="561" duration="150"/>
    <frame tileid="566" duration="150"/>
    <frame tileid="571" duration="150"/>
    <frame tileid="576" duration="150"/>
    <frame tileid="581" duration="150"/>
    <frame tileid="586" duration="150"/>
    <frame tileid="591" duration="150"/>
    <frame tileid="596" duration="150"/>
   </animation>
  </tile>
  <tile id="482">
   <animation>
    <frame tileid="482" duration="150"/>
    <frame tileid="487" duration="150"/>
    <frame tileid="492" duration="150"/>
    <frame tileid="497" duration="150"/>
    <frame tileid="502" duration="150"/>
    <frame tileid="507" duration="150"/>
    <frame tileid="512" duration="150"/>
    <frame tileid="517" duration="150"/>
    <frame tileid="522" duration="150"/>
    <frame tileid="527" duration="150"/>
    <frame tileid="532" duration="150"/>
    <frame tileid="537" duration="150"/>
    <frame tileid="542" duration="150"/>
    <frame tileid="547" duration="150"/>
    <frame tileid="552" duration="150"/>
    <frame tileid="557" duration="150"/>
    <frame tileid="562" duration="150"/>
    <frame tileid="567" duration="150"/>
    <frame tileid="572" duration="150"/>
    <frame tileid="577" duration="150"/>
    <frame tileid="582" duration="150"/>
    <frame tileid="587" duration="150"/>
    <frame tileid="592" duration="150"/>
    <frame tileid="597" duration="150"/>
   </animation>
  </tile>
  <tile id="483">
   <animation>
    <frame tileid="483" duration="150"/>
    <frame tileid="488" duration="150"/>
    <frame tileid="493" duration="150"/>
    <frame tileid="498" duration="150"/>
    <frame tileid="503" duration="150"/>
    <frame tileid="508" duration="150"/>
    <frame tileid="513" duration="150"/>
    <frame tileid="518" duration="150"/>
    <frame tileid="523" duration="150"/>
    <frame tileid="528" duration="150"/>
    <frame tileid="533" duration="150"/>
    <frame tileid="538" duration="150"/>
    <frame tileid="543" duration="150"/>
    <frame tileid="548" duration="150"/>
    <frame tileid="553" duration="150"/>
    <frame tileid="558" duration="150"/>
    <frame tileid="563" duration="150"/>
    <frame tileid="568" duration="150"/>
    <frame tileid="573" duration="150"/>
    <frame tileid="578" duration="150"/>
    <frame tileid="583" duration="150"/>
    <frame tileid="588" duration="150"/>
    <frame tileid="593" duration="150"/>
    <frame tileid="598" duration="150"/>
   </animation>
  </tile>
  <tile id="601">
   <animation>
    <frame tileid="601" duration="150"/>
    <frame tileid="606" duration="150"/>
    <frame tileid="611" duration="150"/>
    <frame tileid="616" duration="150"/>
    <frame tileid="621" duration="150"/>
    <frame tileid="626" duration="150"/>
    <frame tileid="631" duration="150"/>
    <frame tileid="636" duration="150"/>
    <frame tileid="641" duration="150"/>
    <frame tileid="646" duration="150"/>
    <frame tileid="651" duration="150"/>
    <frame tileid="656" duration="150"/>
    <frame tileid="661" duration="150"/>
    <frame tileid="666" duration="150"/>
    <frame tileid="671" duration="150"/>
    <frame tileid="676" duration="150"/>
    <frame tileid="681" duration="150"/>
    <frame tileid="686" duration="150"/>
    <frame tileid="691" duration="150"/>
    <frame tileid="696" duration="150"/>
    <frame tileid="701" duration="150"/>
    <frame tileid="706" duration="150"/>
    <frame tileid="711" duration="150"/>
    <frame tileid="716" duration="150"/>
   </animation>
  </tile>
  <tile id="602">
   <animation>
    <frame tileid="602" duration="150"/>
    <frame tileid="607" duration="150"/>
    <frame tileid="612" duration="150"/>
    <frame tileid="617" duration="150"/>
    <frame tileid="622" duration="150"/>
    <frame tileid="627" duration="150"/>
    <frame tileid="632" duration="150"/>
    <frame tileid="637" duration="150"/>
    <frame tileid="642" duration="150"/>
    <frame tileid="647" duration="150"/>
    <frame tileid="652" duration="150"/>
    <frame tileid="657" duration="150"/>
    <frame tileid="662" duration="150"/>
    <frame tileid="667" duration="150"/>
    <frame tileid="672" duration="150"/>
    <frame tileid="677" duration="150"/>
    <frame tileid="682" duration="150"/>
    <frame tileid="687" duration="150"/>
    <frame tileid="692" duration="150"/>
    <frame tileid="697" duration="150"/>
    <frame tileid="702" duration="150"/>
    <frame tileid="707" duration="150"/>
    <frame tileid="712" duration="150"/>
    <frame tileid="717" duration="150"/>
   </animation>
  </tile>
  <tile id="603">
   <animation>
    <frame tileid="603" duration="150"/>
    <frame tileid="608" duration="150"/>
    <frame tileid="613" duration="150"/>
    <frame tileid="618" duration="150"/>
    <frame tileid="623" duration="150"/>
    <frame tileid="628" duration="150"/>
    <frame tileid="633" duration="150"/>
    <frame tileid="638" duration="150"/>
    <frame tileid="643" duration="150"/>
    <frame tileid="648" duration="150"/>
    <frame tileid="653" duration="150"/>
    <frame tileid="658" duration="150"/>
    <frame tileid="663" duration="150"/>
    <frame tileid="668" duration="150"/>
    <frame tileid="673" duration="150"/>
    <frame tileid="678" duration="150"/>
    <frame tileid="683" duration="150"/>
    <frame tileid="688" duration="150"/>
    <frame tileid="693" duration="150"/>
    <frame tileid="698" duration="150"/>
    <frame tileid="703" duration="150"/>
    <frame tileid="708" duration="150"/>
    <frame tileid="713" duration="150"/>
    <frame tileid="718" duration="150"/>
   </animation>
  </tile>
  <tile id="721">
   <animation>
    <frame tileid="721" duration="150"/>
    <frame tileid="726" duration="150"/>
    <frame tileid="731" duration="150"/>
    <frame tileid="736" duration="150"/>
    <frame tileid="741" duration="150"/>
    <frame tileid="746" duration="150"/>
    <frame tileid="751" duration="150"/>
    <frame tileid="756" duration="150"/>
    <frame tileid="761" duration="150"/>
    <frame tileid="766" duration="150"/>
    <frame tileid="771" duration="150"/>
    <frame tileid="776" duration="150"/>
    <frame tileid="781" duration="150"/>
    <frame tileid="786" duration="150"/>
    <frame tileid="791" duration="150"/>
    <frame tileid="796" duration="150"/>
    <frame tileid="801" duration="150"/>
    <frame tileid="806" duration="150"/>
    <frame tileid="811" duration="150"/>
    <frame tileid="816" duration="150"/>
    <frame tileid="821" duration="150"/>
    <frame tileid="826" duration="150"/>
    <frame tileid="831" duration="150"/>
    <frame tileid="836" duration="150"/>
   </animation>
  </tile>
  <tile id="722">
   <animation>
    <frame tileid="722" duration="150"/>
    <frame tileid="727" duration="150"/>
    <frame tileid="732" duration="150"/>
    <frame tileid="737" duration="150"/>
    <frame tileid="742" duration="150"/>
    <frame tileid="747" duration="150"/>
    <frame tileid="752" duration="150"/>
    <frame tileid="757" duration="150"/>
    <frame tileid="762" duration="150"/>
    <frame tileid="767" duration="150"/>
    <frame tileid="772" duration="150"/>
    <frame tileid="777" duration="150"/>
    <frame tileid="782" duration="150"/>
    <frame tileid="787" duration="150"/>
    <frame tileid="792" duration="150"/>
    <frame tileid="797" duration="150"/>
    <frame tileid="802" duration="150"/>
    <frame tileid="807" duration="150"/>
    <frame tileid="812" duration="150"/>
    <frame tileid="817" duration="150"/>
    <frame tileid="822" duration="150"/>
    <frame tileid="827" duration="150"/>
    <frame tileid="832" duration="150"/>
    <frame tileid="837" duration="150"/>
   </animation>
  </tile>
 </tileset>
 <tileset firstgid="1525" name="Dragon_tail" tilewidth="16" tileheight="16" tilecount="300" columns="60">
  <image source="Dragon_tail.png" width="960" height="80"/>
  <tile id="0">
   <animation>
    <frame tileid="0" duration="150"/>
    <frame tileid="0" duration="150"/>
    <frame tileid="0" duration="150"/>
    <frame tileid="0" duration="150"/>
    <frame tileid="0" duration="150"/>
    <frame tileid="0" duration="150"/>
    <frame tileid="0" duration="150"/>
    <frame tileid="0" duration="150"/>
    <frame tileid="0" duration="150"/>
    <frame tileid="0" duration="150"/>
    <frame tileid="4" duration="150"/>
    <frame tileid="8" duration="150"/>
    <frame tileid="12" duration="150"/>
    <frame tileid="16" duration="150"/>
    <frame tileid="20" duration="150"/>
    <frame tileid="24" duration="150"/>
    <frame tileid="28" duration="150"/>
    <frame tileid="32" duration="150"/>
    <frame tileid="36" duration="150"/>
    <frame tileid="40" duration="150"/>
    <frame tileid="44" duration="150"/>
    <frame tileid="48" duration="150"/>
    <frame tileid="52" duration="150"/>
    <frame tileid="56" duration="150"/>
   </animation>
  </tile>
  <tile id="1">
   <animation>
    <frame tileid="1" duration="150"/>
    <frame tileid="1" duration="150"/>
    <frame tileid="1" duration="150"/>
    <frame tileid="1" duration="150"/>
    <frame tileid="1" duration="150"/>
    <frame tileid="1" duration="150"/>
    <frame tileid="1" duration="150"/>
    <frame tileid="1" duration="150"/>
    <frame tileid="1" duration="150"/>
    <frame tileid="1" duration="150"/>
    <frame tileid="5" duration="150"/>
    <frame tileid="9" duration="150"/>
    <frame tileid="13" duration="150"/>
    <frame tileid="17" duration="150"/>
    <frame tileid="21" duration="150"/>
    <frame tileid="25" duration="150"/>
    <frame tileid="29" duration="150"/>
    <frame tileid="33" duration="150"/>
    <frame tileid="37" duration="150"/>
    <frame tileid="41" duration="150"/>
    <frame tileid="45" duration="150"/>
    <frame tileid="49" duration="150"/>
    <frame tileid="53" duration="150"/>
    <frame tileid="57" duration="150"/>
   </animation>
  </tile>
  <tile id="2">
   <animation>
    <frame tileid="2" duration="150"/>
    <frame tileid="2" duration="150"/>
    <frame tileid="2" duration="150"/>
    <frame tileid="2" duration="150"/>
    <frame tileid="2" duration="150"/>
    <frame tileid="2" duration="150"/>
    <frame tileid="2" duration="150"/>
    <frame tileid="2" duration="150"/>
    <frame tileid="2" duration="150"/>
    <frame tileid="2" duration="150"/>
    <frame tileid="6" duration="150"/>
    <frame tileid="10" duration="150"/>
    <frame tileid="14" duration="150"/>
    <frame tileid="18" duration="150"/>
    <frame tileid="22" duration="150"/>
    <frame tileid="26" duration="150"/>
    <frame tileid="30" duration="150"/>
    <frame tileid="34" duration="150"/>
    <frame tileid="38" duration="150"/>
    <frame tileid="42" duration="150"/>
    <frame tileid="46" duration="150"/>
    <frame tileid="50" duration="150"/>
    <frame tileid="54" duration="150"/>
    <frame tileid="58" duration="150"/>
   </animation>
  </tile>
  <tile id="60">
   <animation>
    <frame tileid="60" duration="150"/>
    <frame tileid="60" duration="150"/>
    <frame tileid="60" duration="150"/>
    <frame tileid="60" duration="150"/>
    <frame tileid="60" duration="150"/>
    <frame tileid="60" duration="150"/>
    <frame tileid="60" duration="150"/>
    <frame tileid="60" duration="150"/>
    <frame tileid="60" duration="150"/>
    <frame tileid="60" duration="150"/>
    <frame tileid="64" duration="150"/>
    <frame tileid="68" duration="150"/>
    <frame tileid="72" duration="150"/>
    <frame tileid="76" duration="150"/>
    <frame tileid="80" duration="150"/>
    <frame tileid="84" duration="150"/>
    <frame tileid="88" duration="150"/>
    <frame tileid="92" duration="150"/>
    <frame tileid="96" duration="150"/>
    <frame tileid="100" duration="150"/>
    <frame tileid="104" duration="150"/>
    <frame tileid="108" duration="150"/>
    <frame tileid="112" duration="150"/>
    <frame tileid="116" duration="150"/>
   </animation>
  </tile>
  <tile id="61">
   <animation>
    <frame tileid="61" duration="150"/>
    <frame tileid="61" duration="150"/>
    <frame tileid="61" duration="150"/>
    <frame tileid="61" duration="150"/>
    <frame tileid="61" duration="150"/>
    <frame tileid="61" duration="150"/>
    <frame tileid="61" duration="150"/>
    <frame tileid="61" duration="150"/>
    <frame tileid="61" duration="150"/>
    <frame tileid="61" duration="150"/>
    <frame tileid="65" duration="150"/>
    <frame tileid="69" duration="150"/>
    <frame tileid="73" duration="150"/>
    <frame tileid="77" duration="150"/>
    <frame tileid="81" duration="150"/>
    <frame tileid="85" duration="150"/>
    <frame tileid="89" duration="150"/>
    <frame tileid="93" duration="150"/>
    <frame tileid="97" duration="150"/>
    <frame tileid="101" duration="150"/>
    <frame tileid="105" duration="150"/>
    <frame tileid="109" duration="150"/>
    <frame tileid="113" duration="150"/>
    <frame tileid="117" duration="150"/>
   </animation>
  </tile>
  <tile id="62">
   <animation>
    <frame tileid="62" duration="150"/>
    <frame tileid="62" duration="150"/>
    <frame tileid="62" duration="150"/>
    <frame tileid="62" duration="150"/>
    <frame tileid="62" duration="150"/>
    <frame tileid="62" duration="150"/>
    <frame tileid="62" duration="150"/>
    <frame tileid="62" duration="150"/>
    <frame tileid="62" duration="150"/>
    <frame tileid="62" duration="150"/>
    <frame tileid="66" duration="150"/>
    <frame tileid="70" duration="150"/>
    <frame tileid="74" duration="150"/>
    <frame tileid="78" duration="150"/>
    <frame tileid="82" duration="150"/>
    <frame tileid="86" duration="150"/>
    <frame tileid="90" duration="150"/>
    <frame tileid="94" duration="150"/>
    <frame tileid="98" duration="150"/>
    <frame tileid="102" duration="150"/>
    <frame tileid="106" duration="150"/>
    <frame tileid="110" duration="150"/>
    <frame tileid="114" duration="150"/>
    <frame tileid="118" duration="150"/>
   </animation>
  </tile>
  <tile id="120">
   <animation>
    <frame tileid="120" duration="150"/>
    <frame tileid="120" duration="150"/>
    <frame tileid="120" duration="150"/>
    <frame tileid="120" duration="150"/>
    <frame tileid="120" duration="150"/>
    <frame tileid="120" duration="150"/>
    <frame tileid="120" duration="150"/>
    <frame tileid="120" duration="150"/>
    <frame tileid="120" duration="150"/>
    <frame tileid="120" duration="150"/>
    <frame tileid="124" duration="150"/>
    <frame tileid="128" duration="150"/>
    <frame tileid="132" duration="150"/>
    <frame tileid="136" duration="150"/>
    <frame tileid="140" duration="150"/>
    <frame tileid="144" duration="150"/>
    <frame tileid="148" duration="150"/>
    <frame tileid="152" duration="150"/>
    <frame tileid="156" duration="150"/>
    <frame tileid="160" duration="150"/>
    <frame tileid="164" duration="150"/>
    <frame tileid="168" duration="150"/>
    <frame tileid="172" duration="150"/>
    <frame tileid="176" duration="150"/>
   </animation>
  </tile>
  <tile id="121">
   <animation>
    <frame tileid="121" duration="150"/>
    <frame tileid="121" duration="150"/>
    <frame tileid="121" duration="150"/>
    <frame tileid="121" duration="150"/>
    <frame tileid="121" duration="150"/>
    <frame tileid="121" duration="150"/>
    <frame tileid="121" duration="150"/>
    <frame tileid="121" duration="150"/>
    <frame tileid="121" duration="150"/>
    <frame tileid="121" duration="150"/>
    <frame tileid="125" duration="150"/>
    <frame tileid="129" duration="150"/>
    <frame tileid="133" duration="150"/>
    <frame tileid="137" duration="150"/>
    <frame tileid="141" duration="150"/>
    <frame tileid="145" duration="150"/>
    <frame tileid="149" duration="150"/>
    <frame tileid="153" duration="150"/>
    <frame tileid="157" duration="150"/>
    <frame tileid="161" duration="150"/>
    <frame tileid="165" duration="150"/>
    <frame tileid="169" duration="150"/>
    <frame tileid="173" duration="150"/>
    <frame tileid="177" duration="150"/>
   </animation>
  </tile>
  <tile id="122">
   <animation>
    <frame tileid="122" duration="150"/>
    <frame tileid="122" duration="150"/>
    <frame tileid="122" duration="150"/>
    <frame tileid="122" duration="150"/>
    <frame tileid="122" duration="150"/>
    <frame tileid="122" duration="150"/>
    <frame tileid="122" duration="150"/>
    <frame tileid="122" duration="150"/>
    <frame tileid="122" duration="150"/>
    <frame tileid="122" duration="150"/>
    <frame tileid="126" duration="150"/>
    <frame tileid="130" duration="150"/>
    <frame tileid="134" duration="150"/>
    <frame tileid="138" duration="150"/>
    <frame tileid="142" duration="150"/>
    <frame tileid="146" duration="150"/>
    <frame tileid="150" duration="150"/>
    <frame tileid="154" duration="150"/>
    <frame tileid="158" duration="150"/>
    <frame tileid="162" duration="150"/>
    <frame tileid="166" duration="150"/>
    <frame tileid="170" duration="150"/>
    <frame tileid="174" duration="150"/>
    <frame tileid="178" duration="150"/>
   </animation>
  </tile>
  <tile id="123">
   <animation>
    <frame tileid="123" duration="150"/>
    <frame tileid="123" duration="150"/>
    <frame tileid="123" duration="150"/>
    <frame tileid="123" duration="150"/>
    <frame tileid="123" duration="150"/>
    <frame tileid="123" duration="150"/>
    <frame tileid="123" duration="150"/>
    <frame tileid="123" duration="150"/>
    <frame tileid="123" duration="150"/>
    <frame tileid="123" duration="150"/>
    <frame tileid="127" duration="150"/>
    <frame tileid="131" duration="150"/>
    <frame tileid="135" duration="150"/>
    <frame tileid="139" duration="150"/>
    <frame tileid="143" duration="150"/>
    <frame tileid="147" duration="150"/>
    <frame tileid="151" duration="150"/>
    <frame tileid="155" duration="150"/>
    <frame tileid="159" duration="150"/>
    <frame tileid="163" duration="150"/>
    <frame tileid="167" duration="150"/>
    <frame tileid="171" duration="150"/>
    <frame tileid="175" duration="150"/>
    <frame tileid="179" duration="150"/>
   </animation>
  </tile>
  <tile id="180">
   <animation>
    <frame tileid="180" duration="150"/>
    <frame tileid="180" duration="150"/>
    <frame tileid="180" duration="150"/>
    <frame tileid="180" duration="150"/>
    <frame tileid="180" duration="150"/>
    <frame tileid="180" duration="150"/>
    <frame tileid="180" duration="150"/>
    <frame tileid="180" duration="150"/>
    <frame tileid="180" duration="150"/>
    <frame tileid="180" duration="150"/>
    <frame tileid="184" duration="150"/>
    <frame tileid="188" duration="150"/>
    <frame tileid="192" duration="150"/>
    <frame tileid="196" duration="150"/>
    <frame tileid="200" duration="150"/>
    <frame tileid="204" duration="150"/>
    <frame tileid="208" duration="150"/>
    <frame tileid="212" duration="150"/>
    <frame tileid="216" duration="150"/>
    <frame tileid="220" duration="150"/>
    <frame tileid="224" duration="150"/>
    <frame tileid="228" duration="150"/>
    <frame tileid="232" duration="150"/>
    <frame tileid="236" duration="150"/>
   </animation>
  </tile>
  <tile id="181">
   <animation>
    <frame tileid="181" duration="150"/>
    <frame tileid="181" duration="150"/>
    <frame tileid="181" duration="150"/>
    <frame tileid="181" duration="150"/>
    <frame tileid="181" duration="150"/>
    <frame tileid="181" duration="150"/>
    <frame tileid="181" duration="150"/>
    <frame tileid="181" duration="150"/>
    <frame tileid="181" duration="150"/>
    <frame tileid="181" duration="150"/>
    <frame tileid="185" duration="150"/>
    <frame tileid="189" duration="150"/>
    <frame tileid="193" duration="150"/>
    <frame tileid="197" duration="150"/>
    <frame tileid="201" duration="150"/>
    <frame tileid="205" duration="150"/>
    <frame tileid="209" duration="150"/>
    <frame tileid="213" duration="150"/>
    <frame tileid="217" duration="150"/>
    <frame tileid="221" duration="150"/>
    <frame tileid="225" duration="150"/>
    <frame tileid="229" duration="150"/>
    <frame tileid="233" duration="150"/>
    <frame tileid="237" duration="150"/>
   </animation>
  </tile>
  <tile id="182">
   <animation>
    <frame tileid="182" duration="150"/>
    <frame tileid="182" duration="150"/>
    <frame tileid="182" duration="150"/>
    <frame tileid="182" duration="150"/>
    <frame tileid="182" duration="150"/>
    <frame tileid="182" duration="150"/>
    <frame tileid="182" duration="150"/>
    <frame tileid="182" duration="150"/>
    <frame tileid="182" duration="150"/>
    <frame tileid="182" duration="150"/>
    <frame tileid="186" duration="150"/>
    <frame tileid="190" duration="150"/>
    <frame tileid="194" duration="150"/>
    <frame tileid="198" duration="150"/>
    <frame tileid="202" duration="150"/>
    <frame tileid="206" duration="150"/>
    <frame tileid="210" duration="150"/>
    <frame tileid="214" duration="150"/>
    <frame tileid="218" duration="150"/>
    <frame tileid="222" duration="150"/>
    <frame tileid="226" duration="150"/>
    <frame tileid="230" duration="150"/>
    <frame tileid="234" duration="150"/>
    <frame tileid="238" duration="150"/>
   </animation>
  </tile>
  <tile id="183">
   <animation>
    <frame tileid="183" duration="150"/>
    <frame tileid="183" duration="150"/>
    <frame tileid="183" duration="150"/>
    <frame tileid="183" duration="150"/>
    <frame tileid="183" duration="150"/>
    <frame tileid="183" duration="150"/>
    <frame tileid="183" duration="150"/>
    <frame tileid="183" duration="150"/>
    <frame tileid="183" duration="150"/>
    <frame tileid="183" duration="150"/>
    <frame tileid="187" duration="150"/>
    <frame tileid="191" duration="150"/>
    <frame tileid="195" duration="150"/>
    <frame tileid="199" duration="150"/>
    <frame tileid="203" duration="150"/>
    <frame tileid="207" duration="150"/>
    <frame tileid="211" duration="150"/>
    <frame tileid="215" duration="150"/>
    <frame tileid="219" duration="150"/>
    <frame tileid="223" duration="150"/>
    <frame tileid="227" duration="150"/>
    <frame tileid="231" duration="150"/>
    <frame tileid="235" duration="150"/>
    <frame tileid="239" duration="150"/>
   </animation>
  </tile>
  <tile id="240">
   <animation>
    <frame tileid="240" duration="150"/>
    <frame tileid="240" duration="150"/>
    <frame tileid="240" duration="150"/>
    <frame tileid="240" duration="150"/>
    <frame tileid="240" duration="150"/>
    <frame tileid="240" duration="150"/>
    <frame tileid="240" duration="150"/>
    <frame tileid="240" duration="150"/>
    <frame tileid="240" duration="150"/>
    <frame tileid="240" duration="150"/>
    <frame tileid="244" duration="150"/>
    <frame tileid="248" duration="150"/>
    <frame tileid="252" duration="150"/>
    <frame tileid="256" duration="150"/>
    <frame tileid="260" duration="150"/>
    <frame tileid="264" duration="150"/>
    <frame tileid="268" duration="150"/>
    <frame tileid="272" duration="150"/>
    <frame tileid="276" duration="150"/>
    <frame tileid="280" duration="150"/>
    <frame tileid="284" duration="150"/>
    <frame tileid="288" duration="150"/>
    <frame tileid="292" duration="150"/>
    <frame tileid="296" duration="150"/>
   </animation>
  </tile>
  <tile id="241">
   <animation>
    <frame tileid="241" duration="150"/>
    <frame tileid="241" duration="150"/>
    <frame tileid="241" duration="150"/>
    <frame tileid="241" duration="150"/>
    <frame tileid="241" duration="150"/>
    <frame tileid="241" duration="150"/>
    <frame tileid="241" duration="150"/>
    <frame tileid="241" duration="150"/>
    <frame tileid="241" duration="150"/>
    <frame tileid="241" duration="150"/>
    <frame tileid="245" duration="150"/>
    <frame tileid="249" duration="150"/>
    <frame tileid="253" duration="150"/>
    <frame tileid="257" duration="150"/>
    <frame tileid="261" duration="150"/>
    <frame tileid="265" duration="150"/>
    <frame tileid="269" duration="150"/>
    <frame tileid="273" duration="150"/>
    <frame tileid="277" duration="150"/>
    <frame tileid="281" duration="150"/>
    <frame tileid="285" duration="150"/>
    <frame tileid="289" duration="150"/>
    <frame tileid="293" duration="150"/>
    <frame tileid="297" duration="150"/>
   </animation>
  </tile>
  <tile id="242">
   <animation>
    <frame tileid="242" duration="150"/>
    <frame tileid="242" duration="150"/>
    <frame tileid="242" duration="150"/>
    <frame tileid="242" duration="150"/>
    <frame tileid="242" duration="150"/>
    <frame tileid="242" duration="150"/>
    <frame tileid="242" duration="150"/>
    <frame tileid="242" duration="150"/>
    <frame tileid="242" duration="150"/>
    <frame tileid="242" duration="150"/>
    <frame tileid="246" duration="150"/>
    <frame tileid="250" duration="150"/>
    <frame tileid="254" duration="150"/>
    <frame tileid="258" duration="150"/>
    <frame tileid="262" duration="150"/>
    <frame tileid="266" duration="150"/>
    <frame tileid="270" duration="150"/>
    <frame tileid="274" duration="150"/>
    <frame tileid="278" duration="150"/>
    <frame tileid="282" duration="150"/>
    <frame tileid="286" duration="150"/>
    <frame tileid="290" duration="150"/>
    <frame tileid="294" duration="150"/>
    <frame tileid="298" duration="150"/>
   </animation>
  </tile>
 </tileset>
 <tileset firstgid="1825" name="x500" tilewidth="16" tileheight="16" tilecount="368" columns="23">
  <image source="../../x500.png" width="368" height="256"/>
 </tileset>
 <tileset firstgid="2193" name="Walls_street" tilewidth="16" tileheight="16" tilecount="504" columns="21">
  <image source="Walls_street.png" width="336" height="384"/>
 </tileset>
 <tileset firstgid="2697" name="Decorative_cracks" tilewidth="16" tileheight="16" tilecount="285" columns="19">
  <image source="Decorative_cracks.png" width="304" height="240"/>
 </tileset>
 <tileset firstgid="2982" name="Doors" tilewidth="16" tileheight="16" tilecount="144" columns="8">
  <image source="Doors.png" width="128" height="288"/>
  <tile id="0">
   <animation>
    <frame tileid="0" duration="150"/>
    <frame tileid="0" duration="150"/>
    <frame tileid="0" duration="150"/>
    <frame tileid="0" duration="150"/>
    <frame tileid="24" duration="150"/>
    <frame tileid="48" duration="150"/>
    <frame tileid="72" duration="150"/>
    <frame tileid="72" duration="150"/>
    <frame tileid="72" duration="150"/>
    <frame tileid="72" duration="150"/>
    <frame tileid="96" duration="150"/>
    <frame tileid="120" duration="150"/>
   </animation>
  </tile>
  <tile id="1">
   <animation>
    <frame tileid="1" duration="150"/>
    <frame tileid="1" duration="150"/>
    <frame tileid="1" duration="150"/>
    <frame tileid="1" duration="150"/>
    <frame tileid="25" duration="150"/>
    <frame tileid="49" duration="150"/>
    <frame tileid="73" duration="150"/>
    <frame tileid="73" duration="150"/>
    <frame tileid="73" duration="150"/>
    <frame tileid="73" duration="150"/>
    <frame tileid="97" duration="150"/>
    <frame tileid="121" duration="150"/>
   </animation>
  </tile>
  <tile id="2">
   <animation>
    <frame tileid="2" duration="150"/>
    <frame tileid="2" duration="150"/>
    <frame tileid="2" duration="150"/>
    <frame tileid="2" duration="150"/>
    <frame tileid="26" duration="150"/>
    <frame tileid="50" duration="150"/>
    <frame tileid="74" duration="150"/>
    <frame tileid="74" duration="150"/>
    <frame tileid="74" duration="150"/>
    <frame tileid="74" duration="150"/>
    <frame tileid="98" duration="150"/>
    <frame tileid="122" duration="150"/>
   </animation>
  </tile>
  <tile id="3">
   <animation>
    <frame tileid="3" duration="150"/>
    <frame tileid="3" duration="150"/>
    <frame tileid="3" duration="150"/>
    <frame tileid="3" duration="150"/>
    <frame tileid="27" duration="150"/>
    <frame tileid="51" duration="150"/>
    <frame tileid="75" duration="150"/>
    <frame tileid="75" duration="150"/>
    <frame tileid="75" duration="150"/>
    <frame tileid="75" duration="150"/>
    <frame tileid="99" duration="150"/>
    <frame tileid="123" duration="150"/>
   </animation>
  </tile>
  <tile id="4">
   <animation>
    <frame tileid="4" duration="150"/>
    <frame tileid="4" duration="150"/>
    <frame tileid="4" duration="150"/>
    <frame tileid="4" duration="150"/>
    <frame tileid="28" duration="150"/>
    <frame tileid="52" duration="150"/>
    <frame tileid="76" duration="150"/>
    <frame tileid="76" duration="150"/>
    <frame tileid="76" duration="150"/>
    <frame tileid="76" duration="150"/>
    <frame tileid="100" duration="150"/>
    <frame tileid="124" duration="150"/>
   </animation>
  </tile>
  <tile id="5">
   <animation>
    <frame tileid="5" duration="150"/>
    <frame tileid="5" duration="150"/>
    <frame tileid="5" duration="150"/>
    <frame tileid="5" duration="150"/>
    <frame tileid="29" duration="150"/>
    <frame tileid="53" duration="150"/>
    <frame tileid="77" duration="150"/>
    <frame tileid="77" duration="150"/>
    <frame tileid="77" duration="150"/>
    <frame tileid="77" duration="150"/>
    <frame tileid="101" duration="150"/>
    <frame tileid="125" duration="150"/>
   </animation>
  </tile>
  <tile id="6">
   <animation>
    <frame tileid="6" duration="150"/>
    <frame tileid="6" duration="150"/>
    <frame tileid="6" duration="150"/>
    <frame tileid="6" duration="150"/>
    <frame tileid="30" duration="150"/>
    <frame tileid="54" duration="150"/>
    <frame tileid="78" duration="150"/>
    <frame tileid="78" duration="150"/>
    <frame tileid="78" duration="150"/>
    <frame tileid="78" duration="150"/>
    <frame tileid="102" duration="150"/>
    <frame tileid="126" duration="150"/>
   </animation>
  </tile>
  <tile id="7">
   <animation>
    <frame tileid="7" duration="150"/>
    <frame tileid="7" duration="150"/>
    <frame tileid="7" duration="150"/>
    <frame tileid="7" duration="150"/>
    <frame tileid="31" duration="150"/>
    <frame tileid="55" duration="150"/>
    <frame tileid="79" duration="150"/>
    <frame tileid="79" duration="150"/>
    <frame tileid="79" duration="150"/>
    <frame tileid="79" duration="150"/>
    <frame tileid="103" duration="150"/>
    <frame tileid="127" duration="150"/>
   </animation>
  </tile>
  <tile id="8">
   <animation>
    <frame tileid="8" duration="150"/>
    <frame tileid="8" duration="150"/>
    <frame tileid="8" duration="150"/>
    <frame tileid="8" duration="150"/>
    <frame tileid="32" duration="150"/>
    <frame tileid="56" duration="150"/>
    <frame tileid="80" duration="150"/>
    <frame tileid="80" duration="150"/>
    <frame tileid="80" duration="150"/>
    <frame tileid="80" duration="150"/>
    <frame tileid="104" duration="150"/>
    <frame tileid="128" duration="150"/>
   </animation>
  </tile>
  <tile id="9">
   <animation>
    <frame tileid="9" duration="150"/>
    <frame tileid="9" duration="150"/>
    <frame tileid="9" duration="150"/>
    <frame tileid="9" duration="150"/>
    <frame tileid="33" duration="150"/>
    <frame tileid="57" duration="150"/>
    <frame tileid="81" duration="150"/>
    <frame tileid="81" duration="150"/>
    <frame tileid="81" duration="150"/>
    <frame tileid="81" duration="150"/>
    <frame tileid="105" duration="150"/>
    <frame tileid="129" duration="150"/>
   </animation>
  </tile>
  <tile id="10">
   <animation>
    <frame tileid="10" duration="150"/>
    <frame tileid="10" duration="150"/>
    <frame tileid="10" duration="150"/>
    <frame tileid="10" duration="150"/>
    <frame tileid="34" duration="150"/>
    <frame tileid="58" duration="150"/>
    <frame tileid="82" duration="150"/>
    <frame tileid="82" duration="150"/>
    <frame tileid="82" duration="150"/>
    <frame tileid="82" duration="150"/>
    <frame tileid="106" duration="150"/>
    <frame tileid="130" duration="150"/>
   </animation>
  </tile>
  <tile id="11">
   <animation>
    <frame tileid="11" duration="150"/>
    <frame tileid="11" duration="150"/>
    <frame tileid="11" duration="150"/>
    <frame tileid="11" duration="150"/>
    <frame tileid="35" duration="150"/>
    <frame tileid="59" duration="150"/>
    <frame tileid="83" duration="150"/>
    <frame tileid="83" duration="150"/>
    <frame tileid="83" duration="150"/>
    <frame tileid="83" duration="150"/>
    <frame tileid="107" duration="150"/>
    <frame tileid="131" duration="150"/>
   </animation>
  </tile>
  <tile id="12">
   <animation>
    <frame tileid="12" duration="150"/>
    <frame tileid="12" duration="150"/>
    <frame tileid="12" duration="150"/>
    <frame tileid="12" duration="150"/>
    <frame tileid="36" duration="150"/>
    <frame tileid="60" duration="150"/>
    <frame tileid="84" duration="150"/>
    <frame tileid="84" duration="150"/>
    <frame tileid="84" duration="150"/>
    <frame tileid="84" duration="150"/>
    <frame tileid="108" duration="150"/>
    <frame tileid="132" duration="150"/>
   </animation>
  </tile>
  <tile id="13">
   <animation>
    <frame tileid="13" duration="150"/>
    <frame tileid="13" duration="150"/>
    <frame tileid="13" duration="150"/>
    <frame tileid="13" duration="150"/>
    <frame tileid="37" duration="150"/>
    <frame tileid="61" duration="150"/>
    <frame tileid="85" duration="150"/>
    <frame tileid="85" duration="150"/>
    <frame tileid="85" duration="150"/>
    <frame tileid="85" duration="150"/>
    <frame tileid="109" duration="150"/>
    <frame tileid="133" duration="150"/>
   </animation>
  </tile>
  <tile id="14">
   <animation>
    <frame tileid="14" duration="150"/>
    <frame tileid="14" duration="150"/>
    <frame tileid="14" duration="150"/>
    <frame tileid="14" duration="150"/>
    <frame tileid="38" duration="150"/>
    <frame tileid="62" duration="150"/>
    <frame tileid="86" duration="150"/>
    <frame tileid="86" duration="150"/>
    <frame tileid="86" duration="150"/>
    <frame tileid="86" duration="150"/>
    <frame tileid="110" duration="150"/>
    <frame tileid="134" duration="150"/>
   </animation>
  </tile>
  <tile id="15">
   <animation>
    <frame tileid="15" duration="150"/>
    <frame tileid="15" duration="150"/>
    <frame tileid="15" duration="150"/>
    <frame tileid="15" duration="150"/>
    <frame tileid="39" duration="150"/>
    <frame tileid="63" duration="150"/>
    <frame tileid="87" duration="150"/>
    <frame tileid="87" duration="150"/>
    <frame tileid="87" duration="150"/>
    <frame tileid="87" duration="150"/>
    <frame tileid="111" duration="150"/>
    <frame tileid="135" duration="150"/>
   </animation>
  </tile>
  <tile id="16">
   <animation>
    <frame tileid="16" duration="150"/>
    <frame tileid="16" duration="150"/>
    <frame tileid="16" duration="150"/>
    <frame tileid="16" duration="150"/>
    <frame tileid="40" duration="150"/>
    <frame tileid="64" duration="150"/>
    <frame tileid="88" duration="150"/>
    <frame tileid="88" duration="150"/>
    <frame tileid="88" duration="150"/>
    <frame tileid="88" duration="150"/>
    <frame tileid="112" duration="150"/>
    <frame tileid="136" duration="150"/>
   </animation>
  </tile>
  <tile id="17">
   <animation>
    <frame tileid="17" duration="150"/>
    <frame tileid="17" duration="150"/>
    <frame tileid="17" duration="150"/>
    <frame tileid="17" duration="150"/>
    <frame tileid="41" duration="150"/>
    <frame tileid="65" duration="150"/>
    <frame tileid="89" duration="150"/>
    <frame tileid="89" duration="150"/>
    <frame tileid="89" duration="150"/>
    <frame tileid="89" duration="150"/>
    <frame tileid="113" duration="150"/>
    <frame tileid="137" duration="150"/>
   </animation>
  </tile>
  <tile id="18">
   <animation>
    <frame tileid="18" duration="150"/>
    <frame tileid="18" duration="150"/>
    <frame tileid="18" duration="150"/>
    <frame tileid="18" duration="150"/>
    <frame tileid="42" duration="150"/>
    <frame tileid="66" duration="150"/>
    <frame tileid="90" duration="150"/>
    <frame tileid="90" duration="150"/>
    <frame tileid="90" duration="150"/>
    <frame tileid="90" duration="150"/>
    <frame tileid="114" duration="150"/>
    <frame tileid="138" duration="150"/>
   </animation>
  </tile>
  <tile id="19">
   <animation>
    <frame tileid="19" duration="150"/>
    <frame tileid="19" duration="150"/>
    <frame tileid="19" duration="150"/>
    <frame tileid="19" duration="150"/>
    <frame tileid="43" duration="150"/>
    <frame tileid="67" duration="150"/>
    <frame tileid="91" duration="150"/>
    <frame tileid="91" duration="150"/>
    <frame tileid="91" duration="150"/>
    <frame tileid="91" duration="150"/>
    <frame tileid="115" duration="150"/>
    <frame tileid="139" duration="150"/>
   </animation>
  </tile>
  <tile id="20">
   <animation>
    <frame tileid="20" duration="150"/>
    <frame tileid="20" duration="150"/>
    <frame tileid="20" duration="150"/>
    <frame tileid="20" duration="150"/>
    <frame tileid="44" duration="150"/>
    <frame tileid="68" duration="150"/>
    <frame tileid="92" duration="150"/>
    <frame tileid="92" duration="150"/>
    <frame tileid="92" duration="150"/>
    <frame tileid="92" duration="150"/>
    <frame tileid="116" duration="150"/>
    <frame tileid="140" duration="150"/>
   </animation>
  </tile>
  <tile id="21">
   <animation>
    <frame tileid="21" duration="150"/>
    <frame tileid="21" duration="150"/>
    <frame tileid="21" duration="150"/>
    <frame tileid="21" duration="150"/>
    <frame tileid="45" duration="150"/>
    <frame tileid="69" duration="150"/>
    <frame tileid="93" duration="150"/>
    <frame tileid="93" duration="150"/>
    <frame tileid="93" duration="150"/>
    <frame tileid="93" duration="150"/>
    <frame tileid="117" duration="150"/>
    <frame tileid="141" duration="150"/>
   </animation>
  </tile>
  <tile id="22">
   <animation>
    <frame tileid="22" duration="150"/>
    <frame tileid="22" duration="150"/>
    <frame tileid="22" duration="150"/>
    <frame tileid="22" duration="150"/>
    <frame tileid="46" duration="150"/>
    <frame tileid="70" duration="150"/>
    <frame tileid="94" duration="150"/>
    <frame tileid="94" duration="150"/>
    <frame tileid="94" duration="150"/>
    <frame tileid="94" duration="150"/>
    <frame tileid="118" duration="150"/>
    <frame tileid="142" duration="150"/>
   </animation>
  </tile>
  <tile id="23">
   <animation>
    <frame tileid="23" duration="150"/>
    <frame tileid="23" duration="150"/>
    <frame tileid="23" duration="150"/>
    <frame tileid="23" duration="150"/>
    <frame tileid="47" duration="150"/>
    <frame tileid="71" duration="150"/>
    <frame tileid="95" duration="150"/>
    <frame tileid="95" duration="150"/>
    <frame tileid="95" duration="150"/>
    <frame tileid="95" duration="150"/>
    <frame tileid="119" duration="150"/>
    <frame tileid="143" duration="150"/>
   </animation>
  </tile>
 </tileset>
 <layer id="11" name="Floor" width="16" height="24">
  <data encoding="csv">
   <chunk x="-16" y="-16" width="16" height="16">
0,0,0,0,0,0,0,0,0,0,0,0,0,0,0,0,
0,0,0,0,0,0,0,0,0,0,0,0,0,0,0,0,
0,0,0,0,0,0,0,0,0,0,0,0,0,0,0,0,
0,0,0,0,0,0,0,0,0,0,0,0,0,0,0,0,
0,0,0,0,0,0,0,0,0,0,0,0,0,0,0,0,
0,0,0,0,0,0,0,0,0,0,0,0,0,0,0,0,
0,0,0,0,0,0,0,0,0,0,0,0,0,0,0,0,
0,0,0,2520,2521,2522,2520,2521,2522,2522,2520,2521,2522,2520,2521,2522,
0,0,0,2541,2542,2543,2541,2542,2543,2543,2541,2542,2543,2541,2542,2543,
0,0,0,2562,2563,2564,2562,2563,2564,2564,2562,2563,2564,2562,2563,2564,
0,0,0,2473,2473,2473,2473,2473,2544,2545,2473,2473,2473,2473,2473,2473,
0,0,0,2473,2473,2473,2473,2473,2473,2473,2473,2473,2473,2473,2473,2473,
0,0,0,2473,2473,2473,2473,2473,2473,2473,2473,2473,2473,2473,2473,2473,
0,0,0,2473,2473,2473,2473,2473,2473,2473,2473,2473,2473,2473,2473,2473,
0,0,0,2473,2473,2473,2473,2473,2473,2473,2473,2473,2473,2473,2473,2473,
0,0,0,2473,2473,2473,2473,2473,2473,2473,2473,2473,2473,2473,2473,2473
</chunk>
   <chunk x="0" y="-16" width="16" height="16">
0,0,0,0,0,0,0,0,0,0,0,0,0,0,0,0,
0,0,0,0,0,0,0,0,0,0,0,0,0,0,0,0,
0,0,0,0,0,0,0,0,0,0,0,0,0,0,0,0,
0,0,0,0,0,0,0,0,0,0,0,0,0,0,0,0,
0,0,0,0,0,0,0,0,0,0,0,0,0,0,0,0,
0,0,0,0,0,0,0,0,0,0,0,0,0,0,0,0,
0,0,0,0,0,0,0,0,0,0,0,0,0,0,0,0,
2520,2521,2522,2520,2521,2522,2520,2521,2522,2520,2521,2522,0,0,0,0,
2541,2542,2543,2541,2542,2543,2541,2542,2543,2541,2542,2543,0,0,0,0,
2562,2563,2564,2562,2563,2564,2562,2563,2564,2562,2563,2564,0,0,0,0,
2473,2473,2473,2473,2473,2473,2473,2473,2473,2473,2473,2473,0,0,0,0,
2473,2473,2473,2473,2473,2473,2473,2473,2473,2473,2473,2473,0,0,0,0,
2473,2473,2473,2473,2473,2473,2473,2473,2473,2473,2473,2473,0,0,0,0,
2473,2473,2473,2473,2473,2473,2473,2473,2473,2473,2473,2473,0,0,0,0,
2473,2473,2473,2473,2473,2473,2473,2473,2473,2473,2473,2473,0,0,0,0,
2473,2473,2473,2473,2473,2473,2473,2473,2473,2473,2473,2473,0,0,0,0
</chunk>
   <chunk x="-16" y="0" width="16" height="16">
0,0,0,2473,2473,2473,2473,2473,2473,2473,2473,2473,2520,2521,2522,2473,
0,0,0,2473,2473,2473,2473,2473,2473,2473,2473,2473,2541,2542,2520,2521,
0,0,0,2473,2473,2473,2473,2473,2473,2473,2520,2521,2562,2563,2541,2542,
0,0,0,2520,2521,2522,2520,2521,2522,2473,2541,2542,2543,2521,2520,2521,
0,0,0,2541,2542,2543,2541,2542,2543,2473,2562,2563,2564,2542,2541,2542,
0,0,0,2562,2563,2564,2562,2563,2564,2541,2473,2453,2562,2563,2562,2563,
0,0,0,2449,2452,2455,2551,2452,2473,2449,2473,2559,2563,2541,2542,2541,
0,0,0,2473,2473,2473,2473,2473,2473,2473,2473,2473,2553,2453,2520,2521,
0,0,0,2473,2473,2473,2473,2473,2473,2473,2473,2473,2473,2474,2541,2542,
0,0,0,2473,2473,2473,2473,2473,2473,2473,2473,2473,2473,2532,2562,2563,
0,0,0,0,0,0,0,0,0,0,0,0,0,0,0,0,
0,0,0,0,0,0,0,0,0,0,0,0,0,0,0,0,
0,0,0,0,0,0,0,0,0,0,0,0,0,0,0,0,
0,0,0,0,0,0,0,0,0,0,0,0,0,0,0,0,
0,0,0,0,0,0,0,0,0,0,0,0,0,0,0,0,
0,0,0,0,0,0,0,0,0,0,0,0,0,0,0,0
</chunk>
   <chunk x="0" y="0" width="16" height="16">
2473,2473,2473,2473,2473,2473,2473,2473,2473,2473,2473,2473,0,0,0,0,
2522,2473,2473,2473,2473,2473,2473,2473,2473,2473,2473,2473,0,0,0,0,
2543,2516,2520,2521,2522,2473,2473,2473,2473,2473,2473,2473,0,0,0,0,
2522,2521,2541,2542,2543,2473,2520,2521,2522,2520,2521,2522,0,0,0,0,
2543,2542,2562,2563,2564,2473,2541,2542,2543,2541,2542,2543,0,0,0,0,
2564,2563,2564,2451,2473,2541,2562,2563,2564,2563,2563,2564,0,0,0,0,
2542,2563,2531,2476,2473,2452,2452,2449,2560,2449,2449,2452,0,0,0,0,
2522,2451,2552,2476,2473,2473,2473,2473,2473,2473,2473,2473,0,0,0,0,
2543,2469,2473,2476,2473,2473,2473,2473,2473,2473,2473,2473,0,0,0,0,
2564,2537,2473,2473,2473,2473,2473,2473,2473,2473,2473,2473,0,0,0,0,
0,0,0,0,0,0,0,0,0,0,0,0,0,0,0,0,
0,0,0,0,0,0,0,0,0,0,0,0,0,0,0,0,
0,0,0,0,0,0,0,0,0,0,0,0,0,0,0,0,
0,0,0,0,0,0,0,0,0,0,0,0,0,0,0,0,
0,0,0,0,0,0,0,0,0,0,0,0,0,0,0,0,
0,0,0,0,0,0,0,0,0,0,0,0,0,0,0,0
</chunk>
  </data>
 </layer>
 <layer id="12" name="Bricks" width="16" height="24">
  <data encoding="csv">
   <chunk x="-16" y="0" width="16" height="16">
0,0,0,0,0,0,0,0,0,0,0,0,0,0,0,0,
0,0,0,0,0,0,0,0,0,0,0,0,0,0,0,0,
0,0,0,0,0,0,0,0,0,0,0,0,0,0,0,0,
0,0,0,0,0,0,0,0,0,0,0,0,0,0,0,0,
0,0,0,0,0,0,0,0,0,0,0,0,0,0,0,0,
0,0,0,0,0,0,0,0,0,2525,2526,0,0,0,0,0,
0,0,0,0,0,0,0,0,2528,2546,2547,0,0,0,0,0,
0,0,0,0,0,0,0,0,0,2565,0,2568,0,0,0,0,
0,0,0,0,0,0,0,0,0,0,0,0,2549,0,0,0,
0,0,0,0,0,0,0,0,0,0,0,0,0,0,0,0,
0,0,0,0,0,0,0,0,0,0,0,0,0,0,0,0,
0,0,0,0,0,0,0,0,0,0,0,0,0,0,0,0,
0,0,0,0,0,0,0,0,0,0,0,0,0,0,0,0,
0,0,0,0,0,0,0,0,0,0,0,0,0,0,0,0,
0,0,0,0,0,0,0,0,0,0,0,0,0,0,0,0,
0,0,0,0,0,0,0,0,0,0,0,0,0,0,0,0
</chunk>
   <chunk x="0" y="0" width="16" height="16">
0,0,0,0,0,0,0,0,0,0,0,0,0,0,0,0,
0,0,0,0,0,0,0,0,0,0,0,0,0,0,0,0,
0,0,0,0,0,0,0,0,0,0,0,0,0,0,0,0,
0,0,0,0,0,0,0,0,0,0,0,0,0,0,0,0,
0,0,0,0,0,0,0,0,0,0,0,0,0,0,0,0,
0,0,0,0,2523,0,0,0,0,0,0,0,0,0,0,0,
0,0,0,2565,2544,0,0,0,0,0,0,0,0,0,0,0,
0,0,0,0,2527,0,0,0,0,0,0,0,0,0,0,0,
0,0,2565,0,0,0,0,0,0,0,0,0,0,0,0,0,
0,0,0,0,0,0,0,0,0,0,0,0,0,0,0,0,
0,0,0,0,0,0,0,0,0,0,0,0,0,0,0,0,
0,0,0,0,0,0,0,0,0,0,0,0,0,0,0,0,
0,0,0,0,0,0,0,0,0,0,0,0,0,0,0,0,
0,0,0,0,0,0,0,0,0,0,0,0,0,0,0,0,
0,0,0,0,0,0,0,0,0,0,0,0,0,0,0,0,
0,0,0,0,0,0,0,0,0,0,0,0,0,0,0,0
</chunk>
  </data>
 </layer>
 <layer id="9" name="Walls" width="16" height="24">
  <data encoding="csv">
   <chunk x="-16" y="-16" width="16" height="16">
0,0,0,0,0,0,0,0,0,0,0,0,0,0,0,0,
0,0,0,0,0,0,0,0,0,0,0,0,0,0,0,0,
0,0,0,0,0,0,0,0,0,0,0,0,0,0,0,0,
0,0,0,0,0,0,0,0,0,0,0,0,0,0,0,0,
0,0,0,0,0,0,0,0,0,0,0,0,0,0,0,0,
0,0,0,0,0,0,0,0,0,0,0,0,0,0,0,0,
0,0,0,0,0,0,0,0,0,0,0,0,0,0,0,0,
0,0,0,0,0,0,0,0,0,0,0,0,0,0,0,0,
0,0,0,0,0,0,0,0,0,0,0,0,0,0,0,0,
0,0,0,2194,2194,2194,2194,2194,2194,2194,2194,2194,2194,2194,2194,2194,
0,0,0,2396,2396,2396,2396,2396,2418,2396,2396,2396,2417,2397,2396,2396,
0,0,0,2396,2396,2396,2398,2417,2419,2396,2396,2199,2236,2236,2236,2236,
0,0,0,2236,2236,2236,2236,2211,2396,2210,2236,2220,2257,2257,2257,2257,
0,0,0,2257,2257,2869,2257,2213,2417,2212,2257,2325,2793,2312,2314,2312,
0,0,0,2314,2312,2736,2314,2318,2236,2317,2314,2346,2385,2385,2385,2385,
0,0,0,2385,2385,2385,2385,2339,2698,2338,2385,2385,2385,2385,2385,2385
</chunk>
   <chunk x="0" y="-16" width="16" height="16">
0,0,0,0,0,0,0,0,0,0,0,0,0,0,0,0,
0,0,0,0,0,0,0,0,0,0,0,0,0,0,0,0,
0,0,0,0,0,0,0,0,0,0,0,0,0,0,0,0,
0,0,0,0,0,0,0,0,0,0,0,0,0,0,0,0,
0,0,0,0,0,0,0,0,0,0,0,0,0,0,0,0,
0,0,0,0,0,0,0,0,0,0,0,0,0,0,0,0,
0,0,0,0,0,0,0,0,0,0,0,0,0,0,0,0,
0,0,0,0,0,0,0,0,0,0,0,0,0,0,0,0,
0,0,0,0,0,0,0,0,0,0,0,0,0,0,0,0,
2194,2194,2194,2194,2194,2194,2194,2194,2194,2194,2194,2194,0,0,0,0,
2396,2418,2396,2396,2396,2398,2396,2396,2396,2396,2396,2396,0,0,0,0,
2236,2236,2236,2200,2396,2418,2396,2396,2398,2396,2396,2396,0,0,0,0,
2257,2257,2698,2221,2236,2208,2417,2210,2236,2236,2236,2236,0,0,0,0,
2313,2314,2736,2326,2926,2213,2397,2212,2257,2698,2257,2257,0,0,0,0,
2385,2385,2385,2347,2312,2318,2236,2317,2312,2313,2314,2312,0,0,0,0,
2385,2385,2385,2385,2385,2339,2755,2338,2385,2385,2385,2385,0,0,0,0
</chunk>
   <chunk x="-16" y="0" width="16" height="16">
0,0,0,2385,2385,2385,2385,2360,2320,2359,2676,2676,2676,2676,2676,2676,
0,0,0,2676,2676,2676,2676,2676,2676,2676,2676,2676,2676,2676,2676,2676,
0,0,0,2676,2676,2676,2676,2676,2676,2676,2571,2572,2573,2574,2575,2576,
0,0,0,2406,2411,2412,2413,2388,2676,2676,2592,2593,2594,2595,2596,2597,
0,0,0,0,0,0,0,2384,2676,2676,2613,2614,0,0,0,0,
0,0,0,0,0,0,0,2405,2412,2413,2646,0,0,0,0,0,
0,0,0,0,0,0,0,0,0,0,0,0,0,0,0,0,
0,0,0,0,0,0,0,0,0,0,0,0,0,0,0,0,
0,0,0,0,0,0,0,0,0,0,0,0,0,0,0,0,
0,0,0,0,0,0,0,0,0,0,0,0,0,0,0,0,
0,0,0,0,0,0,0,0,0,0,0,0,0,0,0,0,
0,0,0,0,0,0,0,0,0,0,0,0,0,0,0,0,
0,0,0,0,0,0,0,0,0,0,0,0,0,0,0,0,
0,0,0,0,0,0,0,0,0,0,0,0,0,0,0,0,
0,0,0,0,0,0,0,0,0,0,0,0,0,0,0,0,
0,0,0,0,0,0,0,0,0,0,0,0,0,0,0,0
</chunk>
   <chunk x="0" y="0" width="16" height="16">
2676,2676,2676,2676,2385,2360,2907,2359,2385,2385,2385,2385,0,0,0,0,
2676,2676,2676,2676,2676,2676,2676,2676,2676,2676,2676,2676,0,0,0,0,
2577,2578,2579,2580,2581,2676,2676,2676,2676,2676,2676,2676,0,0,0,0,
2598,2599,2600,2601,2602,2676,2676,2387,2411,2412,2413,2406,0,0,0,0,
0,0,0,0,2623,2676,2676,2386,0,0,0,0,0,0,0,0,
0,0,0,0,2649,2411,2412,2407,0,0,0,0,0,0,0,0,
0,0,0,0,0,0,0,0,0,0,0,0,0,0,0,0,
0,0,0,0,0,0,0,0,0,0,0,0,0,0,0,0,
0,0,0,0,0,0,0,0,0,0,0,0,0,0,0,0,
0,0,0,0,0,0,0,0,0,0,0,0,0,0,0,0,
0,0,0,0,0,0,0,0,0,0,0,0,0,0,0,0,
0,0,0,0,0,0,0,0,0,0,0,0,0,0,0,0,
0,0,0,0,0,0,0,0,0,0,0,0,0,0,0,0,
0,0,0,0,0,0,0,0,0,0,0,0,0,0,0,0,
0,0,0,0,0,0,0,0,0,0,0,0,0,0,0,0,
0,0,0,0,0,0,0,0,0,0,0,0,0,0,0,0
</chunk>
  </data>
 </layer>
 <layer id="13" name="Grass_details" width="16" height="24">
  <data encoding="csv">
   <chunk x="-16" y="-16" width="16" height="16">
0,0,0,0,0,0,0,0,0,0,0,0,0,0,0,0,
0,0,0,0,0,0,0,0,0,0,0,0,0,0,0,0,
0,0,0,0,0,0,0,0,0,0,0,0,0,0,0,0,
0,0,0,0,0,0,0,0,0,0,0,0,0,0,0,0,
0,0,0,0,0,0,0,0,0,0,0,0,0,0,0,0,
0,0,0,0,0,0,0,0,0,0,0,0,0,0,0,0,
0,0,0,0,0,0,0,0,0,0,0,0,0,0,0,0,
0,0,0,0,0,0,0,0,0,0,0,0,0,0,0,0,
0,0,0,0,0,0,0,0,0,0,0,0,0,0,0,0,
0,0,0,0,0,0,0,0,0,0,0,0,0,0,0,0,
0,0,0,0,0,0,0,0,0,0,0,0,0,0,0,0,
0,0,0,0,0,0,0,0,0,0,0,0,0,0,0,0,
0,0,0,0,0,0,0,0,0,0,0,0,0,0,0,0,
0,0,0,0,0,0,0,0,0,0,0,0,0,0,0,0,
0,0,0,0,0,0,0,0,0,0,0,0,2458,2459,0,0,
0,0,0,0,2505,2506,2507,0,0,0,0,2440,0,0,0,0
</chunk>
   <chunk x="0" y="-16" width="16" height="16">
0,0,0,0,0,0,0,0,0,0,0,0,0,0,0,0,
0,0,0,0,0,0,0,0,0,0,0,0,0,0,0,0,
0,0,0,0,0,0,0,0,0,0,0,0,0,0,0,0,
0,0,0,0,0,0,0,0,0,0,0,0,0,0,0,0,
0,0,0,0,0,0,0,0,0,0,0,0,0,0,0,0,
0,0,0,0,0,0,0,0,0,0,0,0,0,0,0,0,
0,0,0,0,0,0,0,0,0,0,0,0,0,0,0,0,
0,0,0,0,0,0,0,0,0,0,0,0,0,0,0,0,
0,0,0,0,0,0,0,0,0,0,0,0,0,0,0,0,
0,0,0,0,0,0,0,0,0,0,0,0,0,0,0,0,
0,0,0,0,0,0,0,0,0,0,0,0,0,0,0,0,
0,0,0,0,0,0,0,0,0,0,0,0,0,0,0,0,
0,0,0,0,0,0,0,0,0,0,0,0,0,0,0,0,
0,0,0,0,0,0,0,0,0,0,0,0,0,0,0,0,
0,2505,2506,2507,0,0,0,0,0,0,0,0,0,0,0,0,
0,0,2465,0,0,0,0,0,2458,2459,2439,0,0,0,0,0
</chunk>
   <chunk x="-16" y="0" width="16" height="16">
0,0,0,2147486111,0,2439,0,0,0,0,0,2461,0,0,0,0,
0,0,0,0,2465,2440,2438,2441,2442,0,2147486113,0,0,0,0,0,
0,0,0,0,0,2461,2443,2444,2147486092,2147486091,2482,2483,2484,0,0,0,
0,0,0,0,0,0,0,0,0,2441,2442,0,0,0,0,0,
0,0,0,0,0,0,0,0,2482,2483,2484,0,0,0,0,0,
0,0,0,0,0,0,0,0,0,0,0,0,0,0,0,0,
0,0,0,0,0,0,0,0,0,0,0,0,0,0,0,0,
0,0,0,0,0,0,0,0,0,0,0,0,0,0,0,0,
0,0,0,0,0,0,0,0,0,0,0,0,0,0,0,0,
0,0,0,0,0,0,0,0,0,0,0,0,0,0,0,0,
0,0,0,0,0,0,0,0,0,0,0,0,0,0,0,0,
0,0,0,0,0,0,0,0,0,0,0,0,0,0,0,0,
0,0,0,0,0,0,0,0,0,0,0,0,0,0,0,0,
0,0,0,0,0,0,0,0,0,0,0,0,0,0,0,0,
0,0,0,0,0,0,0,0,0,0,0,0,0,0,0,0,
0,0,0,0,0,0,0,0,0,0,0,0,0,0,0,0
</chunk>
   <chunk x="0" y="0" width="16" height="16">
0,0,0,2486,0,0,0,0,2460,2438,0,2502,0,0,0,0,
0,0,0,2485,0,2440,2443,2444,0,0,2462,0,0,0,0,0,
0,0,2441,2442,2465,2461,2440,2482,2483,2484,0,0,0,0,0,0,
0,0,0,0,2463,2464,2461,0,0,0,0,0,0,0,0,0,
0,0,0,0,2147486132,2147486131,2147486130,0,0,0,0,0,0,0,0,0,
0,0,0,0,0,0,0,0,0,0,0,0,0,0,0,0,
0,0,0,0,0,0,0,0,0,0,0,0,0,0,0,0,
0,0,0,0,0,0,0,0,0,0,0,0,0,0,0,0,
0,0,0,0,0,0,0,0,0,0,0,0,0,0,0,0,
0,0,0,0,0,0,0,0,0,0,0,0,0,0,0,0,
0,0,0,0,0,0,0,0,0,0,0,0,0,0,0,0,
0,0,0,0,0,0,0,0,0,0,0,0,0,0,0,0,
0,0,0,0,0,0,0,0,0,0,0,0,0,0,0,0,
0,0,0,0,0,0,0,0,0,0,0,0,0,0,0,0,
0,0,0,0,0,0,0,0,0,0,0,0,0,0,0,0,
0,0,0,0,0,0,0,0,0,0,0,0,0,0,0,0
</chunk>
  </data>
 </layer>
 <layer id="4" name="Dragon_body_back" width="16" height="24">
  <data encoding="csv">
   <chunk x="-16" y="0" width="16" height="16">
0,0,0,0,0,0,0,0,0,0,0,0,0,0,0,0,
0,0,0,0,0,0,0,0,0,0,0,0,0,0,0,0,
0,0,0,0,0,0,0,0,0,0,0,631,632,633,0,0,
0,0,0,0,0,0,0,0,0,0,0,649,650,651,0,0,
0,0,0,0,0,0,0,0,0,0,0,667,668,669,0,0,
0,0,0,0,0,0,0,0,0,0,0,0,0,0,0,0,
0,0,0,0,0,0,0,0,0,0,0,0,0,0,0,0,
0,0,0,0,0,0,0,0,0,0,0,0,0,0,0,0,
0,0,0,0,0,0,0,0,0,0,0,0,0,0,0,0,
0,0,0,0,0,0,0,0,0,0,0,0,0,0,0,0,
0,0,0,0,0,0,0,0,0,0,0,0,0,0,0,0,
0,0,0,0,0,0,0,0,0,0,0,0,0,0,0,0,
0,0,0,0,0,0,0,0,0,0,0,0,0,0,0,0,
0,0,0,0,0,0,0,0,0,0,0,0,0,0,0,0,
0,0,0,0,0,0,0,0,0,0,0,0,0,0,0,0,
0,0,0,0,0,0,0,0,0,0,0,0,0,0,0,0
</chunk>
  </data>
 </layer>
 <layer id="2" name="Platform" width="16" height="24">
  <data encoding="csv">
   <chunk x="-16" y="0" width="16" height="16">
0,0,0,0,0,0,0,0,0,0,0,0,0,0,0,0,
0,0,0,0,0,0,0,0,0,0,0,0,0,0,0,0,
0,0,0,0,0,0,0,0,0,0,0,0,0,0,0,0,
0,0,0,0,0,0,0,0,0,0,0,14,15,16,17,18,
0,0,0,0,0,0,0,0,0,0,0,40,41,42,43,44,
0,0,0,0,0,0,0,0,0,0,0,66,67,68,69,70,
0,0,0,0,0,0,0,0,0,0,0,92,93,94,95,96,
0,0,0,0,0,0,0,0,0,0,0,0,0,0,0,0,
0,0,0,0,0,0,0,0,0,0,0,0,0,0,0,0,
0,0,0,0,0,0,0,0,0,0,0,0,0,0,0,0,
0,0,0,0,0,0,0,0,0,0,0,0,0,0,0,0,
0,0,0,0,0,0,0,0,0,0,0,0,0,0,0,0,
0,0,0,0,0,0,0,0,0,0,0,0,0,0,0,0,
0,0,0,0,0,0,0,0,0,0,0,0,0,0,0,0,
0,0,0,0,0,0,0,0,0,0,0,0,0,0,0,0,
0,0,0,0,0,0,0,0,0,0,0,0,0,0,0,0
</chunk>
   <chunk x="0" y="0" width="16" height="16">
0,0,0,0,0,0,0,0,0,0,0,0,0,0,0,0,
0,0,0,0,0,0,0,0,0,0,0,0,0,0,0,0,
0,0,0,0,0,0,0,0,0,0,0,0,0,0,0,0,
19,20,21,22,0,0,0,0,0,0,0,0,0,0,0,0,
45,46,47,48,0,0,0,0,0,0,0,0,0,0,0,0,
71,72,73,74,0,0,0,0,0,0,0,0,0,0,0,0,
97,98,99,100,0,0,0,0,0,0,0,0,0,0,0,0,
0,0,0,0,0,0,0,0,0,0,0,0,0,0,0,0,
0,0,0,0,0,0,0,0,0,0,0,0,0,0,0,0,
0,0,0,0,0,0,0,0,0,0,0,0,0,0,0,0,
0,0,0,0,0,0,0,0,0,0,0,0,0,0,0,0,
0,0,0,0,0,0,0,0,0,0,0,0,0,0,0,0,
0,0,0,0,0,0,0,0,0,0,0,0,0,0,0,0,
0,0,0,0,0,0,0,0,0,0,0,0,0,0,0,0,
0,0,0,0,0,0,0,0,0,0,0,0,0,0,0,0,
0,0,0,0,0,0,0,0,0,0,0,0,0,0,0,0
</chunk>
  </data>
 </layer>
 <layer id="3" name="Wing" width="16" height="24">
  <data encoding="csv">
   <chunk x="-16" y="-16" width="16" height="16">
0,0,0,0,0,0,0,0,0,0,0,0,0,0,0,0,
0,0,0,0,0,0,0,0,0,0,0,0,0,0,0,0,
0,0,0,0,0,0,0,0,0,0,0,0,0,0,0,0,
0,0,0,0,0,0,0,0,0,0,0,0,0,0,0,0,
0,0,0,0,0,0,0,0,0,0,0,0,0,0,0,0,
0,0,0,0,0,0,0,0,0,0,0,0,0,0,0,0,
0,0,0,0,0,0,0,0,0,0,0,0,0,0,0,0,
0,0,0,0,0,0,0,0,0,0,0,0,0,0,0,0,
0,0,0,0,0,0,0,0,0,0,0,0,0,0,0,0,
0,0,0,0,0,0,0,0,0,0,0,0,0,0,0,0,
0,0,0,0,0,0,0,0,0,0,0,0,0,0,0,0,
0,0,0,0,0,0,0,0,0,0,0,0,0,0,0,0,
0,0,0,0,0,0,0,0,0,0,0,0,0,0,0,0,
0,0,0,0,0,0,0,0,0,0,0,0,0,0,0,0,
0,0,0,0,0,0,0,0,0,0,0,0,0,0,0,0,
0,0,0,0,0,0,0,391,392,393,394,395,0,0,0,0
</chunk>
   <chunk x="-16" y="0" width="16" height="16">
0,0,0,0,0,0,0,421,422,423,424,425,0,0,0,0,
0,0,0,0,0,0,0,451,452,453,454,455,0,0,0,0,
0,0,0,0,0,0,0,481,482,483,484,485,0,0,0,0,
0,0,0,0,0,0,0,511,512,513,514,515,0,0,0,0,
0,0,0,0,0,0,0,541,542,543,544,545,0,0,0,0,
0,0,0,0,0,0,0,571,572,573,574,575,0,0,0,0,
0,0,0,0,0,0,0,601,602,603,604,605,0,0,0,0,
0,0,0,0,0,0,0,0,0,0,0,0,0,0,0,0,
0,0,0,0,0,0,0,0,0,0,0,0,0,0,0,0,
0,0,0,0,0,0,0,0,0,0,0,0,0,0,0,0,
0,0,0,0,0,0,0,0,0,0,0,0,0,0,0,0,
0,0,0,0,0,0,0,0,0,0,0,0,0,0,0,0,
0,0,0,0,0,0,0,0,0,0,0,0,0,0,0,0,
0,0,0,0,0,0,0,0,0,0,0,0,0,0,0,0,
0,0,0,0,0,0,0,0,0,0,0,0,0,0,0,0,
0,0,0,0,0,0,0,0,0,0,0,0,0,0,0,0
</chunk>
  </data>
 </layer>
 <layer id="7" name="Tail" width="16" height="24">
  <data encoding="csv">
   <chunk x="0" y="0" width="16" height="16">
0,0,0,0,0,0,0,0,0,0,0,0,0,0,0,0,
0,0,0,0,0,0,0,0,0,0,0,0,0,0,0,0,
0,1525,1526,1527,1528,0,0,0,0,0,0,0,0,0,0,0,
0,1585,1586,1587,1588,0,0,0,0,0,0,0,0,0,0,0,
0,1645,1646,1647,1648,0,0,0,0,0,0,0,0,0,0,0,
0,1705,1706,1707,1708,0,0,0,0,0,0,0,0,0,0,0,
0,1765,1766,1767,1768,0,0,0,0,0,0,0,0,0,0,0,
0,0,0,0,0,0,0,0,0,0,0,0,0,0,0,0,
0,0,0,0,0,0,0,0,0,0,0,0,0,0,0,0,
0,0,0,0,0,0,0,0,0,0,0,0,0,0,0,0,
0,0,0,0,0,0,0,0,0,0,0,0,0,0,0,0,
0,0,0,0,0,0,0,0,0,0,0,0,0,0,0,0,
0,0,0,0,0,0,0,0,0,0,0,0,0,0,0,0,
0,0,0,0,0,0,0,0,0,0,0,0,0,0,0,0,
0,0,0,0,0,0,0,0,0,0,0,0,0,0,0,0,
0,0,0,0,0,0,0,0,0,0,0,0,0,0,0,0
</chunk>
  </data>
 </layer>
 <layer id="1" name="Tower" width="16" height="24">
  <data encoding="csv">
   <chunk x="-16" y="-16" width="16" height="16">
0,0,0,0,0,0,0,0,0,0,0,0,0,0,0,0,
0,0,0,0,0,0,0,0,0,0,0,0,0,0,0,0,
0,0,0,0,0,0,0,0,0,0,0,0,0,0,0,0,
0,0,0,0,0,0,0,0,0,0,0,0,0,0,0,0,
0,0,0,0,0,0,0,0,0,0,0,0,0,0,0,0,
0,0,0,0,0,0,0,0,0,0,0,0,0,0,0,0,
0,0,0,0,0,0,0,0,0,0,0,0,0,0,0,0,
0,0,0,0,0,0,0,0,0,0,0,0,0,0,0,0,
0,0,0,0,0,0,0,0,0,0,0,0,34,35,36,37,
0,0,0,0,0,0,0,0,0,0,0,0,60,61,62,63,
0,0,0,0,0,0,0,0,0,0,0,0,86,87,88,89,
0,0,0,0,0,0,0,0,0,0,0,0,112,113,114,115,
0,0,0,0,0,0,0,0,0,0,0,0,138,139,140,141,
0,0,0,0,0,0,0,0,0,0,0,0,164,165,166,167,
0,0,0,0,0,0,0,0,0,0,0,0,190,191,192,193,
0,0,0,0,0,0,0,0,0,0,0,0,216,217,218,219
</chunk>
   <chunk x="0" y="-16" width="16" height="16">
0,0,0,0,0,0,0,0,0,0,0,0,0,0,0,0,
0,0,0,0,0,0,0,0,0,0,0,0,0,0,0,0,
0,0,0,0,0,0,0,0,0,0,0,0,0,0,0,0,
0,0,0,0,0,0,0,0,0,0,0,0,0,0,0,0,
0,0,0,0,0,0,0,0,0,0,0,0,0,0,0,0,
0,0,0,0,0,0,0,0,0,0,0,0,0,0,0,0,
0,0,0,0,0,0,0,0,0,0,0,0,0,0,0,0,
0,0,0,0,0,0,0,0,0,0,0,0,0,0,0,0,
38,39,40,0,0,0,0,0,0,0,0,0,0,0,0,0,
64,65,66,0,0,0,0,0,0,0,0,0,0,0,0,0,
90,91,92,0,0,0,0,0,0,0,0,0,0,0,0,0,
116,117,118,0,0,0,0,0,0,0,0,0,0,0,0,0,
142,143,144,0,0,0,0,0,0,0,0,0,0,0,0,0,
168,169,170,0,0,0,0,0,0,0,0,0,0,0,0,0,
194,195,196,0,0,0,0,0,0,0,0,0,0,0,0,0,
220,221,222,0,0,0,0,0,0,0,0,0,0,0,0,0
</chunk>
   <chunk x="-16" y="0" width="16" height="16">
0,0,0,0,0,0,0,0,0,0,0,0,242,243,244,245,
0,0,0,0,0,0,0,0,0,0,0,0,268,269,270,271,
0,0,0,0,0,0,0,0,0,0,0,0,294,295,296,297,
0,0,0,0,0,0,0,0,0,0,0,0,320,321,2985,2986,
0,0,0,0,0,0,0,0,0,0,0,0,346,347,2993,2994,
0,0,0,0,0,0,0,0,0,0,0,0,372,373,3001,3002,
0,0,0,0,0,0,0,0,0,0,0,0,0,0,0,0,
0,0,0,0,0,0,0,0,0,0,0,0,0,0,0,0,
0,0,0,0,0,0,0,0,0,0,0,0,0,0,0,0,
0,0,0,0,0,0,0,0,0,0,0,0,0,0,0,0,
0,0,0,0,0,0,0,0,0,0,0,0,0,0,0,0,
0,0,0,0,0,0,0,0,0,0,0,0,0,0,0,0,
0,0,0,0,0,0,0,0,0,0,0,0,0,0,0,0,
0,0,0,0,0,0,0,0,0,0,0,0,0,0,0,0,
0,0,0,0,0,0,0,0,0,0,0,0,0,0,0,0,
0,0,0,0,0,0,0,0,0,0,0,0,0,0,0,0
</chunk>
   <chunk x="0" y="0" width="16" height="16">
246,247,248,0,0,0,0,0,0,0,0,0,0,0,0,0,
272,273,274,0,0,0,0,0,0,0,0,0,0,0,0,0,
298,299,300,0,0,0,0,0,0,0,0,0,0,0,0,0,
2987,325,326,0,0,0,0,0,0,0,0,0,0,0,0,0,
2995,351,352,0,0,0,0,0,0,0,0,0,0,0,0,0,
3003,377,378,0,0,0,0,0,0,0,0,0,0,0,0,0,
0,0,0,0,0,0,0,0,0,0,0,0,0,0,0,0,
0,0,0,0,0,0,0,0,0,0,0,0,0,0,0,0,
0,0,0,0,0,0,0,0,0,0,0,0,0,0,0,0,
0,0,0,0,0,0,0,0,0,0,0,0,0,0,0,0,
0,0,0,0,0,0,0,0,0,0,0,0,0,0,0,0,
0,0,0,0,0,0,0,0,0,0,0,0,0,0,0,0,
0,0,0,0,0,0,0,0,0,0,0,0,0,0,0,0,
0,0,0,0,0,0,0,0,0,0,0,0,0,0,0,0,
0,0,0,0,0,0,0,0,0,0,0,0,0,0,0,0,
0,0,0,0,0,0,0,0,0,0,0,0,0,0,0,0
</chunk>
  </data>
 </layer>
 <layer id="6" name="Dragon_body" width="16" height="24">
  <data encoding="csv">
   <chunk x="-16" y="0" width="16" height="16">
0,0,0,0,0,0,0,0,0,0,685,686,687,688,689,0,
0,0,0,0,0,0,0,0,0,0,805,806,807,808,809,0,
0,0,0,0,0,0,0,0,0,0,925,926,927,928,929,0,
0,0,0,0,0,0,0,0,0,0,1045,1046,1047,1048,1049,0,
0,0,0,0,0,0,0,0,0,0,1165,1166,1167,1168,1169,0,
0,0,0,0,0,0,0,0,0,0,1285,1286,1287,1288,1289,0,
0,0,0,0,0,0,0,0,0,0,1405,1406,1407,1408,1409,0,
0,0,0,0,0,0,0,0,0,0,0,0,0,0,0,0,
0,0,0,0,0,0,0,0,0,0,0,0,0,0,0,0,
0,0,0,0,0,0,0,0,0,0,0,0,0,0,0,0,
0,0,0,0,0,0,0,0,0,0,0,0,0,0,0,0,
0,0,0,0,0,0,0,0,0,0,0,0,0,0,0,0,
0,0,0,0,0,0,0,0,0,0,0,0,0,0,0,0,
0,0,0,0,0,0,0,0,0,0,0,0,0,0,0,0,
0,0,0,0,0,0,0,0,0,0,0,0,0,0,0,0,
0,0,0,0,0,0,0,0,0,0,0,0,0,0,0,0
</chunk>
  </data>
 </layer>
</map>
