<?xml version="1.0" encoding="UTF-8"?>
<map version="1.10" tiledversion="1.10.2" orientation="orthogonal" renderorder="right-down" width="16" height="24" tilewidth="16" tileheight="16" infinite="0" nextlayerid="9" nextobjectid="1">
 <tileset firstgid="1" name="Slime1_Attack_full" tilewidth="16" tileheight="16" tilecount="640" columns="40">
  <image source="Slime1_Attack_with_shadow.png" width="640" height="256"/>
  <tile id="0">
   <animation>
    <frame tileid="0" duration="150"/>
    <frame tileid="4" duration="150"/>
    <frame tileid="8" duration="150"/>
    <frame tileid="12" duration="150"/>
    <frame tileid="16" duration="150"/>
    <frame tileid="20" duration="150"/>
    <frame tileid="24" duration="150"/>
    <frame tileid="28" duration="150"/>
    <frame tileid="32" duration="150"/>
    <frame tileid="36" duration="150"/>
   </animation>
  </tile>
  <tile id="1">
   <animation>
    <frame tileid="1" duration="150"/>
    <frame tileid="5" duration="150"/>
    <frame tileid="9" duration="150"/>
    <frame tileid="13" duration="150"/>
    <frame tileid="17" duration="150"/>
    <frame tileid="21" duration="150"/>
    <frame tileid="25" duration="150"/>
    <frame tileid="29" duration="150"/>
    <frame tileid="33" duration="150"/>
    <frame tileid="37" duration="150"/>
   </animation>
  </tile>
  <tile id="2">
   <animation>
    <frame tileid="2" duration="150"/>
    <frame tileid="6" duration="150"/>
    <frame tileid="10" duration="150"/>
    <frame tileid="14" duration="150"/>
    <frame tileid="18" duration="150"/>
    <frame tileid="22" duration="150"/>
    <frame tileid="26" duration="150"/>
    <frame tileid="30" duration="150"/>
    <frame tileid="34" duration="150"/>
    <frame tileid="38" duration="150"/>
   </animation>
  </tile>
  <tile id="3">
   <animation>
    <frame tileid="3" duration="150"/>
    <frame tileid="7" duration="150"/>
    <frame tileid="11" duration="150"/>
    <frame tileid="15" duration="150"/>
    <frame tileid="19" duration="150"/>
    <frame tileid="23" duration="150"/>
    <frame tileid="27" duration="150"/>
    <frame tileid="31" duration="150"/>
    <frame tileid="35" duration="150"/>
    <frame tileid="39" duration="150"/>
   </animation>
  </tile>
  <tile id="40">
   <animation>
    <frame tileid="40" duration="150"/>
    <frame tileid="44" duration="150"/>
    <frame tileid="48" duration="150"/>
    <frame tileid="52" duration="150"/>
    <frame tileid="56" duration="150"/>
    <frame tileid="60" duration="150"/>
    <frame tileid="64" duration="150"/>
    <frame tileid="68" duration="150"/>
    <frame tileid="72" duration="150"/>
    <frame tileid="76" duration="150"/>
   </animation>
  </tile>
  <tile id="41">
   <animation>
    <frame tileid="41" duration="150"/>
    <frame tileid="45" duration="150"/>
    <frame tileid="49" duration="150"/>
    <frame tileid="53" duration="150"/>
    <frame tileid="57" duration="150"/>
    <frame tileid="61" duration="150"/>
    <frame tileid="65" duration="150"/>
    <frame tileid="69" duration="150"/>
    <frame tileid="73" duration="150"/>
    <frame tileid="77" duration="150"/>
   </animation>
  </tile>
  <tile id="42">
   <animation>
    <frame tileid="42" duration="150"/>
    <frame tileid="46" duration="150"/>
    <frame tileid="50" duration="150"/>
    <frame tileid="54" duration="150"/>
    <frame tileid="58" duration="150"/>
    <frame tileid="62" duration="150"/>
    <frame tileid="66" duration="150"/>
    <frame tileid="70" duration="150"/>
    <frame tileid="74" duration="150"/>
    <frame tileid="78" duration="150"/>
   </animation>
  </tile>
  <tile id="43">
   <animation>
    <frame tileid="43" duration="150"/>
    <frame tileid="47" duration="150"/>
    <frame tileid="51" duration="150"/>
    <frame tileid="55" duration="150"/>
    <frame tileid="59" duration="150"/>
    <frame tileid="63" duration="150"/>
    <frame tileid="67" duration="150"/>
    <frame tileid="71" duration="150"/>
    <frame tileid="75" duration="150"/>
    <frame tileid="79" duration="150"/>
   </animation>
  </tile>
  <tile id="80">
   <animation>
    <frame tileid="80" duration="150"/>
    <frame tileid="84" duration="150"/>
    <frame tileid="88" duration="150"/>
    <frame tileid="92" duration="150"/>
    <frame tileid="96" duration="150"/>
    <frame tileid="100" duration="150"/>
    <frame tileid="104" duration="150"/>
    <frame tileid="108" duration="150"/>
    <frame tileid="112" duration="150"/>
    <frame tileid="116" duration="150"/>
   </animation>
  </tile>
  <tile id="81">
   <animation>
    <frame tileid="81" duration="150"/>
    <frame tileid="85" duration="150"/>
    <frame tileid="89" duration="150"/>
    <frame tileid="93" duration="150"/>
    <frame tileid="97" duration="150"/>
    <frame tileid="101" duration="150"/>
    <frame tileid="105" duration="150"/>
    <frame tileid="109" duration="150"/>
    <frame tileid="113" duration="150"/>
    <frame tileid="117" duration="150"/>
   </animation>
  </tile>
  <tile id="82">
   <animation>
    <frame tileid="82" duration="150"/>
    <frame tileid="86" duration="150"/>
    <frame tileid="90" duration="150"/>
    <frame tileid="94" duration="150"/>
    <frame tileid="98" duration="150"/>
    <frame tileid="102" duration="150"/>
    <frame tileid="106" duration="150"/>
    <frame tileid="110" duration="150"/>
    <frame tileid="114" duration="150"/>
    <frame tileid="118" duration="150"/>
   </animation>
  </tile>
  <tile id="83">
   <animation>
    <frame tileid="83" duration="150"/>
    <frame tileid="87" duration="150"/>
    <frame tileid="91" duration="150"/>
    <frame tileid="95" duration="150"/>
    <frame tileid="99" duration="150"/>
    <frame tileid="103" duration="150"/>
    <frame tileid="107" duration="150"/>
    <frame tileid="111" duration="150"/>
    <frame tileid="115" duration="150"/>
    <frame tileid="119" duration="150"/>
   </animation>
  </tile>
  <tile id="120">
   <animation>
    <frame tileid="120" duration="150"/>
    <frame tileid="124" duration="150"/>
    <frame tileid="128" duration="150"/>
    <frame tileid="132" duration="150"/>
    <frame tileid="136" duration="150"/>
    <frame tileid="140" duration="150"/>
    <frame tileid="144" duration="150"/>
    <frame tileid="148" duration="150"/>
    <frame tileid="152" duration="150"/>
    <frame tileid="156" duration="150"/>
   </animation>
  </tile>
  <tile id="121">
   <animation>
    <frame tileid="121" duration="150"/>
    <frame tileid="125" duration="150"/>
    <frame tileid="129" duration="150"/>
    <frame tileid="133" duration="150"/>
    <frame tileid="137" duration="150"/>
    <frame tileid="141" duration="150"/>
    <frame tileid="145" duration="150"/>
    <frame tileid="149" duration="150"/>
    <frame tileid="153" duration="150"/>
    <frame tileid="157" duration="150"/>
   </animation>
  </tile>
  <tile id="122">
   <animation>
    <frame tileid="122" duration="150"/>
    <frame tileid="126" duration="150"/>
    <frame tileid="130" duration="150"/>
    <frame tileid="134" duration="150"/>
    <frame tileid="138" duration="150"/>
    <frame tileid="142" duration="150"/>
    <frame tileid="146" duration="150"/>
    <frame tileid="150" duration="150"/>
    <frame tileid="154" duration="150"/>
    <frame tileid="158" duration="150"/>
   </animation>
  </tile>
  <tile id="123">
   <animation>
    <frame tileid="123" duration="150"/>
    <frame tileid="127" duration="150"/>
    <frame tileid="131" duration="150"/>
    <frame tileid="135" duration="150"/>
    <frame tileid="139" duration="150"/>
    <frame tileid="143" duration="150"/>
    <frame tileid="147" duration="150"/>
    <frame tileid="151" duration="150"/>
    <frame tileid="155" duration="150"/>
    <frame tileid="159" duration="150"/>
   </animation>
  </tile>
  <tile id="160">
   <animation>
    <frame tileid="160" duration="150"/>
    <frame tileid="164" duration="150"/>
    <frame tileid="168" duration="150"/>
    <frame tileid="172" duration="150"/>
    <frame tileid="176" duration="150"/>
    <frame tileid="180" duration="150"/>
    <frame tileid="184" duration="150"/>
    <frame tileid="188" duration="150"/>
    <frame tileid="192" duration="150"/>
    <frame tileid="196" duration="150"/>
   </animation>
  </tile>
  <tile id="161">
   <animation>
    <frame tileid="161" duration="150"/>
    <frame tileid="165" duration="150"/>
    <frame tileid="169" duration="150"/>
    <frame tileid="173" duration="150"/>
    <frame tileid="177" duration="150"/>
    <frame tileid="181" duration="150"/>
    <frame tileid="185" duration="150"/>
    <frame tileid="189" duration="150"/>
    <frame tileid="193" duration="150"/>
    <frame tileid="197" duration="150"/>
   </animation>
  </tile>
  <tile id="162">
   <animation>
    <frame tileid="162" duration="150"/>
    <frame tileid="166" duration="150"/>
    <frame tileid="170" duration="150"/>
    <frame tileid="174" duration="150"/>
    <frame tileid="178" duration="150"/>
    <frame tileid="182" duration="150"/>
    <frame tileid="186" duration="150"/>
    <frame tileid="190" duration="150"/>
    <frame tileid="194" duration="150"/>
    <frame tileid="198" duration="150"/>
   </animation>
  </tile>
  <tile id="163">
   <animation>
    <frame tileid="163" duration="150"/>
    <frame tileid="167" duration="150"/>
    <frame tileid="171" duration="150"/>
    <frame tileid="175" duration="150"/>
    <frame tileid="179" duration="150"/>
    <frame tileid="183" duration="150"/>
    <frame tileid="187" duration="150"/>
    <frame tileid="191" duration="150"/>
    <frame tileid="195" duration="150"/>
    <frame tileid="199" duration="150"/>
   </animation>
  </tile>
  <tile id="200">
   <animation>
    <frame tileid="200" duration="150"/>
    <frame tileid="204" duration="150"/>
    <frame tileid="208" duration="150"/>
    <frame tileid="212" duration="150"/>
    <frame tileid="216" duration="150"/>
    <frame tileid="220" duration="150"/>
    <frame tileid="224" duration="150"/>
    <frame tileid="228" duration="150"/>
    <frame tileid="232" duration="150"/>
    <frame tileid="236" duration="150"/>
   </animation>
  </tile>
  <tile id="201">
   <animation>
    <frame tileid="201" duration="150"/>
    <frame tileid="205" duration="150"/>
    <frame tileid="209" duration="150"/>
    <frame tileid="213" duration="150"/>
    <frame tileid="217" duration="150"/>
    <frame tileid="221" duration="150"/>
    <frame tileid="225" duration="150"/>
    <frame tileid="229" duration="150"/>
    <frame tileid="233" duration="150"/>
    <frame tileid="237" duration="150"/>
   </animation>
  </tile>
  <tile id="202">
   <animation>
    <frame tileid="202" duration="150"/>
    <frame tileid="206" duration="150"/>
    <frame tileid="210" duration="150"/>
    <frame tileid="214" duration="150"/>
    <frame tileid="218" duration="150"/>
    <frame tileid="222" duration="150"/>
    <frame tileid="226" duration="150"/>
    <frame tileid="230" duration="150"/>
    <frame tileid="234" duration="150"/>
    <frame tileid="238" duration="150"/>
   </animation>
  </tile>
  <tile id="203">
   <animation>
    <frame tileid="203" duration="150"/>
    <frame tileid="207" duration="150"/>
    <frame tileid="211" duration="150"/>
    <frame tileid="215" duration="150"/>
    <frame tileid="219" duration="150"/>
    <frame tileid="223" duration="150"/>
    <frame tileid="227" duration="150"/>
    <frame tileid="231" duration="150"/>
    <frame tileid="235" duration="150"/>
    <frame tileid="239" duration="150"/>
   </animation>
  </tile>
  <tile id="240">
   <animation>
    <frame tileid="240" duration="150"/>
    <frame tileid="244" duration="150"/>
    <frame tileid="248" duration="150"/>
    <frame tileid="252" duration="150"/>
    <frame tileid="256" duration="150"/>
    <frame tileid="260" duration="150"/>
    <frame tileid="264" duration="150"/>
    <frame tileid="268" duration="150"/>
    <frame tileid="272" duration="150"/>
    <frame tileid="276" duration="150"/>
   </animation>
  </tile>
  <tile id="241">
   <animation>
    <frame tileid="241" duration="150"/>
    <frame tileid="245" duration="150"/>
    <frame tileid="249" duration="150"/>
    <frame tileid="253" duration="150"/>
    <frame tileid="257" duration="150"/>
    <frame tileid="261" duration="150"/>
    <frame tileid="265" duration="150"/>
    <frame tileid="269" duration="150"/>
    <frame tileid="273" duration="150"/>
    <frame tileid="277" duration="150"/>
   </animation>
  </tile>
  <tile id="242">
   <animation>
    <frame tileid="242" duration="150"/>
    <frame tileid="246" duration="150"/>
    <frame tileid="250" duration="150"/>
    <frame tileid="254" duration="150"/>
    <frame tileid="258" duration="150"/>
    <frame tileid="262" duration="150"/>
    <frame tileid="266" duration="150"/>
    <frame tileid="270" duration="150"/>
    <frame tileid="274" duration="150"/>
    <frame tileid="278" duration="150"/>
   </animation>
  </tile>
  <tile id="243">
   <animation>
    <frame tileid="243" duration="150"/>
    <frame tileid="247" duration="150"/>
    <frame tileid="251" duration="150"/>
    <frame tileid="255" duration="150"/>
    <frame tileid="259" duration="150"/>
    <frame tileid="263" duration="150"/>
    <frame tileid="267" duration="150"/>
    <frame tileid="271" duration="150"/>
    <frame tileid="275" duration="150"/>
    <frame tileid="279" duration="150"/>
   </animation>
  </tile>
  <tile id="280">
   <animation>
    <frame tileid="280" duration="150"/>
    <frame tileid="284" duration="150"/>
    <frame tileid="288" duration="150"/>
    <frame tileid="292" duration="150"/>
    <frame tileid="296" duration="150"/>
    <frame tileid="300" duration="150"/>
    <frame tileid="304" duration="150"/>
    <frame tileid="308" duration="150"/>
    <frame tileid="312" duration="150"/>
    <frame tileid="316" duration="150"/>
   </animation>
  </tile>
  <tile id="281">
   <animation>
    <frame tileid="281" duration="150"/>
    <frame tileid="285" duration="150"/>
    <frame tileid="289" duration="150"/>
    <frame tileid="293" duration="150"/>
    <frame tileid="297" duration="150"/>
    <frame tileid="301" duration="150"/>
    <frame tileid="305" duration="150"/>
    <frame tileid="309" duration="150"/>
    <frame tileid="313" duration="150"/>
    <frame tileid="317" duration="150"/>
   </animation>
  </tile>
  <tile id="282">
   <animation>
    <frame tileid="282" duration="150"/>
    <frame tileid="286" duration="150"/>
    <frame tileid="290" duration="150"/>
    <frame tileid="294" duration="150"/>
    <frame tileid="298" duration="150"/>
    <frame tileid="302" duration="150"/>
    <frame tileid="306" duration="150"/>
    <frame tileid="310" duration="150"/>
    <frame tileid="314" duration="150"/>
    <frame tileid="318" duration="150"/>
   </animation>
  </tile>
  <tile id="283">
   <animation>
    <frame tileid="283" duration="150"/>
    <frame tileid="287" duration="150"/>
    <frame tileid="291" duration="150"/>
    <frame tileid="295" duration="150"/>
    <frame tileid="299" duration="150"/>
    <frame tileid="303" duration="150"/>
    <frame tileid="307" duration="150"/>
    <frame tileid="311" duration="150"/>
    <frame tileid="315" duration="150"/>
    <frame tileid="319" duration="150"/>
   </animation>
  </tile>
  <tile id="320">
   <animation>
    <frame tileid="320" duration="150"/>
    <frame tileid="324" duration="150"/>
    <frame tileid="328" duration="150"/>
    <frame tileid="332" duration="150"/>
    <frame tileid="336" duration="150"/>
    <frame tileid="340" duration="150"/>
    <frame tileid="344" duration="150"/>
    <frame tileid="348" duration="150"/>
    <frame tileid="352" duration="150"/>
    <frame tileid="357" duration="150"/>
   </animation>
  </tile>
  <tile id="321">
   <animation>
    <frame tileid="321" duration="150"/>
    <frame tileid="325" duration="150"/>
    <frame tileid="329" duration="150"/>
    <frame tileid="333" duration="150"/>
    <frame tileid="337" duration="150"/>
    <frame tileid="341" duration="150"/>
    <frame tileid="345" duration="150"/>
    <frame tileid="349" duration="150"/>
    <frame tileid="353" duration="150"/>
    <frame tileid="357" duration="150"/>
   </animation>
  </tile>
  <tile id="322">
   <animation>
    <frame tileid="322" duration="150"/>
    <frame tileid="326" duration="150"/>
    <frame tileid="330" duration="150"/>
    <frame tileid="334" duration="150"/>
    <frame tileid="338" duration="150"/>
    <frame tileid="342" duration="150"/>
    <frame tileid="346" duration="150"/>
    <frame tileid="350" duration="150"/>
    <frame tileid="354" duration="150"/>
    <frame tileid="358" duration="150"/>
   </animation>
  </tile>
  <tile id="323">
   <animation>
    <frame tileid="323" duration="150"/>
    <frame tileid="327" duration="150"/>
    <frame tileid="331" duration="150"/>
    <frame tileid="335" duration="150"/>
    <frame tileid="339" duration="150"/>
    <frame tileid="343" duration="150"/>
    <frame tileid="347" duration="150"/>
    <frame tileid="351" duration="150"/>
    <frame tileid="355" duration="150"/>
    <frame tileid="359" duration="150"/>
   </animation>
  </tile>
  <tile id="360">
   <animation>
    <frame tileid="360" duration="150"/>
    <frame tileid="364" duration="150"/>
    <frame tileid="368" duration="150"/>
    <frame tileid="372" duration="150"/>
    <frame tileid="376" duration="150"/>
    <frame tileid="380" duration="150"/>
    <frame tileid="384" duration="150"/>
    <frame tileid="388" duration="150"/>
    <frame tileid="392" duration="150"/>
    <frame tileid="396" duration="150"/>
   </animation>
  </tile>
  <tile id="361">
   <animation>
    <frame tileid="361" duration="150"/>
    <frame tileid="365" duration="150"/>
    <frame tileid="369" duration="150"/>
    <frame tileid="373" duration="150"/>
    <frame tileid="377" duration="150"/>
    <frame tileid="381" duration="150"/>
    <frame tileid="385" duration="150"/>
    <frame tileid="389" duration="150"/>
    <frame tileid="393" duration="150"/>
    <frame tileid="397" duration="150"/>
   </animation>
  </tile>
  <tile id="362">
   <animation>
    <frame tileid="362" duration="150"/>
    <frame tileid="366" duration="150"/>
    <frame tileid="370" duration="150"/>
    <frame tileid="374" duration="150"/>
    <frame tileid="378" duration="150"/>
    <frame tileid="382" duration="150"/>
    <frame tileid="386" duration="150"/>
    <frame tileid="390" duration="150"/>
    <frame tileid="394" duration="150"/>
    <frame tileid="398" duration="150"/>
   </animation>
  </tile>
  <tile id="363">
   <animation>
    <frame tileid="363" duration="150"/>
    <frame tileid="367" duration="150"/>
    <frame tileid="371" duration="150"/>
    <frame tileid="375" duration="150"/>
    <frame tileid="379" duration="150"/>
    <frame tileid="383" duration="150"/>
    <frame tileid="387" duration="150"/>
    <frame tileid="391" duration="150"/>
    <frame tileid="395" duration="150"/>
    <frame tileid="399" duration="150"/>
   </animation>
  </tile>
  <tile id="400">
   <animation>
    <frame tileid="400" duration="150"/>
    <frame tileid="404" duration="150"/>
    <frame tileid="408" duration="150"/>
    <frame tileid="412" duration="150"/>
    <frame tileid="416" duration="150"/>
    <frame tileid="420" duration="150"/>
    <frame tileid="424" duration="150"/>
    <frame tileid="428" duration="150"/>
    <frame tileid="432" duration="150"/>
    <frame tileid="436" duration="150"/>
   </animation>
  </tile>
  <tile id="401">
   <animation>
    <frame tileid="401" duration="150"/>
    <frame tileid="405" duration="150"/>
    <frame tileid="409" duration="150"/>
    <frame tileid="413" duration="150"/>
    <frame tileid="417" duration="150"/>
    <frame tileid="421" duration="150"/>
    <frame tileid="425" duration="150"/>
    <frame tileid="429" duration="150"/>
    <frame tileid="433" duration="150"/>
    <frame tileid="437" duration="150"/>
   </animation>
  </tile>
  <tile id="402">
   <animation>
    <frame tileid="402" duration="150"/>
    <frame tileid="406" duration="150"/>
    <frame tileid="410" duration="150"/>
    <frame tileid="414" duration="150"/>
    <frame tileid="418" duration="150"/>
    <frame tileid="422" duration="150"/>
    <frame tileid="426" duration="150"/>
    <frame tileid="430" duration="150"/>
    <frame tileid="434" duration="150"/>
    <frame tileid="438" duration="150"/>
   </animation>
  </tile>
  <tile id="403">
   <animation>
    <frame tileid="403" duration="150"/>
    <frame tileid="407" duration="150"/>
    <frame tileid="411" duration="150"/>
    <frame tileid="415" duration="150"/>
    <frame tileid="419" duration="150"/>
    <frame tileid="423" duration="150"/>
    <frame tileid="427" duration="150"/>
    <frame tileid="431" duration="150"/>
    <frame tileid="435" duration="150"/>
    <frame tileid="439" duration="150"/>
   </animation>
  </tile>
  <tile id="440">
   <animation>
    <frame tileid="440" duration="150"/>
    <frame tileid="444" duration="150"/>
    <frame tileid="448" duration="150"/>
    <frame tileid="452" duration="150"/>
    <frame tileid="456" duration="150"/>
    <frame tileid="460" duration="150"/>
    <frame tileid="464" duration="150"/>
    <frame tileid="468" duration="150"/>
    <frame tileid="472" duration="150"/>
    <frame tileid="476" duration="150"/>
   </animation>
  </tile>
  <tile id="441">
   <animation>
    <frame tileid="441" duration="150"/>
    <frame tileid="445" duration="150"/>
    <frame tileid="449" duration="150"/>
    <frame tileid="453" duration="150"/>
    <frame tileid="457" duration="150"/>
    <frame tileid="461" duration="150"/>
    <frame tileid="465" duration="150"/>
    <frame tileid="469" duration="150"/>
    <frame tileid="473" duration="150"/>
    <frame tileid="477" duration="150"/>
   </animation>
  </tile>
  <tile id="442">
   <animation>
    <frame tileid="442" duration="150"/>
    <frame tileid="446" duration="150"/>
    <frame tileid="450" duration="150"/>
    <frame tileid="454" duration="150"/>
    <frame tileid="458" duration="150"/>
    <frame tileid="462" duration="150"/>
    <frame tileid="466" duration="150"/>
    <frame tileid="470" duration="150"/>
    <frame tileid="474" duration="150"/>
    <frame tileid="478" duration="150"/>
   </animation>
  </tile>
  <tile id="443">
   <animation>
    <frame tileid="443" duration="150"/>
    <frame tileid="447" duration="150"/>
    <frame tileid="451" duration="150"/>
    <frame tileid="455" duration="150"/>
    <frame tileid="459" duration="150"/>
    <frame tileid="463" duration="150"/>
    <frame tileid="467" duration="150"/>
    <frame tileid="471" duration="150"/>
    <frame tileid="475" duration="150"/>
    <frame tileid="479" duration="150"/>
   </animation>
  </tile>
  <tile id="480">
   <animation>
    <frame tileid="480" duration="150"/>
    <frame tileid="484" duration="150"/>
    <frame tileid="488" duration="150"/>
    <frame tileid="492" duration="150"/>
    <frame tileid="496" duration="150"/>
    <frame tileid="500" duration="150"/>
    <frame tileid="504" duration="150"/>
    <frame tileid="508" duration="150"/>
    <frame tileid="512" duration="150"/>
    <frame tileid="516" duration="150"/>
   </animation>
  </tile>
  <tile id="481">
   <animation>
    <frame tileid="481" duration="150"/>
    <frame tileid="485" duration="150"/>
    <frame tileid="489" duration="150"/>
    <frame tileid="493" duration="150"/>
    <frame tileid="497" duration="150"/>
    <frame tileid="501" duration="150"/>
    <frame tileid="505" duration="150"/>
    <frame tileid="509" duration="150"/>
    <frame tileid="513" duration="150"/>
    <frame tileid="517" duration="150"/>
   </animation>
  </tile>
  <tile id="482">
   <animation>
    <frame tileid="482" duration="150"/>
    <frame tileid="486" duration="150"/>
    <frame tileid="490" duration="150"/>
    <frame tileid="494" duration="150"/>
    <frame tileid="498" duration="150"/>
    <frame tileid="502" duration="150"/>
    <frame tileid="506" duration="150"/>
    <frame tileid="510" duration="150"/>
    <frame tileid="514" duration="150"/>
    <frame tileid="518" duration="150"/>
   </animation>
  </tile>
  <tile id="483">
   <animation>
    <frame tileid="483" duration="150"/>
    <frame tileid="487" duration="150"/>
    <frame tileid="491" duration="150"/>
    <frame tileid="495" duration="150"/>
    <frame tileid="499" duration="150"/>
    <frame tileid="503" duration="150"/>
    <frame tileid="507" duration="150"/>
    <frame tileid="511" duration="150"/>
    <frame tileid="515" duration="150"/>
    <frame tileid="519" duration="150"/>
   </animation>
  </tile>
  <tile id="520">
   <animation>
    <frame tileid="520" duration="150"/>
    <frame tileid="524" duration="150"/>
    <frame tileid="528" duration="150"/>
    <frame tileid="532" duration="150"/>
    <frame tileid="536" duration="150"/>
    <frame tileid="540" duration="150"/>
    <frame tileid="544" duration="150"/>
    <frame tileid="548" duration="150"/>
    <frame tileid="552" duration="150"/>
    <frame tileid="556" duration="150"/>
   </animation>
  </tile>
  <tile id="521">
   <animation>
    <frame tileid="521" duration="150"/>
    <frame tileid="525" duration="150"/>
    <frame tileid="529" duration="150"/>
    <frame tileid="533" duration="150"/>
    <frame tileid="537" duration="150"/>
    <frame tileid="541" duration="150"/>
    <frame tileid="545" duration="150"/>
    <frame tileid="549" duration="150"/>
    <frame tileid="553" duration="150"/>
    <frame tileid="557" duration="150"/>
   </animation>
  </tile>
  <tile id="522">
   <animation>
    <frame tileid="522" duration="150"/>
    <frame tileid="526" duration="150"/>
    <frame tileid="530" duration="150"/>
    <frame tileid="534" duration="150"/>
    <frame tileid="538" duration="150"/>
    <frame tileid="542" duration="150"/>
    <frame tileid="546" duration="150"/>
    <frame tileid="550" duration="150"/>
    <frame tileid="554" duration="150"/>
    <frame tileid="558" duration="150"/>
   </animation>
  </tile>
  <tile id="523">
   <animation>
    <frame tileid="523" duration="150"/>
    <frame tileid="527" duration="150"/>
    <frame tileid="531" duration="150"/>
    <frame tileid="535" duration="150"/>
    <frame tileid="539" duration="150"/>
    <frame tileid="543" duration="150"/>
    <frame tileid="547" duration="150"/>
    <frame tileid="551" duration="150"/>
    <frame tileid="555" duration="150"/>
    <frame tileid="559" duration="150"/>
   </animation>
  </tile>
  <tile id="560">
   <animation>
    <frame tileid="560" duration="150"/>
    <frame tileid="564" duration="150"/>
    <frame tileid="568" duration="150"/>
    <frame tileid="572" duration="150"/>
    <frame tileid="576" duration="150"/>
    <frame tileid="580" duration="150"/>
    <frame tileid="584" duration="150"/>
    <frame tileid="588" duration="150"/>
    <frame tileid="592" duration="150"/>
    <frame tileid="596" duration="150"/>
   </animation>
  </tile>
  <tile id="561">
   <animation>
    <frame tileid="561" duration="150"/>
    <frame tileid="565" duration="150"/>
    <frame tileid="569" duration="150"/>
    <frame tileid="573" duration="150"/>
    <frame tileid="577" duration="150"/>
    <frame tileid="581" duration="150"/>
    <frame tileid="585" duration="150"/>
    <frame tileid="589" duration="150"/>
    <frame tileid="593" duration="150"/>
    <frame tileid="597" duration="150"/>
   </animation>
  </tile>
  <tile id="562">
   <animation>
    <frame tileid="562" duration="150"/>
    <frame tileid="566" duration="150"/>
    <frame tileid="570" duration="150"/>
    <frame tileid="574" duration="150"/>
    <frame tileid="578" duration="150"/>
    <frame tileid="582" duration="150"/>
    <frame tileid="586" duration="150"/>
    <frame tileid="590" duration="150"/>
    <frame tileid="594" duration="150"/>
    <frame tileid="598" duration="150"/>
   </animation>
  </tile>
  <tile id="563">
   <animation>
    <frame tileid="563" duration="150"/>
    <frame tileid="567" duration="150"/>
    <frame tileid="571" duration="150"/>
    <frame tileid="575" duration="150"/>
    <frame tileid="579" duration="150"/>
    <frame tileid="583" duration="150"/>
    <frame tileid="587" duration="150"/>
    <frame tileid="591" duration="150"/>
    <frame tileid="595" duration="150"/>
    <frame tileid="599" duration="150"/>
   </animation>
  </tile>
  <tile id="600">
   <animation>
    <frame tileid="600" duration="150"/>
    <frame tileid="604" duration="150"/>
    <frame tileid="608" duration="150"/>
    <frame tileid="612" duration="150"/>
    <frame tileid="616" duration="150"/>
    <frame tileid="620" duration="150"/>
    <frame tileid="624" duration="150"/>
    <frame tileid="628" duration="150"/>
    <frame tileid="632" duration="150"/>
    <frame tileid="636" duration="150"/>
   </animation>
  </tile>
  <tile id="601">
   <animation>
    <frame tileid="601" duration="150"/>
    <frame tileid="605" duration="150"/>
    <frame tileid="609" duration="150"/>
    <frame tileid="613" duration="150"/>
    <frame tileid="617" duration="150"/>
    <frame tileid="621" duration="150"/>
    <frame tileid="625" duration="150"/>
    <frame tileid="629" duration="150"/>
    <frame tileid="633" duration="150"/>
    <frame tileid="637" duration="150"/>
   </animation>
  </tile>
  <tile id="602">
   <animation>
    <frame tileid="602" duration="150"/>
    <frame tileid="606" duration="150"/>
    <frame tileid="610" duration="150"/>
    <frame tileid="614" duration="150"/>
    <frame tileid="618" duration="150"/>
    <frame tileid="622" duration="150"/>
    <frame tileid="626" duration="150"/>
    <frame tileid="630" duration="150"/>
    <frame tileid="634" duration="150"/>
    <frame tileid="638" duration="150"/>
   </animation>
  </tile>
  <tile id="603">
   <animation>
    <frame tileid="603" duration="150"/>
    <frame tileid="607" duration="150"/>
    <frame tileid="611" duration="150"/>
    <frame tileid="615" duration="150"/>
    <frame tileid="619" duration="150"/>
    <frame tileid="623" duration="150"/>
    <frame tileid="627" duration="150"/>
    <frame tileid="631" duration="150"/>
    <frame tileid="635" duration="150"/>
    <frame tileid="639" duration="150"/>
   </animation>
  </tile>
 </tileset>
 <tileset firstgid="641" name="Slime1_Death_full" tilewidth="16" tileheight="16" tilecount="640" columns="40">
  <image source="Slime1_Death_with_shadow.png" width="640" height="256"/>
  <tile id="0">
   <animation>
    <frame tileid="0" duration="150"/>
    <frame tileid="4" duration="150"/>
    <frame tileid="8" duration="150"/>
    <frame tileid="12" duration="150"/>
    <frame tileid="16" duration="150"/>
    <frame tileid="20" duration="150"/>
    <frame tileid="24" duration="150"/>
    <frame tileid="28" duration="150"/>
    <frame tileid="32" duration="150"/>
    <frame tileid="36" duration="150"/>
   </animation>
  </tile>
  <tile id="1">
   <animation>
    <frame tileid="1" duration="150"/>
    <frame tileid="5" duration="150"/>
    <frame tileid="9" duration="150"/>
    <frame tileid="13" duration="150"/>
    <frame tileid="17" duration="150"/>
    <frame tileid="21" duration="150"/>
    <frame tileid="25" duration="150"/>
    <frame tileid="29" duration="150"/>
    <frame tileid="33" duration="150"/>
    <frame tileid="37" duration="150"/>
   </animation>
  </tile>
  <tile id="2">
   <animation>
    <frame tileid="2" duration="150"/>
    <frame tileid="6" duration="150"/>
    <frame tileid="10" duration="150"/>
    <frame tileid="14" duration="150"/>
    <frame tileid="18" duration="150"/>
    <frame tileid="22" duration="150"/>
    <frame tileid="26" duration="150"/>
    <frame tileid="30" duration="150"/>
    <frame tileid="34" duration="150"/>
    <frame tileid="38" duration="150"/>
   </animation>
  </tile>
  <tile id="3">
   <animation>
    <frame tileid="3" duration="150"/>
    <frame tileid="7" duration="150"/>
    <frame tileid="11" duration="150"/>
    <frame tileid="15" duration="150"/>
    <frame tileid="19" duration="150"/>
    <frame tileid="23" duration="150"/>
    <frame tileid="27" duration="150"/>
    <frame tileid="31" duration="150"/>
    <frame tileid="35" duration="150"/>
    <frame tileid="39" duration="150"/>
   </animation>
  </tile>
  <tile id="40">
   <animation>
    <frame tileid="40" duration="150"/>
    <frame tileid="44" duration="150"/>
    <frame tileid="48" duration="150"/>
    <frame tileid="52" duration="150"/>
    <frame tileid="56" duration="150"/>
    <frame tileid="60" duration="150"/>
    <frame tileid="64" duration="150"/>
    <frame tileid="68" duration="150"/>
    <frame tileid="72" duration="150"/>
    <frame tileid="76" duration="150"/>
   </animation>
  </tile>
  <tile id="41">
   <animation>
    <frame tileid="41" duration="150"/>
    <frame tileid="45" duration="150"/>
    <frame tileid="49" duration="150"/>
    <frame tileid="53" duration="150"/>
    <frame tileid="57" duration="150"/>
    <frame tileid="61" duration="150"/>
    <frame tileid="65" duration="150"/>
    <frame tileid="69" duration="150"/>
    <frame tileid="73" duration="150"/>
    <frame tileid="77" duration="150"/>
   </animation>
  </tile>
  <tile id="42">
   <animation>
    <frame tileid="42" duration="150"/>
    <frame tileid="46" duration="150"/>
    <frame tileid="50" duration="150"/>
    <frame tileid="54" duration="150"/>
    <frame tileid="58" duration="150"/>
    <frame tileid="62" duration="150"/>
    <frame tileid="66" duration="150"/>
    <frame tileid="70" duration="150"/>
    <frame tileid="74" duration="150"/>
    <frame tileid="78" duration="150"/>
   </animation>
  </tile>
  <tile id="43">
   <animation>
    <frame tileid="43" duration="150"/>
    <frame tileid="47" duration="150"/>
    <frame tileid="51" duration="150"/>
    <frame tileid="55" duration="150"/>
    <frame tileid="59" duration="150"/>
    <frame tileid="63" duration="150"/>
    <frame tileid="67" duration="150"/>
    <frame tileid="71" duration="150"/>
    <frame tileid="75" duration="150"/>
    <frame tileid="79" duration="150"/>
   </animation>
  </tile>
  <tile id="80">
   <animation>
    <frame tileid="80" duration="150"/>
    <frame tileid="84" duration="150"/>
    <frame tileid="88" duration="150"/>
    <frame tileid="92" duration="150"/>
    <frame tileid="96" duration="150"/>
    <frame tileid="100" duration="150"/>
    <frame tileid="104" duration="150"/>
    <frame tileid="108" duration="150"/>
    <frame tileid="112" duration="150"/>
    <frame tileid="116" duration="150"/>
   </animation>
  </tile>
  <tile id="81">
   <animation>
    <frame tileid="81" duration="150"/>
    <frame tileid="85" duration="150"/>
    <frame tileid="89" duration="150"/>
    <frame tileid="93" duration="150"/>
    <frame tileid="97" duration="150"/>
    <frame tileid="101" duration="150"/>
    <frame tileid="105" duration="150"/>
    <frame tileid="109" duration="150"/>
    <frame tileid="113" duration="150"/>
    <frame tileid="117" duration="150"/>
   </animation>
  </tile>
  <tile id="82">
   <animation>
    <frame tileid="82" duration="150"/>
    <frame tileid="86" duration="150"/>
    <frame tileid="90" duration="150"/>
    <frame tileid="94" duration="150"/>
    <frame tileid="98" duration="150"/>
    <frame tileid="102" duration="150"/>
    <frame tileid="106" duration="150"/>
    <frame tileid="110" duration="150"/>
    <frame tileid="114" duration="150"/>
    <frame tileid="118" duration="150"/>
   </animation>
  </tile>
  <tile id="83">
   <animation>
    <frame tileid="83" duration="150"/>
    <frame tileid="87" duration="150"/>
    <frame tileid="91" duration="150"/>
    <frame tileid="95" duration="150"/>
    <frame tileid="99" duration="150"/>
    <frame tileid="103" duration="150"/>
    <frame tileid="107" duration="150"/>
    <frame tileid="111" duration="150"/>
    <frame tileid="115" duration="150"/>
    <frame tileid="119" duration="150"/>
   </animation>
  </tile>
  <tile id="120">
   <animation>
    <frame tileid="120" duration="150"/>
    <frame tileid="124" duration="150"/>
    <frame tileid="128" duration="150"/>
    <frame tileid="132" duration="150"/>
    <frame tileid="136" duration="150"/>
    <frame tileid="140" duration="150"/>
    <frame tileid="144" duration="150"/>
    <frame tileid="148" duration="150"/>
    <frame tileid="152" duration="150"/>
    <frame tileid="156" duration="150"/>
   </animation>
  </tile>
  <tile id="121">
   <animation>
    <frame tileid="121" duration="150"/>
    <frame tileid="125" duration="150"/>
    <frame tileid="129" duration="150"/>
    <frame tileid="133" duration="150"/>
    <frame tileid="137" duration="150"/>
    <frame tileid="141" duration="150"/>
    <frame tileid="145" duration="150"/>
    <frame tileid="149" duration="150"/>
    <frame tileid="153" duration="150"/>
    <frame tileid="157" duration="150"/>
   </animation>
  </tile>
  <tile id="122">
   <animation>
    <frame tileid="122" duration="150"/>
    <frame tileid="126" duration="150"/>
    <frame tileid="130" duration="150"/>
    <frame tileid="134" duration="150"/>
    <frame tileid="138" duration="150"/>
    <frame tileid="142" duration="150"/>
    <frame tileid="146" duration="150"/>
    <frame tileid="150" duration="150"/>
    <frame tileid="154" duration="150"/>
    <frame tileid="158" duration="150"/>
   </animation>
  </tile>
  <tile id="123">
   <animation>
    <frame tileid="123" duration="150"/>
    <frame tileid="127" duration="150"/>
    <frame tileid="131" duration="150"/>
    <frame tileid="135" duration="150"/>
    <frame tileid="139" duration="150"/>
    <frame tileid="143" duration="150"/>
    <frame tileid="147" duration="150"/>
    <frame tileid="151" duration="150"/>
    <frame tileid="155" duration="150"/>
    <frame tileid="159" duration="150"/>
   </animation>
  </tile>
  <tile id="160">
   <animation>
    <frame tileid="160" duration="150"/>
    <frame tileid="164" duration="150"/>
    <frame tileid="168" duration="150"/>
    <frame tileid="172" duration="150"/>
    <frame tileid="176" duration="150"/>
    <frame tileid="180" duration="150"/>
    <frame tileid="184" duration="150"/>
    <frame tileid="188" duration="150"/>
    <frame tileid="192" duration="150"/>
    <frame tileid="196" duration="150"/>
   </animation>
  </tile>
  <tile id="161">
   <animation>
    <frame tileid="161" duration="150"/>
    <frame tileid="165" duration="150"/>
    <frame tileid="169" duration="150"/>
    <frame tileid="173" duration="150"/>
    <frame tileid="177" duration="150"/>
    <frame tileid="181" duration="150"/>
    <frame tileid="185" duration="150"/>
    <frame tileid="189" duration="150"/>
    <frame tileid="193" duration="150"/>
    <frame tileid="197" duration="150"/>
   </animation>
  </tile>
  <tile id="162">
   <animation>
    <frame tileid="162" duration="150"/>
    <frame tileid="166" duration="150"/>
    <frame tileid="170" duration="150"/>
    <frame tileid="174" duration="150"/>
    <frame tileid="178" duration="150"/>
    <frame tileid="182" duration="150"/>
    <frame tileid="186" duration="150"/>
    <frame tileid="190" duration="150"/>
    <frame tileid="194" duration="150"/>
    <frame tileid="198" duration="150"/>
   </animation>
  </tile>
  <tile id="163">
   <animation>
    <frame tileid="163" duration="150"/>
    <frame tileid="167" duration="150"/>
    <frame tileid="171" duration="150"/>
    <frame tileid="175" duration="150"/>
    <frame tileid="179" duration="150"/>
    <frame tileid="183" duration="150"/>
    <frame tileid="187" duration="150"/>
    <frame tileid="191" duration="150"/>
    <frame tileid="195" duration="150"/>
    <frame tileid="199" duration="150"/>
   </animation>
  </tile>
  <tile id="200">
   <animation>
    <frame tileid="200" duration="150"/>
    <frame tileid="204" duration="150"/>
    <frame tileid="208" duration="150"/>
    <frame tileid="212" duration="150"/>
    <frame tileid="216" duration="150"/>
    <frame tileid="220" duration="150"/>
    <frame tileid="224" duration="150"/>
    <frame tileid="228" duration="150"/>
    <frame tileid="232" duration="150"/>
    <frame tileid="236" duration="150"/>
   </animation>
  </tile>
  <tile id="201">
   <animation>
    <frame tileid="201" duration="150"/>
    <frame tileid="205" duration="150"/>
    <frame tileid="209" duration="150"/>
    <frame tileid="213" duration="150"/>
    <frame tileid="217" duration="150"/>
    <frame tileid="221" duration="150"/>
    <frame tileid="225" duration="150"/>
    <frame tileid="229" duration="150"/>
    <frame tileid="233" duration="150"/>
    <frame tileid="237" duration="150"/>
   </animation>
  </tile>
  <tile id="202">
   <animation>
    <frame tileid="202" duration="150"/>
    <frame tileid="206" duration="150"/>
    <frame tileid="210" duration="150"/>
    <frame tileid="214" duration="150"/>
    <frame tileid="218" duration="150"/>
    <frame tileid="222" duration="150"/>
    <frame tileid="226" duration="150"/>
    <frame tileid="230" duration="150"/>
    <frame tileid="234" duration="150"/>
    <frame tileid="238" duration="150"/>
   </animation>
  </tile>
  <tile id="203">
   <animation>
    <frame tileid="203" duration="150"/>
    <frame tileid="207" duration="150"/>
    <frame tileid="211" duration="150"/>
    <frame tileid="215" duration="150"/>
    <frame tileid="219" duration="150"/>
    <frame tileid="223" duration="150"/>
    <frame tileid="227" duration="150"/>
    <frame tileid="231" duration="150"/>
    <frame tileid="235" duration="150"/>
    <frame tileid="239" duration="150"/>
   </animation>
  </tile>
  <tile id="240">
   <animation>
    <frame tileid="240" duration="150"/>
    <frame tileid="244" duration="150"/>
    <frame tileid="248" duration="150"/>
    <frame tileid="252" duration="150"/>
    <frame tileid="256" duration="150"/>
    <frame tileid="260" duration="150"/>
    <frame tileid="264" duration="150"/>
    <frame tileid="268" duration="150"/>
    <frame tileid="272" duration="150"/>
    <frame tileid="276" duration="150"/>
   </animation>
  </tile>
  <tile id="241">
   <animation>
    <frame tileid="241" duration="150"/>
    <frame tileid="245" duration="150"/>
    <frame tileid="249" duration="150"/>
    <frame tileid="253" duration="150"/>
    <frame tileid="257" duration="150"/>
    <frame tileid="261" duration="150"/>
    <frame tileid="265" duration="150"/>
    <frame tileid="269" duration="150"/>
    <frame tileid="273" duration="150"/>
    <frame tileid="277" duration="150"/>
   </animation>
  </tile>
  <tile id="242">
   <animation>
    <frame tileid="242" duration="150"/>
    <frame tileid="246" duration="150"/>
    <frame tileid="250" duration="150"/>
    <frame tileid="254" duration="150"/>
    <frame tileid="258" duration="150"/>
    <frame tileid="262" duration="150"/>
    <frame tileid="266" duration="150"/>
    <frame tileid="270" duration="150"/>
    <frame tileid="274" duration="150"/>
    <frame tileid="278" duration="150"/>
   </animation>
  </tile>
  <tile id="243">
   <animation>
    <frame tileid="243" duration="150"/>
    <frame tileid="247" duration="150"/>
    <frame tileid="251" duration="150"/>
    <frame tileid="255" duration="150"/>
    <frame tileid="259" duration="150"/>
    <frame tileid="263" duration="150"/>
    <frame tileid="267" duration="150"/>
    <frame tileid="271" duration="150"/>
    <frame tileid="275" duration="150"/>
    <frame tileid="279" duration="150"/>
   </animation>
  </tile>
  <tile id="280">
   <animation>
    <frame tileid="280" duration="150"/>
    <frame tileid="284" duration="150"/>
    <frame tileid="288" duration="150"/>
    <frame tileid="292" duration="150"/>
    <frame tileid="296" duration="150"/>
    <frame tileid="300" duration="150"/>
    <frame tileid="304" duration="150"/>
    <frame tileid="308" duration="150"/>
    <frame tileid="312" duration="150"/>
    <frame tileid="316" duration="150"/>
   </animation>
  </tile>
  <tile id="281">
   <animation>
    <frame tileid="281" duration="150"/>
    <frame tileid="285" duration="150"/>
    <frame tileid="289" duration="150"/>
    <frame tileid="293" duration="150"/>
    <frame tileid="297" duration="150"/>
    <frame tileid="301" duration="150"/>
    <frame tileid="305" duration="150"/>
    <frame tileid="309" duration="150"/>
    <frame tileid="313" duration="150"/>
    <frame tileid="317" duration="150"/>
   </animation>
  </tile>
  <tile id="282">
   <animation>
    <frame tileid="282" duration="150"/>
    <frame tileid="286" duration="150"/>
    <frame tileid="290" duration="150"/>
    <frame tileid="294" duration="150"/>
    <frame tileid="298" duration="150"/>
    <frame tileid="302" duration="150"/>
    <frame tileid="306" duration="150"/>
    <frame tileid="310" duration="150"/>
    <frame tileid="314" duration="150"/>
    <frame tileid="318" duration="150"/>
   </animation>
  </tile>
  <tile id="283">
   <animation>
    <frame tileid="283" duration="150"/>
    <frame tileid="287" duration="150"/>
    <frame tileid="291" duration="150"/>
    <frame tileid="295" duration="150"/>
    <frame tileid="299" duration="150"/>
    <frame tileid="303" duration="150"/>
    <frame tileid="307" duration="150"/>
    <frame tileid="311" duration="150"/>
    <frame tileid="315" duration="150"/>
    <frame tileid="319" duration="150"/>
   </animation>
  </tile>
  <tile id="320">
   <animation>
    <frame tileid="320" duration="150"/>
    <frame tileid="324" duration="150"/>
    <frame tileid="328" duration="150"/>
    <frame tileid="332" duration="150"/>
    <frame tileid="336" duration="150"/>
    <frame tileid="340" duration="150"/>
    <frame tileid="344" duration="150"/>
    <frame tileid="348" duration="150"/>
    <frame tileid="352" duration="150"/>
    <frame tileid="356" duration="150"/>
   </animation>
  </tile>
  <tile id="321">
   <animation>
    <frame tileid="321" duration="150"/>
    <frame tileid="325" duration="150"/>
    <frame tileid="329" duration="150"/>
    <frame tileid="333" duration="150"/>
    <frame tileid="337" duration="150"/>
    <frame tileid="341" duration="150"/>
    <frame tileid="345" duration="150"/>
    <frame tileid="349" duration="150"/>
    <frame tileid="353" duration="150"/>
    <frame tileid="357" duration="150"/>
   </animation>
  </tile>
  <tile id="322">
   <animation>
    <frame tileid="322" duration="150"/>
    <frame tileid="326" duration="150"/>
    <frame tileid="330" duration="150"/>
    <frame tileid="334" duration="150"/>
    <frame tileid="338" duration="150"/>
    <frame tileid="342" duration="150"/>
    <frame tileid="346" duration="150"/>
    <frame tileid="350" duration="150"/>
    <frame tileid="354" duration="150"/>
    <frame tileid="358" duration="150"/>
   </animation>
  </tile>
  <tile id="323">
   <animation>
    <frame tileid="323" duration="150"/>
    <frame tileid="327" duration="150"/>
    <frame tileid="331" duration="150"/>
    <frame tileid="335" duration="150"/>
    <frame tileid="339" duration="150"/>
    <frame tileid="343" duration="150"/>
    <frame tileid="347" duration="150"/>
    <frame tileid="351" duration="150"/>
    <frame tileid="355" duration="150"/>
    <frame tileid="359" duration="150"/>
   </animation>
  </tile>
  <tile id="360">
   <animation>
    <frame tileid="360" duration="150"/>
    <frame tileid="364" duration="150"/>
    <frame tileid="368" duration="150"/>
    <frame tileid="372" duration="150"/>
    <frame tileid="376" duration="150"/>
    <frame tileid="380" duration="150"/>
    <frame tileid="384" duration="150"/>
    <frame tileid="388" duration="150"/>
    <frame tileid="392" duration="150"/>
    <frame tileid="396" duration="150"/>
   </animation>
  </tile>
  <tile id="361">
   <animation>
    <frame tileid="361" duration="150"/>
    <frame tileid="365" duration="150"/>
    <frame tileid="369" duration="150"/>
    <frame tileid="373" duration="150"/>
    <frame tileid="377" duration="150"/>
    <frame tileid="381" duration="150"/>
    <frame tileid="385" duration="150"/>
    <frame tileid="389" duration="150"/>
    <frame tileid="393" duration="150"/>
    <frame tileid="397" duration="150"/>
   </animation>
  </tile>
  <tile id="362">
   <animation>
    <frame tileid="362" duration="150"/>
    <frame tileid="366" duration="150"/>
    <frame tileid="370" duration="150"/>
    <frame tileid="374" duration="150"/>
    <frame tileid="378" duration="150"/>
    <frame tileid="382" duration="150"/>
    <frame tileid="386" duration="150"/>
    <frame tileid="390" duration="150"/>
    <frame tileid="394" duration="150"/>
    <frame tileid="398" duration="150"/>
   </animation>
  </tile>
  <tile id="363">
   <animation>
    <frame tileid="363" duration="150"/>
    <frame tileid="367" duration="150"/>
    <frame tileid="371" duration="150"/>
    <frame tileid="375" duration="150"/>
    <frame tileid="379" duration="150"/>
    <frame tileid="383" duration="150"/>
    <frame tileid="387" duration="150"/>
    <frame tileid="391" duration="150"/>
    <frame tileid="395" duration="150"/>
    <frame tileid="399" duration="150"/>
   </animation>
  </tile>
  <tile id="400">
   <animation>
    <frame tileid="400" duration="150"/>
    <frame tileid="404" duration="150"/>
    <frame tileid="408" duration="150"/>
    <frame tileid="412" duration="150"/>
    <frame tileid="416" duration="150"/>
    <frame tileid="420" duration="150"/>
    <frame tileid="424" duration="150"/>
    <frame tileid="428" duration="150"/>
    <frame tileid="432" duration="150"/>
    <frame tileid="436" duration="150"/>
   </animation>
  </tile>
  <tile id="401">
   <animation>
    <frame tileid="401" duration="150"/>
    <frame tileid="405" duration="150"/>
    <frame tileid="409" duration="150"/>
    <frame tileid="413" duration="150"/>
    <frame tileid="417" duration="150"/>
    <frame tileid="421" duration="150"/>
    <frame tileid="425" duration="150"/>
    <frame tileid="429" duration="150"/>
    <frame tileid="433" duration="150"/>
    <frame tileid="437" duration="150"/>
   </animation>
  </tile>
  <tile id="402">
   <animation>
    <frame tileid="402" duration="150"/>
    <frame tileid="406" duration="150"/>
    <frame tileid="410" duration="150"/>
    <frame tileid="414" duration="150"/>
    <frame tileid="418" duration="150"/>
    <frame tileid="422" duration="150"/>
    <frame tileid="426" duration="150"/>
    <frame tileid="430" duration="150"/>
    <frame tileid="434" duration="150"/>
    <frame tileid="438" duration="150"/>
   </animation>
  </tile>
  <tile id="403">
   <animation>
    <frame tileid="403" duration="150"/>
    <frame tileid="407" duration="150"/>
    <frame tileid="411" duration="150"/>
    <frame tileid="415" duration="150"/>
    <frame tileid="419" duration="150"/>
    <frame tileid="423" duration="150"/>
    <frame tileid="427" duration="150"/>
    <frame tileid="431" duration="150"/>
    <frame tileid="435" duration="150"/>
    <frame tileid="439" duration="150"/>
   </animation>
  </tile>
  <tile id="440">
   <animation>
    <frame tileid="440" duration="150"/>
    <frame tileid="444" duration="150"/>
    <frame tileid="448" duration="150"/>
    <frame tileid="452" duration="150"/>
    <frame tileid="456" duration="150"/>
    <frame tileid="460" duration="150"/>
    <frame tileid="464" duration="150"/>
    <frame tileid="468" duration="150"/>
    <frame tileid="472" duration="150"/>
    <frame tileid="476" duration="150"/>
   </animation>
  </tile>
  <tile id="441">
   <animation>
    <frame tileid="441" duration="150"/>
    <frame tileid="445" duration="150"/>
    <frame tileid="449" duration="150"/>
    <frame tileid="453" duration="150"/>
    <frame tileid="457" duration="150"/>
    <frame tileid="461" duration="150"/>
    <frame tileid="465" duration="150"/>
    <frame tileid="469" duration="150"/>
    <frame tileid="473" duration="150"/>
    <frame tileid="477" duration="150"/>
   </animation>
  </tile>
  <tile id="442">
   <animation>
    <frame tileid="442" duration="150"/>
    <frame tileid="446" duration="150"/>
    <frame tileid="450" duration="150"/>
    <frame tileid="454" duration="150"/>
    <frame tileid="458" duration="150"/>
    <frame tileid="462" duration="150"/>
    <frame tileid="466" duration="150"/>
    <frame tileid="470" duration="150"/>
    <frame tileid="474" duration="150"/>
    <frame tileid="478" duration="150"/>
   </animation>
  </tile>
  <tile id="443">
   <animation>
    <frame tileid="443" duration="150"/>
    <frame tileid="447" duration="150"/>
    <frame tileid="451" duration="150"/>
    <frame tileid="455" duration="150"/>
    <frame tileid="459" duration="150"/>
    <frame tileid="463" duration="150"/>
    <frame tileid="467" duration="150"/>
    <frame tileid="471" duration="150"/>
    <frame tileid="475" duration="150"/>
    <frame tileid="479" duration="150"/>
   </animation>
  </tile>
  <tile id="480">
   <animation>
    <frame tileid="480" duration="150"/>
    <frame tileid="484" duration="150"/>
    <frame tileid="488" duration="150"/>
    <frame tileid="492" duration="150"/>
    <frame tileid="496" duration="150"/>
    <frame tileid="500" duration="150"/>
    <frame tileid="504" duration="150"/>
    <frame tileid="508" duration="150"/>
    <frame tileid="512" duration="150"/>
    <frame tileid="516" duration="150"/>
   </animation>
  </tile>
  <tile id="481">
   <animation>
    <frame tileid="481" duration="150"/>
    <frame tileid="485" duration="150"/>
    <frame tileid="489" duration="150"/>
    <frame tileid="493" duration="150"/>
    <frame tileid="497" duration="150"/>
    <frame tileid="501" duration="150"/>
    <frame tileid="505" duration="150"/>
    <frame tileid="509" duration="150"/>
    <frame tileid="513" duration="150"/>
    <frame tileid="517" duration="150"/>
   </animation>
  </tile>
  <tile id="482">
   <animation>
    <frame tileid="482" duration="150"/>
    <frame tileid="486" duration="150"/>
    <frame tileid="490" duration="150"/>
    <frame tileid="494" duration="150"/>
    <frame tileid="498" duration="150"/>
    <frame tileid="502" duration="150"/>
    <frame tileid="506" duration="150"/>
    <frame tileid="510" duration="150"/>
    <frame tileid="514" duration="150"/>
    <frame tileid="518" duration="150"/>
   </animation>
  </tile>
  <tile id="483">
   <animation>
    <frame tileid="483" duration="150"/>
    <frame tileid="487" duration="150"/>
    <frame tileid="491" duration="150"/>
    <frame tileid="495" duration="150"/>
    <frame tileid="499" duration="150"/>
    <frame tileid="503" duration="150"/>
    <frame tileid="507" duration="150"/>
    <frame tileid="511" duration="150"/>
    <frame tileid="515" duration="150"/>
    <frame tileid="519" duration="150"/>
   </animation>
  </tile>
  <tile id="520">
   <animation>
    <frame tileid="520" duration="150"/>
    <frame tileid="524" duration="150"/>
    <frame tileid="528" duration="150"/>
    <frame tileid="532" duration="150"/>
    <frame tileid="536" duration="150"/>
    <frame tileid="540" duration="150"/>
    <frame tileid="544" duration="150"/>
    <frame tileid="548" duration="150"/>
    <frame tileid="552" duration="150"/>
    <frame tileid="556" duration="150"/>
   </animation>
  </tile>
  <tile id="521">
   <animation>
    <frame tileid="521" duration="150"/>
    <frame tileid="525" duration="150"/>
    <frame tileid="529" duration="150"/>
    <frame tileid="533" duration="150"/>
    <frame tileid="537" duration="150"/>
    <frame tileid="541" duration="150"/>
    <frame tileid="545" duration="150"/>
    <frame tileid="549" duration="150"/>
    <frame tileid="553" duration="150"/>
    <frame tileid="557" duration="150"/>
   </animation>
  </tile>
  <tile id="522">
   <animation>
    <frame tileid="522" duration="150"/>
    <frame tileid="526" duration="150"/>
    <frame tileid="530" duration="150"/>
    <frame tileid="534" duration="150"/>
    <frame tileid="538" duration="150"/>
    <frame tileid="542" duration="150"/>
    <frame tileid="546" duration="150"/>
    <frame tileid="550" duration="150"/>
    <frame tileid="554" duration="150"/>
    <frame tileid="558" duration="150"/>
   </animation>
  </tile>
  <tile id="523">
   <animation>
    <frame tileid="523" duration="150"/>
    <frame tileid="527" duration="150"/>
    <frame tileid="531" duration="150"/>
    <frame tileid="535" duration="150"/>
    <frame tileid="539" duration="150"/>
    <frame tileid="543" duration="150"/>
    <frame tileid="547" duration="150"/>
    <frame tileid="551" duration="150"/>
    <frame tileid="555" duration="150"/>
    <frame tileid="559" duration="150"/>
   </animation>
  </tile>
  <tile id="560">
   <animation>
    <frame tileid="560" duration="150"/>
    <frame tileid="564" duration="150"/>
    <frame tileid="568" duration="150"/>
    <frame tileid="572" duration="150"/>
    <frame tileid="576" duration="150"/>
    <frame tileid="580" duration="150"/>
    <frame tileid="584" duration="150"/>
    <frame tileid="588" duration="150"/>
    <frame tileid="592" duration="150"/>
    <frame tileid="596" duration="150"/>
   </animation>
  </tile>
  <tile id="561">
   <animation>
    <frame tileid="561" duration="150"/>
    <frame tileid="565" duration="150"/>
    <frame tileid="569" duration="150"/>
    <frame tileid="573" duration="150"/>
    <frame tileid="577" duration="150"/>
    <frame tileid="581" duration="150"/>
    <frame tileid="585" duration="150"/>
    <frame tileid="589" duration="150"/>
    <frame tileid="593" duration="150"/>
    <frame tileid="597" duration="150"/>
   </animation>
  </tile>
  <tile id="562">
   <animation>
    <frame tileid="562" duration="150"/>
    <frame tileid="566" duration="150"/>
    <frame tileid="570" duration="150"/>
    <frame tileid="574" duration="150"/>
    <frame tileid="578" duration="150"/>
    <frame tileid="582" duration="150"/>
    <frame tileid="586" duration="150"/>
    <frame tileid="590" duration="150"/>
    <frame tileid="594" duration="150"/>
    <frame tileid="598" duration="150"/>
   </animation>
  </tile>
  <tile id="563">
   <animation>
    <frame tileid="563" duration="150"/>
    <frame tileid="567" duration="150"/>
    <frame tileid="571" duration="150"/>
    <frame tileid="575" duration="150"/>
    <frame tileid="579" duration="150"/>
    <frame tileid="583" duration="150"/>
    <frame tileid="587" duration="150"/>
    <frame tileid="591" duration="150"/>
    <frame tileid="595" duration="150"/>
    <frame tileid="599" duration="150"/>
   </animation>
  </tile>
  <tile id="600">
   <animation>
    <frame tileid="600" duration="150"/>
    <frame tileid="604" duration="150"/>
    <frame tileid="608" duration="150"/>
    <frame tileid="612" duration="150"/>
    <frame tileid="616" duration="150"/>
    <frame tileid="620" duration="150"/>
    <frame tileid="624" duration="150"/>
    <frame tileid="628" duration="150"/>
    <frame tileid="632" duration="150"/>
    <frame tileid="636" duration="150"/>
   </animation>
  </tile>
  <tile id="601">
   <animation>
    <frame tileid="601" duration="150"/>
    <frame tileid="605" duration="150"/>
    <frame tileid="609" duration="150"/>
    <frame tileid="613" duration="150"/>
    <frame tileid="617" duration="150"/>
    <frame tileid="621" duration="150"/>
    <frame tileid="625" duration="150"/>
    <frame tileid="629" duration="150"/>
    <frame tileid="633" duration="150"/>
    <frame tileid="637" duration="150"/>
   </animation>
  </tile>
  <tile id="602">
   <animation>
    <frame tileid="602" duration="150"/>
    <frame tileid="606" duration="150"/>
    <frame tileid="610" duration="150"/>
    <frame tileid="614" duration="150"/>
    <frame tileid="618" duration="150"/>
    <frame tileid="622" duration="150"/>
    <frame tileid="626" duration="150"/>
    <frame tileid="630" duration="150"/>
    <frame tileid="634" duration="150"/>
    <frame tileid="638" duration="150"/>
   </animation>
  </tile>
  <tile id="603">
   <animation>
    <frame tileid="603" duration="150"/>
    <frame tileid="607" duration="150"/>
    <frame tileid="611" duration="150"/>
    <frame tileid="615" duration="150"/>
    <frame tileid="619" duration="150"/>
    <frame tileid="623" duration="150"/>
    <frame tileid="627" duration="150"/>
    <frame tileid="631" duration="150"/>
    <frame tileid="635" duration="150"/>
    <frame tileid="639" duration="150"/>
   </animation>
  </tile>
 </tileset>
 <tileset firstgid="1281" name="Slime1_Hurt_full" tilewidth="16" tileheight="16" tilecount="320" columns="20">
  <image source="Slime1_Hurt_with_shadow.png" width="320" height="256"/>
  <tile id="0">
   <animation>
    <frame tileid="0" duration="150"/>
    <frame tileid="4" duration="150"/>
    <frame tileid="8" duration="150"/>
    <frame tileid="12" duration="150"/>
    <frame tileid="16" duration="150"/>
   </animation>
  </tile>
  <tile id="1">
   <animation>
    <frame tileid="1" duration="150"/>
    <frame tileid="5" duration="150"/>
    <frame tileid="9" duration="150"/>
    <frame tileid="13" duration="150"/>
    <frame tileid="17" duration="150"/>
   </animation>
  </tile>
  <tile id="2">
   <animation>
    <frame tileid="2" duration="150"/>
    <frame tileid="6" duration="150"/>
    <frame tileid="10" duration="150"/>
    <frame tileid="14" duration="150"/>
    <frame tileid="18" duration="150"/>
   </animation>
  </tile>
  <tile id="3">
   <animation>
    <frame tileid="3" duration="150"/>
    <frame tileid="7" duration="150"/>
    <frame tileid="11" duration="150"/>
    <frame tileid="15" duration="150"/>
    <frame tileid="19" duration="150"/>
   </animation>
  </tile>
  <tile id="20">
   <animation>
    <frame tileid="20" duration="150"/>
    <frame tileid="24" duration="150"/>
    <frame tileid="28" duration="150"/>
    <frame tileid="32" duration="150"/>
    <frame tileid="36" duration="150"/>
   </animation>
  </tile>
  <tile id="21">
   <animation>
    <frame tileid="21" duration="150"/>
    <frame tileid="25" duration="150"/>
    <frame tileid="29" duration="150"/>
    <frame tileid="33" duration="150"/>
    <frame tileid="37" duration="150"/>
   </animation>
  </tile>
  <tile id="22">
   <animation>
    <frame tileid="22" duration="150"/>
    <frame tileid="26" duration="150"/>
    <frame tileid="30" duration="150"/>
    <frame tileid="34" duration="150"/>
    <frame tileid="38" duration="150"/>
   </animation>
  </tile>
  <tile id="23">
   <animation>
    <frame tileid="23" duration="150"/>
    <frame tileid="27" duration="150"/>
    <frame tileid="31" duration="150"/>
    <frame tileid="35" duration="150"/>
    <frame tileid="39" duration="150"/>
   </animation>
  </tile>
  <tile id="40">
   <animation>
    <frame tileid="40" duration="150"/>
    <frame tileid="44" duration="150"/>
    <frame tileid="48" duration="150"/>
    <frame tileid="52" duration="150"/>
    <frame tileid="56" duration="150"/>
   </animation>
  </tile>
  <tile id="41">
   <animation>
    <frame tileid="41" duration="150"/>
    <frame tileid="45" duration="150"/>
    <frame tileid="49" duration="150"/>
    <frame tileid="53" duration="150"/>
    <frame tileid="57" duration="150"/>
   </animation>
  </tile>
  <tile id="42">
   <animation>
    <frame tileid="42" duration="150"/>
    <frame tileid="46" duration="150"/>
    <frame tileid="50" duration="150"/>
    <frame tileid="54" duration="150"/>
    <frame tileid="58" duration="150"/>
   </animation>
  </tile>
  <tile id="43">
   <animation>
    <frame tileid="43" duration="150"/>
    <frame tileid="47" duration="150"/>
    <frame tileid="51" duration="150"/>
    <frame tileid="55" duration="150"/>
    <frame tileid="59" duration="150"/>
   </animation>
  </tile>
  <tile id="60">
   <animation>
    <frame tileid="60" duration="150"/>
    <frame tileid="64" duration="150"/>
    <frame tileid="68" duration="150"/>
    <frame tileid="72" duration="150"/>
    <frame tileid="76" duration="150"/>
   </animation>
  </tile>
  <tile id="61">
   <animation>
    <frame tileid="61" duration="150"/>
    <frame tileid="65" duration="150"/>
    <frame tileid="69" duration="150"/>
    <frame tileid="73" duration="150"/>
    <frame tileid="77" duration="150"/>
   </animation>
  </tile>
  <tile id="62">
   <animation>
    <frame tileid="62" duration="150"/>
    <frame tileid="66" duration="150"/>
    <frame tileid="70" duration="150"/>
    <frame tileid="74" duration="150"/>
    <frame tileid="78" duration="150"/>
   </animation>
  </tile>
  <tile id="63">
   <animation>
    <frame tileid="63" duration="150"/>
    <frame tileid="67" duration="150"/>
    <frame tileid="71" duration="150"/>
    <frame tileid="75" duration="150"/>
    <frame tileid="79" duration="150"/>
   </animation>
  </tile>
  <tile id="80">
   <animation>
    <frame tileid="80" duration="150"/>
    <frame tileid="84" duration="150"/>
    <frame tileid="88" duration="150"/>
    <frame tileid="92" duration="150"/>
    <frame tileid="96" duration="150"/>
   </animation>
  </tile>
  <tile id="81">
   <animation>
    <frame tileid="81" duration="150"/>
    <frame tileid="85" duration="150"/>
    <frame tileid="89" duration="150"/>
    <frame tileid="93" duration="150"/>
    <frame tileid="97" duration="150"/>
   </animation>
  </tile>
  <tile id="82">
   <animation>
    <frame tileid="82" duration="150"/>
    <frame tileid="86" duration="150"/>
    <frame tileid="90" duration="150"/>
    <frame tileid="94" duration="150"/>
    <frame tileid="98" duration="150"/>
   </animation>
  </tile>
  <tile id="83">
   <animation>
    <frame tileid="83" duration="150"/>
    <frame tileid="87" duration="150"/>
    <frame tileid="91" duration="150"/>
    <frame tileid="95" duration="150"/>
    <frame tileid="99" duration="150"/>
   </animation>
  </tile>
  <tile id="100">
   <animation>
    <frame tileid="100" duration="150"/>
    <frame tileid="104" duration="150"/>
    <frame tileid="108" duration="150"/>
    <frame tileid="112" duration="150"/>
    <frame tileid="116" duration="150"/>
   </animation>
  </tile>
  <tile id="101">
   <animation>
    <frame tileid="101" duration="150"/>
    <frame tileid="105" duration="150"/>
    <frame tileid="109" duration="150"/>
    <frame tileid="113" duration="150"/>
    <frame tileid="117" duration="150"/>
   </animation>
  </tile>
  <tile id="102">
   <animation>
    <frame tileid="102" duration="150"/>
    <frame tileid="106" duration="150"/>
    <frame tileid="110" duration="150"/>
    <frame tileid="114" duration="150"/>
    <frame tileid="118" duration="150"/>
   </animation>
  </tile>
  <tile id="103">
   <animation>
    <frame tileid="103" duration="150"/>
    <frame tileid="107" duration="150"/>
    <frame tileid="111" duration="150"/>
    <frame tileid="115" duration="150"/>
    <frame tileid="119" duration="150"/>
   </animation>
  </tile>
  <tile id="120">
   <animation>
    <frame tileid="120" duration="150"/>
    <frame tileid="124" duration="150"/>
    <frame tileid="128" duration="150"/>
    <frame tileid="132" duration="150"/>
    <frame tileid="136" duration="150"/>
   </animation>
  </tile>
  <tile id="121">
   <animation>
    <frame tileid="121" duration="150"/>
    <frame tileid="125" duration="150"/>
    <frame tileid="129" duration="150"/>
    <frame tileid="133" duration="150"/>
    <frame tileid="137" duration="150"/>
   </animation>
  </tile>
  <tile id="122">
   <animation>
    <frame tileid="122" duration="150"/>
    <frame tileid="126" duration="150"/>
    <frame tileid="130" duration="150"/>
    <frame tileid="134" duration="150"/>
    <frame tileid="138" duration="150"/>
   </animation>
  </tile>
  <tile id="123">
   <animation>
    <frame tileid="123" duration="150"/>
    <frame tileid="127" duration="150"/>
    <frame tileid="131" duration="150"/>
    <frame tileid="135" duration="150"/>
    <frame tileid="139" duration="150"/>
   </animation>
  </tile>
  <tile id="140">
   <animation>
    <frame tileid="140" duration="150"/>
    <frame tileid="144" duration="150"/>
    <frame tileid="148" duration="150"/>
    <frame tileid="152" duration="150"/>
    <frame tileid="156" duration="150"/>
   </animation>
  </tile>
  <tile id="141">
   <animation>
    <frame tileid="141" duration="150"/>
    <frame tileid="145" duration="150"/>
    <frame tileid="149" duration="150"/>
    <frame tileid="153" duration="150"/>
    <frame tileid="157" duration="150"/>
   </animation>
  </tile>
  <tile id="142">
   <animation>
    <frame tileid="142" duration="150"/>
    <frame tileid="146" duration="150"/>
    <frame tileid="150" duration="150"/>
    <frame tileid="154" duration="150"/>
    <frame tileid="158" duration="150"/>
   </animation>
  </tile>
  <tile id="143">
   <animation>
    <frame tileid="143" duration="150"/>
    <frame tileid="147" duration="150"/>
    <frame tileid="151" duration="150"/>
    <frame tileid="155" duration="150"/>
    <frame tileid="159" duration="150"/>
   </animation>
  </tile>
  <tile id="160">
   <animation>
    <frame tileid="160" duration="150"/>
    <frame tileid="164" duration="150"/>
    <frame tileid="168" duration="150"/>
    <frame tileid="172" duration="150"/>
    <frame tileid="176" duration="150"/>
   </animation>
  </tile>
  <tile id="161">
   <animation>
    <frame tileid="161" duration="150"/>
    <frame tileid="165" duration="150"/>
    <frame tileid="169" duration="150"/>
    <frame tileid="173" duration="150"/>
    <frame tileid="177" duration="150"/>
   </animation>
  </tile>
  <tile id="162">
   <animation>
    <frame tileid="162" duration="150"/>
    <frame tileid="166" duration="150"/>
    <frame tileid="170" duration="150"/>
    <frame tileid="174" duration="150"/>
    <frame tileid="178" duration="150"/>
   </animation>
  </tile>
  <tile id="163">
   <animation>
    <frame tileid="163" duration="150"/>
    <frame tileid="167" duration="150"/>
    <frame tileid="171" duration="150"/>
    <frame tileid="175" duration="150"/>
    <frame tileid="179" duration="150"/>
   </animation>
  </tile>
  <tile id="180">
   <animation>
    <frame tileid="180" duration="150"/>
    <frame tileid="184" duration="150"/>
    <frame tileid="188" duration="150"/>
    <frame tileid="192" duration="150"/>
    <frame tileid="196" duration="150"/>
   </animation>
  </tile>
  <tile id="181">
   <animation>
    <frame tileid="181" duration="150"/>
    <frame tileid="185" duration="150"/>
    <frame tileid="189" duration="150"/>
    <frame tileid="193" duration="150"/>
    <frame tileid="197" duration="150"/>
   </animation>
  </tile>
  <tile id="182">
   <animation>
    <frame tileid="182" duration="150"/>
    <frame tileid="186" duration="150"/>
    <frame tileid="190" duration="150"/>
    <frame tileid="194" duration="150"/>
    <frame tileid="198" duration="150"/>
   </animation>
  </tile>
  <tile id="183">
   <animation>
    <frame tileid="183" duration="150"/>
    <frame tileid="187" duration="150"/>
    <frame tileid="191" duration="150"/>
    <frame tileid="195" duration="150"/>
    <frame tileid="199" duration="150"/>
   </animation>
  </tile>
  <tile id="200">
   <animation>
    <frame tileid="200" duration="150"/>
    <frame tileid="204" duration="150"/>
    <frame tileid="208" duration="150"/>
    <frame tileid="212" duration="150"/>
    <frame tileid="216" duration="150"/>
   </animation>
  </tile>
  <tile id="201">
   <animation>
    <frame tileid="201" duration="150"/>
    <frame tileid="205" duration="150"/>
    <frame tileid="209" duration="150"/>
    <frame tileid="213" duration="150"/>
    <frame tileid="217" duration="150"/>
   </animation>
  </tile>
  <tile id="202">
   <animation>
    <frame tileid="202" duration="150"/>
    <frame tileid="206" duration="150"/>
    <frame tileid="210" duration="150"/>
    <frame tileid="214" duration="150"/>
    <frame tileid="218" duration="150"/>
   </animation>
  </tile>
  <tile id="203">
   <animation>
    <frame tileid="203" duration="150"/>
    <frame tileid="207" duration="150"/>
    <frame tileid="211" duration="150"/>
    <frame tileid="215" duration="150"/>
    <frame tileid="219" duration="150"/>
   </animation>
  </tile>
  <tile id="220">
   <animation>
    <frame tileid="220" duration="150"/>
    <frame tileid="224" duration="150"/>
    <frame tileid="228" duration="150"/>
    <frame tileid="232" duration="150"/>
    <frame tileid="236" duration="150"/>
   </animation>
  </tile>
  <tile id="221">
   <animation>
    <frame tileid="221" duration="150"/>
    <frame tileid="225" duration="150"/>
    <frame tileid="229" duration="150"/>
    <frame tileid="233" duration="150"/>
    <frame tileid="237" duration="150"/>
   </animation>
  </tile>
  <tile id="222">
   <animation>
    <frame tileid="222" duration="150"/>
    <frame tileid="226" duration="150"/>
    <frame tileid="230" duration="150"/>
    <frame tileid="234" duration="150"/>
    <frame tileid="238" duration="150"/>
   </animation>
  </tile>
  <tile id="223">
   <animation>
    <frame tileid="223" duration="150"/>
    <frame tileid="227" duration="150"/>
    <frame tileid="231" duration="150"/>
    <frame tileid="235" duration="150"/>
    <frame tileid="239" duration="150"/>
   </animation>
  </tile>
  <tile id="240">
   <animation>
    <frame tileid="240" duration="150"/>
    <frame tileid="244" duration="150"/>
    <frame tileid="248" duration="150"/>
    <frame tileid="252" duration="150"/>
    <frame tileid="256" duration="150"/>
   </animation>
  </tile>
  <tile id="241">
   <animation>
    <frame tileid="241" duration="150"/>
    <frame tileid="245" duration="150"/>
    <frame tileid="249" duration="150"/>
    <frame tileid="253" duration="150"/>
    <frame tileid="257" duration="150"/>
   </animation>
  </tile>
  <tile id="242">
   <animation>
    <frame tileid="242" duration="150"/>
    <frame tileid="246" duration="150"/>
    <frame tileid="250" duration="150"/>
    <frame tileid="254" duration="150"/>
    <frame tileid="258" duration="150"/>
   </animation>
  </tile>
  <tile id="243">
   <animation>
    <frame tileid="243" duration="150"/>
    <frame tileid="247" duration="150"/>
    <frame tileid="251" duration="150"/>
    <frame tileid="255" duration="150"/>
    <frame tileid="259" duration="150"/>
   </animation>
  </tile>
  <tile id="260">
   <animation>
    <frame tileid="260" duration="150"/>
    <frame tileid="264" duration="150"/>
    <frame tileid="268" duration="150"/>
    <frame tileid="272" duration="150"/>
    <frame tileid="276" duration="150"/>
   </animation>
  </tile>
  <tile id="261">
   <animation>
    <frame tileid="261" duration="150"/>
    <frame tileid="265" duration="150"/>
    <frame tileid="269" duration="150"/>
    <frame tileid="273" duration="150"/>
    <frame tileid="277" duration="150"/>
   </animation>
  </tile>
  <tile id="262">
   <animation>
    <frame tileid="262" duration="150"/>
    <frame tileid="266" duration="150"/>
    <frame tileid="270" duration="150"/>
    <frame tileid="274" duration="150"/>
    <frame tileid="278" duration="150"/>
   </animation>
  </tile>
  <tile id="263">
   <animation>
    <frame tileid="263" duration="150"/>
    <frame tileid="267" duration="150"/>
    <frame tileid="271" duration="150"/>
    <frame tileid="275" duration="150"/>
    <frame tileid="279" duration="150"/>
   </animation>
  </tile>
  <tile id="280">
   <animation>
    <frame tileid="280" duration="150"/>
    <frame tileid="284" duration="150"/>
    <frame tileid="288" duration="150"/>
    <frame tileid="292" duration="150"/>
    <frame tileid="296" duration="150"/>
   </animation>
  </tile>
  <tile id="281">
   <animation>
    <frame tileid="281" duration="150"/>
    <frame tileid="285" duration="150"/>
    <frame tileid="289" duration="150"/>
    <frame tileid="293" duration="150"/>
    <frame tileid="297" duration="150"/>
   </animation>
  </tile>
  <tile id="282">
   <animation>
    <frame tileid="282" duration="150"/>
    <frame tileid="286" duration="150"/>
    <frame tileid="290" duration="150"/>
    <frame tileid="294" duration="150"/>
    <frame tileid="298" duration="150"/>
   </animation>
  </tile>
  <tile id="283">
   <animation>
    <frame tileid="283" duration="150"/>
    <frame tileid="287" duration="150"/>
    <frame tileid="291" duration="150"/>
    <frame tileid="295" duration="150"/>
    <frame tileid="299" duration="150"/>
   </animation>
  </tile>
  <tile id="300">
   <animation>
    <frame tileid="300" duration="150"/>
    <frame tileid="304" duration="150"/>
    <frame tileid="308" duration="150"/>
    <frame tileid="312" duration="150"/>
    <frame tileid="316" duration="150"/>
   </animation>
  </tile>
  <tile id="301">
   <animation>
    <frame tileid="301" duration="150"/>
    <frame tileid="305" duration="150"/>
    <frame tileid="309" duration="150"/>
    <frame tileid="313" duration="150"/>
    <frame tileid="317" duration="150"/>
   </animation>
  </tile>
  <tile id="302">
   <animation>
    <frame tileid="302" duration="150"/>
    <frame tileid="306" duration="150"/>
    <frame tileid="310" duration="150"/>
    <frame tileid="314" duration="150"/>
    <frame tileid="318" duration="150"/>
   </animation>
  </tile>
  <tile id="303">
   <animation>
    <frame tileid="303" duration="150"/>
    <frame tileid="307" duration="150"/>
    <frame tileid="311" duration="150"/>
    <frame tileid="315" duration="150"/>
    <frame tileid="319" duration="150"/>
   </animation>
  </tile>
 </tileset>
 <tileset firstgid="1601" name="Slime1_Idle_full" tilewidth="16" tileheight="16" tilecount="384" columns="24">
  <image source="Slime1_Idle_with_shadow.png" width="384" height="256"/>
  <tile id="0">
   <animation>
    <frame tileid="0" duration="150"/>
    <frame tileid="4" duration="150"/>
    <frame tileid="8" duration="150"/>
    <frame tileid="12" duration="150"/>
    <frame tileid="16" duration="150"/>
    <frame tileid="20" duration="150"/>
   </animation>
  </tile>
  <tile id="1">
   <animation>
    <frame tileid="1" duration="150"/>
    <frame tileid="5" duration="150"/>
    <frame tileid="9" duration="150"/>
    <frame tileid="13" duration="150"/>
    <frame tileid="17" duration="150"/>
    <frame tileid="21" duration="150"/>
   </animation>
  </tile>
  <tile id="2">
   <animation>
    <frame tileid="2" duration="150"/>
    <frame tileid="6" duration="150"/>
    <frame tileid="10" duration="150"/>
    <frame tileid="14" duration="150"/>
    <frame tileid="18" duration="150"/>
    <frame tileid="22" duration="150"/>
   </animation>
  </tile>
  <tile id="3">
   <animation>
    <frame tileid="3" duration="150"/>
    <frame tileid="7" duration="150"/>
    <frame tileid="11" duration="150"/>
    <frame tileid="15" duration="150"/>
    <frame tileid="19" duration="150"/>
    <frame tileid="23" duration="150"/>
   </animation>
  </tile>
  <tile id="24">
   <animation>
    <frame tileid="24" duration="150"/>
    <frame tileid="28" duration="150"/>
    <frame tileid="32" duration="150"/>
    <frame tileid="36" duration="150"/>
    <frame tileid="40" duration="150"/>
    <frame tileid="44" duration="150"/>
   </animation>
  </tile>
  <tile id="25">
   <animation>
    <frame tileid="25" duration="150"/>
    <frame tileid="29" duration="150"/>
    <frame tileid="33" duration="150"/>
    <frame tileid="37" duration="150"/>
    <frame tileid="41" duration="150"/>
    <frame tileid="45" duration="150"/>
   </animation>
  </tile>
  <tile id="26">
   <animation>
    <frame tileid="26" duration="150"/>
    <frame tileid="30" duration="150"/>
    <frame tileid="34" duration="150"/>
    <frame tileid="38" duration="150"/>
    <frame tileid="42" duration="150"/>
    <frame tileid="46" duration="150"/>
   </animation>
  </tile>
  <tile id="27">
   <animation>
    <frame tileid="27" duration="150"/>
    <frame tileid="31" duration="150"/>
    <frame tileid="35" duration="150"/>
    <frame tileid="39" duration="150"/>
    <frame tileid="43" duration="150"/>
    <frame tileid="47" duration="150"/>
   </animation>
  </tile>
  <tile id="48">
   <animation>
    <frame tileid="48" duration="150"/>
    <frame tileid="52" duration="150"/>
    <frame tileid="56" duration="150"/>
    <frame tileid="60" duration="150"/>
    <frame tileid="64" duration="150"/>
    <frame tileid="68" duration="150"/>
   </animation>
  </tile>
  <tile id="49">
   <animation>
    <frame tileid="49" duration="150"/>
    <frame tileid="53" duration="150"/>
    <frame tileid="57" duration="150"/>
    <frame tileid="61" duration="150"/>
    <frame tileid="65" duration="150"/>
    <frame tileid="69" duration="150"/>
   </animation>
  </tile>
  <tile id="50">
   <animation>
    <frame tileid="50" duration="150"/>
    <frame tileid="54" duration="150"/>
    <frame tileid="58" duration="150"/>
    <frame tileid="62" duration="150"/>
    <frame tileid="66" duration="150"/>
    <frame tileid="70" duration="150"/>
   </animation>
  </tile>
  <tile id="51">
   <animation>
    <frame tileid="51" duration="150"/>
    <frame tileid="55" duration="150"/>
    <frame tileid="59" duration="150"/>
    <frame tileid="63" duration="150"/>
    <frame tileid="67" duration="150"/>
    <frame tileid="71" duration="150"/>
   </animation>
  </tile>
  <tile id="72">
   <animation>
    <frame tileid="72" duration="150"/>
    <frame tileid="76" duration="150"/>
    <frame tileid="80" duration="150"/>
    <frame tileid="84" duration="150"/>
    <frame tileid="88" duration="150"/>
    <frame tileid="92" duration="150"/>
   </animation>
  </tile>
  <tile id="73">
   <animation>
    <frame tileid="73" duration="150"/>
    <frame tileid="77" duration="150"/>
    <frame tileid="81" duration="150"/>
    <frame tileid="85" duration="150"/>
    <frame tileid="89" duration="150"/>
    <frame tileid="93" duration="150"/>
   </animation>
  </tile>
  <tile id="74">
   <animation>
    <frame tileid="74" duration="150"/>
    <frame tileid="78" duration="150"/>
    <frame tileid="82" duration="150"/>
    <frame tileid="86" duration="150"/>
    <frame tileid="90" duration="150"/>
    <frame tileid="94" duration="150"/>
   </animation>
  </tile>
  <tile id="75">
   <animation>
    <frame tileid="75" duration="150"/>
    <frame tileid="79" duration="150"/>
    <frame tileid="83" duration="150"/>
    <frame tileid="87" duration="150"/>
    <frame tileid="91" duration="150"/>
    <frame tileid="95" duration="150"/>
   </animation>
  </tile>
  <tile id="96">
   <animation>
    <frame tileid="96" duration="150"/>
    <frame tileid="100" duration="150"/>
    <frame tileid="104" duration="150"/>
    <frame tileid="108" duration="150"/>
    <frame tileid="112" duration="150"/>
    <frame tileid="116" duration="150"/>
   </animation>
  </tile>
  <tile id="97">
   <animation>
    <frame tileid="97" duration="150"/>
    <frame tileid="101" duration="150"/>
    <frame tileid="105" duration="150"/>
    <frame tileid="109" duration="150"/>
    <frame tileid="113" duration="150"/>
    <frame tileid="117" duration="150"/>
   </animation>
  </tile>
  <tile id="98">
   <animation>
    <frame tileid="98" duration="150"/>
    <frame tileid="102" duration="150"/>
    <frame tileid="106" duration="150"/>
    <frame tileid="110" duration="150"/>
    <frame tileid="114" duration="150"/>
    <frame tileid="118" duration="150"/>
   </animation>
  </tile>
  <tile id="99">
   <animation>
    <frame tileid="99" duration="150"/>
    <frame tileid="103" duration="150"/>
    <frame tileid="107" duration="150"/>
    <frame tileid="111" duration="150"/>
    <frame tileid="115" duration="150"/>
    <frame tileid="119" duration="150"/>
   </animation>
  </tile>
  <tile id="120">
   <animation>
    <frame tileid="120" duration="150"/>
    <frame tileid="124" duration="150"/>
    <frame tileid="128" duration="150"/>
    <frame tileid="132" duration="150"/>
    <frame tileid="136" duration="150"/>
    <frame tileid="140" duration="150"/>
   </animation>
  </tile>
  <tile id="121">
   <animation>
    <frame tileid="121" duration="150"/>
    <frame tileid="125" duration="150"/>
    <frame tileid="129" duration="150"/>
    <frame tileid="133" duration="150"/>
    <frame tileid="137" duration="150"/>
    <frame tileid="141" duration="150"/>
   </animation>
  </tile>
  <tile id="122">
   <animation>
    <frame tileid="122" duration="150"/>
    <frame tileid="126" duration="150"/>
    <frame tileid="130" duration="150"/>
    <frame tileid="134" duration="150"/>
    <frame tileid="138" duration="150"/>
    <frame tileid="142" duration="150"/>
   </animation>
  </tile>
  <tile id="123">
   <animation>
    <frame tileid="123" duration="150"/>
    <frame tileid="127" duration="150"/>
    <frame tileid="131" duration="150"/>
    <frame tileid="135" duration="150"/>
    <frame tileid="139" duration="150"/>
    <frame tileid="143" duration="150"/>
   </animation>
  </tile>
  <tile id="144">
   <animation>
    <frame tileid="144" duration="150"/>
    <frame tileid="148" duration="150"/>
    <frame tileid="152" duration="150"/>
    <frame tileid="156" duration="150"/>
    <frame tileid="160" duration="150"/>
    <frame tileid="164" duration="150"/>
   </animation>
  </tile>
  <tile id="145">
   <animation>
    <frame tileid="145" duration="150"/>
    <frame tileid="149" duration="150"/>
    <frame tileid="153" duration="150"/>
    <frame tileid="157" duration="150"/>
    <frame tileid="161" duration="150"/>
    <frame tileid="165" duration="150"/>
   </animation>
  </tile>
  <tile id="146">
   <animation>
    <frame tileid="146" duration="150"/>
    <frame tileid="150" duration="150"/>
    <frame tileid="154" duration="150"/>
    <frame tileid="158" duration="150"/>
    <frame tileid="162" duration="150"/>
    <frame tileid="166" duration="150"/>
   </animation>
  </tile>
  <tile id="147">
   <animation>
    <frame tileid="147" duration="150"/>
    <frame tileid="151" duration="150"/>
    <frame tileid="155" duration="150"/>
    <frame tileid="159" duration="150"/>
    <frame tileid="163" duration="150"/>
    <frame tileid="167" duration="150"/>
   </animation>
  </tile>
  <tile id="168">
   <animation>
    <frame tileid="168" duration="150"/>
    <frame tileid="172" duration="150"/>
    <frame tileid="176" duration="150"/>
    <frame tileid="180" duration="150"/>
    <frame tileid="184" duration="150"/>
    <frame tileid="188" duration="150"/>
   </animation>
  </tile>
  <tile id="169">
   <animation>
    <frame tileid="169" duration="150"/>
    <frame tileid="173" duration="150"/>
    <frame tileid="177" duration="150"/>
    <frame tileid="181" duration="150"/>
    <frame tileid="185" duration="150"/>
    <frame tileid="189" duration="150"/>
   </animation>
  </tile>
  <tile id="170">
   <animation>
    <frame tileid="170" duration="150"/>
    <frame tileid="174" duration="150"/>
    <frame tileid="178" duration="150"/>
    <frame tileid="182" duration="150"/>
    <frame tileid="186" duration="150"/>
    <frame tileid="190" duration="150"/>
   </animation>
  </tile>
  <tile id="171">
   <animation>
    <frame tileid="171" duration="150"/>
    <frame tileid="175" duration="150"/>
    <frame tileid="179" duration="150"/>
    <frame tileid="183" duration="150"/>
    <frame tileid="187" duration="150"/>
    <frame tileid="191" duration="150"/>
   </animation>
  </tile>
  <tile id="192">
   <animation>
    <frame tileid="192" duration="150"/>
    <frame tileid="196" duration="150"/>
    <frame tileid="200" duration="150"/>
    <frame tileid="204" duration="150"/>
    <frame tileid="208" duration="150"/>
    <frame tileid="212" duration="150"/>
   </animation>
  </tile>
  <tile id="193">
   <animation>
    <frame tileid="193" duration="150"/>
    <frame tileid="197" duration="150"/>
    <frame tileid="201" duration="150"/>
    <frame tileid="205" duration="150"/>
    <frame tileid="209" duration="150"/>
    <frame tileid="213" duration="150"/>
   </animation>
  </tile>
  <tile id="194">
   <animation>
    <frame tileid="194" duration="150"/>
    <frame tileid="198" duration="150"/>
    <frame tileid="202" duration="150"/>
    <frame tileid="206" duration="150"/>
    <frame tileid="210" duration="150"/>
    <frame tileid="214" duration="150"/>
   </animation>
  </tile>
  <tile id="195">
   <animation>
    <frame tileid="195" duration="150"/>
    <frame tileid="199" duration="150"/>
    <frame tileid="203" duration="150"/>
    <frame tileid="207" duration="150"/>
    <frame tileid="211" duration="150"/>
    <frame tileid="215" duration="150"/>
   </animation>
  </tile>
  <tile id="216">
   <animation>
    <frame tileid="216" duration="150"/>
    <frame tileid="220" duration="150"/>
    <frame tileid="224" duration="150"/>
    <frame tileid="228" duration="150"/>
    <frame tileid="232" duration="150"/>
    <frame tileid="236" duration="150"/>
   </animation>
  </tile>
  <tile id="217">
   <animation>
    <frame tileid="217" duration="150"/>
    <frame tileid="221" duration="150"/>
    <frame tileid="225" duration="150"/>
    <frame tileid="229" duration="150"/>
    <frame tileid="233" duration="150"/>
    <frame tileid="237" duration="150"/>
   </animation>
  </tile>
  <tile id="218">
   <animation>
    <frame tileid="218" duration="150"/>
    <frame tileid="222" duration="150"/>
    <frame tileid="226" duration="150"/>
    <frame tileid="230" duration="150"/>
    <frame tileid="234" duration="150"/>
    <frame tileid="238" duration="150"/>
   </animation>
  </tile>
  <tile id="219">
   <animation>
    <frame tileid="219" duration="150"/>
    <frame tileid="223" duration="150"/>
    <frame tileid="227" duration="150"/>
    <frame tileid="231" duration="150"/>
    <frame tileid="235" duration="150"/>
    <frame tileid="239" duration="150"/>
   </animation>
  </tile>
  <tile id="240">
   <animation>
    <frame tileid="240" duration="150"/>
    <frame tileid="244" duration="150"/>
    <frame tileid="248" duration="150"/>
    <frame tileid="252" duration="150"/>
    <frame tileid="256" duration="150"/>
    <frame tileid="260" duration="150"/>
   </animation>
  </tile>
  <tile id="241">
   <animation>
    <frame tileid="241" duration="150"/>
    <frame tileid="245" duration="150"/>
    <frame tileid="249" duration="150"/>
    <frame tileid="253" duration="150"/>
    <frame tileid="257" duration="150"/>
    <frame tileid="261" duration="150"/>
   </animation>
  </tile>
  <tile id="242">
   <animation>
    <frame tileid="242" duration="150"/>
    <frame tileid="246" duration="150"/>
    <frame tileid="250" duration="150"/>
    <frame tileid="254" duration="150"/>
    <frame tileid="258" duration="150"/>
    <frame tileid="262" duration="150"/>
   </animation>
  </tile>
  <tile id="243">
   <animation>
    <frame tileid="243" duration="150"/>
    <frame tileid="247" duration="150"/>
    <frame tileid="251" duration="150"/>
    <frame tileid="255" duration="150"/>
    <frame tileid="259" duration="150"/>
    <frame tileid="263" duration="150"/>
   </animation>
  </tile>
  <tile id="264">
   <animation>
    <frame tileid="264" duration="150"/>
    <frame tileid="268" duration="150"/>
    <frame tileid="272" duration="150"/>
    <frame tileid="276" duration="150"/>
    <frame tileid="280" duration="150"/>
    <frame tileid="284" duration="150"/>
   </animation>
  </tile>
  <tile id="265">
   <animation>
    <frame tileid="265" duration="150"/>
    <frame tileid="269" duration="150"/>
    <frame tileid="273" duration="150"/>
    <frame tileid="277" duration="150"/>
    <frame tileid="281" duration="150"/>
    <frame tileid="285" duration="150"/>
   </animation>
  </tile>
  <tile id="266">
   <animation>
    <frame tileid="266" duration="150"/>
    <frame tileid="270" duration="150"/>
    <frame tileid="274" duration="150"/>
    <frame tileid="278" duration="150"/>
    <frame tileid="282" duration="150"/>
    <frame tileid="286" duration="150"/>
   </animation>
  </tile>
  <tile id="267">
   <animation>
    <frame tileid="267" duration="150"/>
    <frame tileid="271" duration="150"/>
    <frame tileid="275" duration="150"/>
    <frame tileid="279" duration="150"/>
    <frame tileid="283" duration="150"/>
    <frame tileid="287" duration="150"/>
   </animation>
  </tile>
  <tile id="288">
   <animation>
    <frame tileid="288" duration="150"/>
    <frame tileid="292" duration="150"/>
    <frame tileid="296" duration="150"/>
    <frame tileid="300" duration="150"/>
    <frame tileid="304" duration="150"/>
    <frame tileid="308" duration="150"/>
   </animation>
  </tile>
  <tile id="289">
   <animation>
    <frame tileid="289" duration="150"/>
    <frame tileid="293" duration="150"/>
    <frame tileid="297" duration="150"/>
    <frame tileid="301" duration="150"/>
    <frame tileid="305" duration="150"/>
    <frame tileid="309" duration="150"/>
   </animation>
  </tile>
  <tile id="290">
   <animation>
    <frame tileid="290" duration="150"/>
    <frame tileid="294" duration="150"/>
    <frame tileid="298" duration="150"/>
    <frame tileid="302" duration="150"/>
    <frame tileid="306" duration="150"/>
    <frame tileid="310" duration="150"/>
   </animation>
  </tile>
  <tile id="291">
   <animation>
    <frame tileid="291" duration="150"/>
    <frame tileid="295" duration="150"/>
    <frame tileid="299" duration="150"/>
    <frame tileid="303" duration="150"/>
    <frame tileid="307" duration="150"/>
    <frame tileid="311" duration="150"/>
   </animation>
  </tile>
  <tile id="312">
   <animation>
    <frame tileid="312" duration="150"/>
    <frame tileid="316" duration="150"/>
    <frame tileid="320" duration="150"/>
    <frame tileid="324" duration="150"/>
    <frame tileid="328" duration="150"/>
    <frame tileid="332" duration="150"/>
   </animation>
  </tile>
  <tile id="313">
   <animation>
    <frame tileid="313" duration="150"/>
    <frame tileid="317" duration="150"/>
    <frame tileid="321" duration="150"/>
    <frame tileid="325" duration="150"/>
    <frame tileid="329" duration="150"/>
    <frame tileid="333" duration="150"/>
   </animation>
  </tile>
  <tile id="314">
   <animation>
    <frame tileid="314" duration="150"/>
    <frame tileid="318" duration="150"/>
    <frame tileid="322" duration="150"/>
    <frame tileid="326" duration="150"/>
    <frame tileid="330" duration="150"/>
    <frame tileid="334" duration="150"/>
   </animation>
  </tile>
  <tile id="315">
   <animation>
    <frame tileid="315" duration="150"/>
    <frame tileid="319" duration="150"/>
    <frame tileid="323" duration="150"/>
    <frame tileid="327" duration="150"/>
    <frame tileid="331" duration="150"/>
    <frame tileid="335" duration="150"/>
   </animation>
  </tile>
  <tile id="336">
   <animation>
    <frame tileid="336" duration="150"/>
    <frame tileid="340" duration="150"/>
    <frame tileid="344" duration="150"/>
    <frame tileid="348" duration="150"/>
    <frame tileid="352" duration="150"/>
    <frame tileid="356" duration="150"/>
   </animation>
  </tile>
  <tile id="337">
   <animation>
    <frame tileid="337" duration="150"/>
    <frame tileid="341" duration="150"/>
    <frame tileid="345" duration="150"/>
    <frame tileid="349" duration="150"/>
    <frame tileid="353" duration="150"/>
    <frame tileid="357" duration="150"/>
   </animation>
  </tile>
  <tile id="338">
   <animation>
    <frame tileid="338" duration="150"/>
    <frame tileid="342" duration="150"/>
    <frame tileid="346" duration="150"/>
    <frame tileid="350" duration="150"/>
    <frame tileid="354" duration="150"/>
    <frame tileid="358" duration="150"/>
   </animation>
  </tile>
  <tile id="339">
   <animation>
    <frame tileid="339" duration="150"/>
    <frame tileid="343" duration="150"/>
    <frame tileid="347" duration="150"/>
    <frame tileid="351" duration="150"/>
    <frame tileid="355" duration="150"/>
    <frame tileid="359" duration="150"/>
   </animation>
  </tile>
  <tile id="360">
   <animation>
    <frame tileid="360" duration="150"/>
    <frame tileid="364" duration="150"/>
    <frame tileid="368" duration="150"/>
    <frame tileid="372" duration="150"/>
    <frame tileid="376" duration="150"/>
    <frame tileid="380" duration="150"/>
   </animation>
  </tile>
  <tile id="361">
   <animation>
    <frame tileid="361" duration="150"/>
    <frame tileid="365" duration="150"/>
    <frame tileid="369" duration="150"/>
    <frame tileid="373" duration="150"/>
    <frame tileid="377" duration="150"/>
    <frame tileid="381" duration="150"/>
   </animation>
  </tile>
  <tile id="362">
   <animation>
    <frame tileid="362" duration="150"/>
    <frame tileid="366" duration="150"/>
    <frame tileid="370" duration="150"/>
    <frame tileid="374" duration="150"/>
    <frame tileid="378" duration="150"/>
    <frame tileid="382" duration="150"/>
   </animation>
  </tile>
  <tile id="363">
   <animation>
    <frame tileid="363" duration="150"/>
    <frame tileid="367" duration="150"/>
    <frame tileid="371" duration="150"/>
    <frame tileid="375" duration="150"/>
    <frame tileid="379" duration="150"/>
    <frame tileid="383" duration="150"/>
   </animation>
  </tile>
 </tileset>
 <tileset firstgid="1985" name="Slime1_Run_full" tilewidth="16" tileheight="16" tilecount="512" columns="32">
  <image source="Slime1_Run_with_shadow.png" width="512" height="256"/>
  <tile id="0">
   <animation>
    <frame tileid="0" duration="150"/>
    <frame tileid="4" duration="150"/>
    <frame tileid="8" duration="150"/>
    <frame tileid="12" duration="150"/>
    <frame tileid="16" duration="150"/>
    <frame tileid="20" duration="150"/>
    <frame tileid="24" duration="150"/>
    <frame tileid="28" duration="150"/>
   </animation>
  </tile>
  <tile id="1">
   <animation>
    <frame tileid="1" duration="150"/>
    <frame tileid="5" duration="150"/>
    <frame tileid="9" duration="150"/>
    <frame tileid="13" duration="150"/>
    <frame tileid="17" duration="150"/>
    <frame tileid="21" duration="150"/>
    <frame tileid="25" duration="150"/>
    <frame tileid="29" duration="150"/>
   </animation>
  </tile>
  <tile id="2">
   <animation>
    <frame tileid="2" duration="150"/>
    <frame tileid="6" duration="150"/>
    <frame tileid="10" duration="150"/>
    <frame tileid="14" duration="150"/>
    <frame tileid="18" duration="150"/>
    <frame tileid="22" duration="150"/>
    <frame tileid="26" duration="150"/>
    <frame tileid="30" duration="150"/>
   </animation>
  </tile>
  <tile id="3">
   <animation>
    <frame tileid="3" duration="150"/>
    <frame tileid="7" duration="150"/>
    <frame tileid="11" duration="150"/>
    <frame tileid="15" duration="150"/>
    <frame tileid="19" duration="150"/>
    <frame tileid="23" duration="150"/>
    <frame tileid="27" duration="150"/>
    <frame tileid="31" duration="150"/>
   </animation>
  </tile>
  <tile id="32">
   <animation>
    <frame tileid="32" duration="150"/>
    <frame tileid="36" duration="150"/>
    <frame tileid="40" duration="150"/>
    <frame tileid="44" duration="150"/>
    <frame tileid="48" duration="150"/>
    <frame tileid="52" duration="150"/>
    <frame tileid="56" duration="150"/>
    <frame tileid="60" duration="150"/>
   </animation>
  </tile>
  <tile id="33">
   <animation>
    <frame tileid="33" duration="150"/>
    <frame tileid="37" duration="150"/>
    <frame tileid="41" duration="150"/>
    <frame tileid="45" duration="150"/>
    <frame tileid="49" duration="150"/>
    <frame tileid="53" duration="150"/>
    <frame tileid="57" duration="150"/>
    <frame tileid="61" duration="150"/>
   </animation>
  </tile>
  <tile id="34">
   <animation>
    <frame tileid="34" duration="150"/>
    <frame tileid="38" duration="150"/>
    <frame tileid="42" duration="150"/>
    <frame tileid="46" duration="150"/>
    <frame tileid="50" duration="150"/>
    <frame tileid="54" duration="150"/>
    <frame tileid="58" duration="150"/>
    <frame tileid="62" duration="150"/>
   </animation>
  </tile>
  <tile id="35">
   <animation>
    <frame tileid="35" duration="150"/>
    <frame tileid="39" duration="150"/>
    <frame tileid="43" duration="150"/>
    <frame tileid="47" duration="150"/>
    <frame tileid="51" duration="150"/>
    <frame tileid="55" duration="150"/>
    <frame tileid="59" duration="150"/>
    <frame tileid="63" duration="150"/>
   </animation>
  </tile>
  <tile id="64">
   <animation>
    <frame tileid="64" duration="150"/>
    <frame tileid="68" duration="150"/>
    <frame tileid="72" duration="150"/>
    <frame tileid="76" duration="150"/>
    <frame tileid="80" duration="150"/>
    <frame tileid="84" duration="150"/>
    <frame tileid="88" duration="150"/>
    <frame tileid="92" duration="150"/>
   </animation>
  </tile>
  <tile id="65">
   <animation>
    <frame tileid="65" duration="150"/>
    <frame tileid="69" duration="150"/>
    <frame tileid="73" duration="150"/>
    <frame tileid="77" duration="150"/>
    <frame tileid="81" duration="150"/>
    <frame tileid="85" duration="150"/>
    <frame tileid="89" duration="150"/>
    <frame tileid="93" duration="150"/>
   </animation>
  </tile>
  <tile id="66">
   <animation>
    <frame tileid="66" duration="150"/>
    <frame tileid="70" duration="150"/>
    <frame tileid="74" duration="150"/>
    <frame tileid="78" duration="150"/>
    <frame tileid="82" duration="150"/>
    <frame tileid="86" duration="150"/>
    <frame tileid="90" duration="150"/>
    <frame tileid="94" duration="150"/>
   </animation>
  </tile>
  <tile id="67">
   <animation>
    <frame tileid="67" duration="150"/>
    <frame tileid="71" duration="150"/>
    <frame tileid="75" duration="150"/>
    <frame tileid="79" duration="150"/>
    <frame tileid="83" duration="150"/>
    <frame tileid="87" duration="150"/>
    <frame tileid="91" duration="150"/>
    <frame tileid="95" duration="150"/>
   </animation>
  </tile>
  <tile id="96">
   <animation>
    <frame tileid="96" duration="150"/>
    <frame tileid="100" duration="150"/>
    <frame tileid="104" duration="150"/>
    <frame tileid="108" duration="150"/>
    <frame tileid="112" duration="150"/>
    <frame tileid="116" duration="150"/>
    <frame tileid="120" duration="150"/>
    <frame tileid="124" duration="150"/>
   </animation>
  </tile>
  <tile id="97">
   <animation>
    <frame tileid="97" duration="150"/>
    <frame tileid="101" duration="150"/>
    <frame tileid="105" duration="150"/>
    <frame tileid="109" duration="150"/>
    <frame tileid="113" duration="150"/>
    <frame tileid="117" duration="150"/>
    <frame tileid="121" duration="150"/>
    <frame tileid="125" duration="150"/>
   </animation>
  </tile>
  <tile id="98">
   <animation>
    <frame tileid="98" duration="150"/>
    <frame tileid="102" duration="150"/>
    <frame tileid="106" duration="150"/>
    <frame tileid="110" duration="150"/>
    <frame tileid="114" duration="150"/>
    <frame tileid="118" duration="150"/>
    <frame tileid="122" duration="150"/>
    <frame tileid="126" duration="150"/>
   </animation>
  </tile>
  <tile id="99">
   <animation>
    <frame tileid="99" duration="150"/>
    <frame tileid="103" duration="150"/>
    <frame tileid="107" duration="150"/>
    <frame tileid="111" duration="150"/>
    <frame tileid="115" duration="150"/>
    <frame tileid="119" duration="150"/>
    <frame tileid="123" duration="150"/>
    <frame tileid="127" duration="150"/>
   </animation>
  </tile>
  <tile id="128">
   <animation>
    <frame tileid="128" duration="150"/>
    <frame tileid="132" duration="150"/>
    <frame tileid="136" duration="150"/>
    <frame tileid="140" duration="150"/>
    <frame tileid="144" duration="150"/>
    <frame tileid="148" duration="150"/>
    <frame tileid="152" duration="150"/>
    <frame tileid="156" duration="150"/>
   </animation>
  </tile>
  <tile id="129">
   <animation>
    <frame tileid="129" duration="150"/>
    <frame tileid="133" duration="150"/>
    <frame tileid="137" duration="150"/>
    <frame tileid="141" duration="150"/>
    <frame tileid="145" duration="150"/>
    <frame tileid="149" duration="150"/>
    <frame tileid="153" duration="150"/>
    <frame tileid="157" duration="150"/>
   </animation>
  </tile>
  <tile id="130">
   <animation>
    <frame tileid="130" duration="150"/>
    <frame tileid="134" duration="150"/>
    <frame tileid="138" duration="150"/>
    <frame tileid="142" duration="150"/>
    <frame tileid="146" duration="150"/>
    <frame tileid="150" duration="150"/>
    <frame tileid="154" duration="150"/>
    <frame tileid="158" duration="150"/>
   </animation>
  </tile>
  <tile id="131">
   <animation>
    <frame tileid="131" duration="150"/>
    <frame tileid="135" duration="150"/>
    <frame tileid="139" duration="150"/>
    <frame tileid="143" duration="150"/>
    <frame tileid="147" duration="150"/>
    <frame tileid="151" duration="150"/>
    <frame tileid="155" duration="150"/>
    <frame tileid="159" duration="150"/>
   </animation>
  </tile>
  <tile id="160">
   <animation>
    <frame tileid="160" duration="150"/>
    <frame tileid="164" duration="150"/>
    <frame tileid="168" duration="150"/>
    <frame tileid="172" duration="150"/>
    <frame tileid="176" duration="150"/>
    <frame tileid="180" duration="150"/>
    <frame tileid="184" duration="150"/>
    <frame tileid="188" duration="150"/>
   </animation>
  </tile>
  <tile id="161">
   <animation>
    <frame tileid="161" duration="150"/>
    <frame tileid="165" duration="150"/>
    <frame tileid="169" duration="150"/>
    <frame tileid="173" duration="150"/>
    <frame tileid="177" duration="150"/>
    <frame tileid="181" duration="150"/>
    <frame tileid="185" duration="150"/>
    <frame tileid="189" duration="150"/>
   </animation>
  </tile>
  <tile id="162">
   <animation>
    <frame tileid="162" duration="150"/>
    <frame tileid="166" duration="150"/>
    <frame tileid="170" duration="150"/>
    <frame tileid="174" duration="150"/>
    <frame tileid="178" duration="150"/>
    <frame tileid="182" duration="150"/>
    <frame tileid="186" duration="150"/>
    <frame tileid="190" duration="150"/>
   </animation>
  </tile>
  <tile id="163">
   <animation>
    <frame tileid="163" duration="150"/>
    <frame tileid="167" duration="150"/>
    <frame tileid="171" duration="150"/>
    <frame tileid="175" duration="150"/>
    <frame tileid="179" duration="150"/>
    <frame tileid="183" duration="150"/>
    <frame tileid="187" duration="150"/>
    <frame tileid="191" duration="150"/>
   </animation>
  </tile>
  <tile id="192">
   <animation>
    <frame tileid="192" duration="150"/>
    <frame tileid="196" duration="150"/>
    <frame tileid="200" duration="150"/>
    <frame tileid="204" duration="150"/>
    <frame tileid="208" duration="150"/>
    <frame tileid="212" duration="150"/>
    <frame tileid="216" duration="150"/>
    <frame tileid="220" duration="150"/>
   </animation>
  </tile>
  <tile id="193">
   <animation>
    <frame tileid="193" duration="150"/>
    <frame tileid="197" duration="150"/>
    <frame tileid="201" duration="150"/>
    <frame tileid="205" duration="150"/>
    <frame tileid="209" duration="150"/>
    <frame tileid="213" duration="150"/>
    <frame tileid="217" duration="150"/>
    <frame tileid="221" duration="150"/>
   </animation>
  </tile>
  <tile id="194">
   <animation>
    <frame tileid="194" duration="150"/>
    <frame tileid="198" duration="150"/>
    <frame tileid="202" duration="150"/>
    <frame tileid="206" duration="150"/>
    <frame tileid="210" duration="150"/>
    <frame tileid="214" duration="150"/>
    <frame tileid="218" duration="150"/>
    <frame tileid="222" duration="150"/>
   </animation>
  </tile>
  <tile id="195">
   <animation>
    <frame tileid="195" duration="150"/>
    <frame tileid="199" duration="150"/>
    <frame tileid="203" duration="150"/>
    <frame tileid="207" duration="150"/>
    <frame tileid="211" duration="150"/>
    <frame tileid="215" duration="150"/>
    <frame tileid="219" duration="150"/>
    <frame tileid="223" duration="150"/>
   </animation>
  </tile>
  <tile id="224">
   <animation>
    <frame tileid="224" duration="150"/>
    <frame tileid="228" duration="150"/>
    <frame tileid="232" duration="150"/>
    <frame tileid="236" duration="150"/>
    <frame tileid="240" duration="150"/>
    <frame tileid="244" duration="150"/>
    <frame tileid="248" duration="150"/>
    <frame tileid="252" duration="150"/>
   </animation>
  </tile>
  <tile id="225">
   <animation>
    <frame tileid="225" duration="150"/>
    <frame tileid="229" duration="150"/>
    <frame tileid="233" duration="150"/>
    <frame tileid="237" duration="150"/>
    <frame tileid="241" duration="150"/>
    <frame tileid="245" duration="150"/>
    <frame tileid="249" duration="150"/>
    <frame tileid="253" duration="150"/>
   </animation>
  </tile>
  <tile id="226">
   <animation>
    <frame tileid="226" duration="150"/>
    <frame tileid="230" duration="150"/>
    <frame tileid="234" duration="150"/>
    <frame tileid="238" duration="150"/>
    <frame tileid="242" duration="150"/>
    <frame tileid="246" duration="150"/>
    <frame tileid="250" duration="150"/>
    <frame tileid="254" duration="150"/>
   </animation>
  </tile>
  <tile id="227">
   <animation>
    <frame tileid="227" duration="150"/>
    <frame tileid="231" duration="150"/>
    <frame tileid="235" duration="150"/>
    <frame tileid="239" duration="150"/>
    <frame tileid="243" duration="150"/>
    <frame tileid="247" duration="150"/>
    <frame tileid="251" duration="150"/>
    <frame tileid="255" duration="150"/>
   </animation>
  </tile>
  <tile id="256">
   <animation>
    <frame tileid="256" duration="150"/>
    <frame tileid="260" duration="150"/>
    <frame tileid="264" duration="150"/>
    <frame tileid="268" duration="150"/>
    <frame tileid="272" duration="150"/>
    <frame tileid="276" duration="150"/>
    <frame tileid="280" duration="150"/>
    <frame tileid="284" duration="150"/>
   </animation>
  </tile>
  <tile id="257">
   <animation>
    <frame tileid="257" duration="150"/>
    <frame tileid="261" duration="150"/>
    <frame tileid="265" duration="150"/>
    <frame tileid="269" duration="150"/>
    <frame tileid="273" duration="150"/>
    <frame tileid="277" duration="150"/>
    <frame tileid="281" duration="150"/>
    <frame tileid="285" duration="150"/>
   </animation>
  </tile>
  <tile id="258">
   <animation>
    <frame tileid="258" duration="150"/>
    <frame tileid="262" duration="150"/>
    <frame tileid="266" duration="150"/>
    <frame tileid="270" duration="150"/>
    <frame tileid="274" duration="150"/>
    <frame tileid="278" duration="150"/>
    <frame tileid="282" duration="150"/>
    <frame tileid="286" duration="150"/>
   </animation>
  </tile>
  <tile id="259">
   <animation>
    <frame tileid="259" duration="150"/>
    <frame tileid="263" duration="150"/>
    <frame tileid="267" duration="150"/>
    <frame tileid="271" duration="150"/>
    <frame tileid="275" duration="150"/>
    <frame tileid="279" duration="150"/>
    <frame tileid="283" duration="150"/>
    <frame tileid="287" duration="150"/>
   </animation>
  </tile>
  <tile id="288">
   <animation>
    <frame tileid="288" duration="150"/>
    <frame tileid="292" duration="150"/>
    <frame tileid="296" duration="150"/>
    <frame tileid="300" duration="150"/>
    <frame tileid="304" duration="150"/>
    <frame tileid="308" duration="150"/>
    <frame tileid="312" duration="150"/>
    <frame tileid="316" duration="150"/>
   </animation>
  </tile>
  <tile id="289">
   <animation>
    <frame tileid="289" duration="150"/>
    <frame tileid="293" duration="150"/>
    <frame tileid="297" duration="150"/>
    <frame tileid="301" duration="150"/>
    <frame tileid="305" duration="150"/>
    <frame tileid="309" duration="150"/>
    <frame tileid="313" duration="150"/>
    <frame tileid="317" duration="150"/>
   </animation>
  </tile>
  <tile id="290">
   <animation>
    <frame tileid="290" duration="150"/>
    <frame tileid="294" duration="150"/>
    <frame tileid="298" duration="150"/>
    <frame tileid="302" duration="150"/>
    <frame tileid="306" duration="150"/>
    <frame tileid="310" duration="150"/>
    <frame tileid="314" duration="150"/>
    <frame tileid="318" duration="150"/>
   </animation>
  </tile>
  <tile id="291">
   <animation>
    <frame tileid="291" duration="150"/>
    <frame tileid="295" duration="150"/>
    <frame tileid="299" duration="150"/>
    <frame tileid="303" duration="150"/>
    <frame tileid="307" duration="150"/>
    <frame tileid="311" duration="150"/>
    <frame tileid="315" duration="150"/>
    <frame tileid="319" duration="150"/>
   </animation>
  </tile>
  <tile id="320">
   <animation>
    <frame tileid="320" duration="150"/>
    <frame tileid="324" duration="150"/>
    <frame tileid="328" duration="150"/>
    <frame tileid="332" duration="150"/>
    <frame tileid="336" duration="150"/>
    <frame tileid="340" duration="150"/>
    <frame tileid="344" duration="150"/>
    <frame tileid="348" duration="150"/>
   </animation>
  </tile>
  <tile id="321">
   <animation>
    <frame tileid="321" duration="150"/>
    <frame tileid="325" duration="150"/>
    <frame tileid="329" duration="150"/>
    <frame tileid="333" duration="150"/>
    <frame tileid="337" duration="150"/>
    <frame tileid="341" duration="150"/>
    <frame tileid="345" duration="150"/>
    <frame tileid="349" duration="150"/>
   </animation>
  </tile>
  <tile id="322">
   <animation>
    <frame tileid="322" duration="150"/>
    <frame tileid="326" duration="150"/>
    <frame tileid="330" duration="150"/>
    <frame tileid="334" duration="150"/>
    <frame tileid="338" duration="150"/>
    <frame tileid="342" duration="150"/>
    <frame tileid="346" duration="150"/>
    <frame tileid="350" duration="150"/>
   </animation>
  </tile>
  <tile id="323">
   <animation>
    <frame tileid="323" duration="150"/>
    <frame tileid="327" duration="150"/>
    <frame tileid="331" duration="150"/>
    <frame tileid="335" duration="150"/>
    <frame tileid="339" duration="150"/>
    <frame tileid="343" duration="150"/>
    <frame tileid="347" duration="150"/>
    <frame tileid="351" duration="150"/>
   </animation>
  </tile>
  <tile id="352">
   <animation>
    <frame tileid="352" duration="150"/>
    <frame tileid="356" duration="150"/>
    <frame tileid="360" duration="150"/>
    <frame tileid="364" duration="150"/>
    <frame tileid="368" duration="150"/>
    <frame tileid="372" duration="150"/>
    <frame tileid="376" duration="150"/>
    <frame tileid="380" duration="150"/>
   </animation>
  </tile>
  <tile id="353">
   <animation>
    <frame tileid="353" duration="150"/>
    <frame tileid="357" duration="150"/>
    <frame tileid="361" duration="150"/>
    <frame tileid="365" duration="150"/>
    <frame tileid="369" duration="150"/>
    <frame tileid="373" duration="150"/>
    <frame tileid="377" duration="150"/>
    <frame tileid="381" duration="150"/>
   </animation>
  </tile>
  <tile id="354">
   <animation>
    <frame tileid="354" duration="150"/>
    <frame tileid="358" duration="150"/>
    <frame tileid="362" duration="150"/>
    <frame tileid="366" duration="150"/>
    <frame tileid="370" duration="150"/>
    <frame tileid="374" duration="150"/>
    <frame tileid="378" duration="150"/>
    <frame tileid="382" duration="150"/>
   </animation>
  </tile>
  <tile id="355">
   <animation>
    <frame tileid="355" duration="150"/>
    <frame tileid="359" duration="150"/>
    <frame tileid="363" duration="150"/>
    <frame tileid="367" duration="150"/>
    <frame tileid="371" duration="150"/>
    <frame tileid="375" duration="150"/>
    <frame tileid="379" duration="150"/>
    <frame tileid="383" duration="150"/>
   </animation>
  </tile>
  <tile id="384">
   <animation>
    <frame tileid="384" duration="150"/>
    <frame tileid="388" duration="150"/>
    <frame tileid="392" duration="150"/>
    <frame tileid="396" duration="150"/>
    <frame tileid="400" duration="150"/>
    <frame tileid="404" duration="150"/>
    <frame tileid="408" duration="150"/>
    <frame tileid="412" duration="150"/>
   </animation>
  </tile>
  <tile id="385">
   <animation>
    <frame tileid="385" duration="150"/>
    <frame tileid="389" duration="150"/>
    <frame tileid="393" duration="150"/>
    <frame tileid="397" duration="150"/>
    <frame tileid="401" duration="150"/>
    <frame tileid="405" duration="150"/>
    <frame tileid="409" duration="150"/>
    <frame tileid="413" duration="150"/>
   </animation>
  </tile>
  <tile id="386">
   <animation>
    <frame tileid="386" duration="150"/>
    <frame tileid="390" duration="150"/>
    <frame tileid="394" duration="150"/>
    <frame tileid="398" duration="150"/>
    <frame tileid="402" duration="150"/>
    <frame tileid="406" duration="150"/>
    <frame tileid="410" duration="150"/>
    <frame tileid="414" duration="150"/>
   </animation>
  </tile>
  <tile id="387">
   <animation>
    <frame tileid="387" duration="150"/>
    <frame tileid="391" duration="150"/>
    <frame tileid="395" duration="150"/>
    <frame tileid="399" duration="150"/>
    <frame tileid="403" duration="150"/>
    <frame tileid="407" duration="150"/>
    <frame tileid="411" duration="150"/>
    <frame tileid="415" duration="150"/>
   </animation>
  </tile>
  <tile id="416">
   <animation>
    <frame tileid="416" duration="150"/>
    <frame tileid="420" duration="150"/>
    <frame tileid="424" duration="150"/>
    <frame tileid="428" duration="150"/>
    <frame tileid="432" duration="150"/>
    <frame tileid="436" duration="150"/>
    <frame tileid="440" duration="150"/>
    <frame tileid="444" duration="150"/>
   </animation>
  </tile>
  <tile id="417">
   <animation>
    <frame tileid="417" duration="150"/>
    <frame tileid="421" duration="150"/>
    <frame tileid="425" duration="150"/>
    <frame tileid="429" duration="150"/>
    <frame tileid="433" duration="150"/>
    <frame tileid="437" duration="150"/>
    <frame tileid="441" duration="150"/>
    <frame tileid="445" duration="150"/>
   </animation>
  </tile>
  <tile id="418">
   <animation>
    <frame tileid="418" duration="150"/>
    <frame tileid="422" duration="150"/>
    <frame tileid="426" duration="150"/>
    <frame tileid="430" duration="150"/>
    <frame tileid="434" duration="150"/>
    <frame tileid="438" duration="150"/>
    <frame tileid="442" duration="150"/>
    <frame tileid="446" duration="150"/>
   </animation>
  </tile>
  <tile id="419">
   <animation>
    <frame tileid="419" duration="150"/>
    <frame tileid="423" duration="150"/>
    <frame tileid="427" duration="150"/>
    <frame tileid="431" duration="150"/>
    <frame tileid="435" duration="150"/>
    <frame tileid="439" duration="150"/>
    <frame tileid="443" duration="150"/>
    <frame tileid="447" duration="150"/>
   </animation>
  </tile>
  <tile id="448">
   <animation>
    <frame tileid="448" duration="150"/>
    <frame tileid="452" duration="150"/>
    <frame tileid="456" duration="150"/>
    <frame tileid="460" duration="150"/>
    <frame tileid="464" duration="150"/>
    <frame tileid="468" duration="150"/>
    <frame tileid="472" duration="150"/>
    <frame tileid="476" duration="150"/>
   </animation>
  </tile>
  <tile id="449">
   <animation>
    <frame tileid="449" duration="150"/>
    <frame tileid="453" duration="150"/>
    <frame tileid="457" duration="150"/>
    <frame tileid="461" duration="150"/>
    <frame tileid="465" duration="150"/>
    <frame tileid="469" duration="150"/>
    <frame tileid="473" duration="150"/>
    <frame tileid="477" duration="150"/>
   </animation>
  </tile>
  <tile id="450">
   <animation>
    <frame tileid="450" duration="150"/>
    <frame tileid="454" duration="150"/>
    <frame tileid="458" duration="150"/>
    <frame tileid="462" duration="150"/>
    <frame tileid="466" duration="150"/>
    <frame tileid="470" duration="150"/>
    <frame tileid="474" duration="150"/>
    <frame tileid="478" duration="150"/>
   </animation>
  </tile>
  <tile id="451">
   <animation>
    <frame tileid="451" duration="150"/>
    <frame tileid="455" duration="150"/>
    <frame tileid="459" duration="150"/>
    <frame tileid="463" duration="150"/>
    <frame tileid="467" duration="150"/>
    <frame tileid="471" duration="150"/>
    <frame tileid="475" duration="150"/>
    <frame tileid="479" duration="150"/>
   </animation>
  </tile>
  <tile id="480">
   <animation>
    <frame tileid="480" duration="150"/>
    <frame tileid="484" duration="150"/>
    <frame tileid="488" duration="150"/>
    <frame tileid="492" duration="150"/>
    <frame tileid="496" duration="150"/>
    <frame tileid="500" duration="150"/>
    <frame tileid="504" duration="150"/>
    <frame tileid="508" duration="150"/>
   </animation>
  </tile>
  <tile id="481">
   <animation>
    <frame tileid="481" duration="150"/>
    <frame tileid="485" duration="150"/>
    <frame tileid="489" duration="150"/>
    <frame tileid="493" duration="150"/>
    <frame tileid="497" duration="150"/>
    <frame tileid="501" duration="150"/>
    <frame tileid="505" duration="150"/>
    <frame tileid="509" duration="150"/>
   </animation>
  </tile>
  <tile id="482">
   <animation>
    <frame tileid="482" duration="150"/>
    <frame tileid="486" duration="150"/>
    <frame tileid="490" duration="150"/>
    <frame tileid="494" duration="150"/>
    <frame tileid="498" duration="150"/>
    <frame tileid="502" duration="150"/>
    <frame tileid="506" duration="150"/>
    <frame tileid="510" duration="150"/>
   </animation>
  </tile>
  <tile id="483">
   <animation>
    <frame tileid="483" duration="150"/>
    <frame tileid="487" duration="150"/>
    <frame tileid="491" duration="150"/>
    <frame tileid="495" duration="150"/>
    <frame tileid="499" duration="150"/>
    <frame tileid="503" duration="150"/>
    <frame tileid="507" duration="150"/>
    <frame tileid="511" duration="150"/>
   </animation>
  </tile>
 </tileset>
 <tileset firstgid="2497" name="Slime1_Walk_full" tilewidth="16" tileheight="16" tilecount="512" columns="32">
  <image source="Slime1_Walk_with_shadow.png" width="512" height="256"/>
  <tile id="0">
   <animation>
    <frame tileid="0" duration="150"/>
    <frame tileid="4" duration="150"/>
    <frame tileid="8" duration="150"/>
    <frame tileid="12" duration="150"/>
    <frame tileid="16" duration="150"/>
    <frame tileid="20" duration="150"/>
    <frame tileid="24" duration="150"/>
    <frame tileid="28" duration="150"/>
   </animation>
  </tile>
  <tile id="1">
   <animation>
    <frame tileid="1" duration="150"/>
    <frame tileid="5" duration="150"/>
    <frame tileid="9" duration="150"/>
    <frame tileid="13" duration="150"/>
    <frame tileid="17" duration="150"/>
    <frame tileid="21" duration="150"/>
    <frame tileid="25" duration="150"/>
    <frame tileid="29" duration="150"/>
   </animation>
  </tile>
  <tile id="2">
   <animation>
    <frame tileid="2" duration="150"/>
    <frame tileid="6" duration="150"/>
    <frame tileid="10" duration="150"/>
    <frame tileid="14" duration="150"/>
    <frame tileid="18" duration="150"/>
    <frame tileid="22" duration="150"/>
    <frame tileid="26" duration="150"/>
    <frame tileid="30" duration="150"/>
   </animation>
  </tile>
  <tile id="3">
   <animation>
    <frame tileid="3" duration="150"/>
    <frame tileid="7" duration="150"/>
    <frame tileid="11" duration="150"/>
    <frame tileid="15" duration="150"/>
    <frame tileid="19" duration="150"/>
    <frame tileid="23" duration="150"/>
    <frame tileid="27" duration="150"/>
    <frame tileid="31" duration="150"/>
   </animation>
  </tile>
  <tile id="32">
   <animation>
    <frame tileid="32" duration="150"/>
    <frame tileid="36" duration="150"/>
    <frame tileid="40" duration="150"/>
    <frame tileid="44" duration="150"/>
    <frame tileid="48" duration="150"/>
    <frame tileid="52" duration="150"/>
    <frame tileid="56" duration="150"/>
    <frame tileid="60" duration="150"/>
   </animation>
  </tile>
  <tile id="33">
   <animation>
    <frame tileid="33" duration="150"/>
    <frame tileid="37" duration="150"/>
    <frame tileid="41" duration="150"/>
    <frame tileid="45" duration="150"/>
    <frame tileid="49" duration="150"/>
    <frame tileid="53" duration="150"/>
    <frame tileid="57" duration="150"/>
    <frame tileid="61" duration="150"/>
   </animation>
  </tile>
  <tile id="34">
   <animation>
    <frame tileid="34" duration="150"/>
    <frame tileid="38" duration="150"/>
    <frame tileid="42" duration="150"/>
    <frame tileid="46" duration="150"/>
    <frame tileid="50" duration="150"/>
    <frame tileid="54" duration="150"/>
    <frame tileid="58" duration="150"/>
    <frame tileid="62" duration="150"/>
   </animation>
  </tile>
  <tile id="35">
   <animation>
    <frame tileid="35" duration="150"/>
    <frame tileid="39" duration="150"/>
    <frame tileid="43" duration="150"/>
    <frame tileid="47" duration="150"/>
    <frame tileid="51" duration="150"/>
    <frame tileid="55" duration="150"/>
    <frame tileid="59" duration="150"/>
    <frame tileid="63" duration="150"/>
   </animation>
  </tile>
  <tile id="64">
   <animation>
    <frame tileid="64" duration="150"/>
    <frame tileid="68" duration="150"/>
    <frame tileid="72" duration="150"/>
    <frame tileid="76" duration="150"/>
    <frame tileid="80" duration="150"/>
    <frame tileid="84" duration="150"/>
    <frame tileid="88" duration="150"/>
    <frame tileid="92" duration="150"/>
   </animation>
  </tile>
  <tile id="65">
   <animation>
    <frame tileid="65" duration="150"/>
    <frame tileid="69" duration="150"/>
    <frame tileid="73" duration="150"/>
    <frame tileid="77" duration="150"/>
    <frame tileid="81" duration="150"/>
    <frame tileid="85" duration="150"/>
    <frame tileid="89" duration="150"/>
    <frame tileid="93" duration="150"/>
   </animation>
  </tile>
  <tile id="66">
   <animation>
    <frame tileid="66" duration="150"/>
    <frame tileid="70" duration="150"/>
    <frame tileid="74" duration="150"/>
    <frame tileid="78" duration="150"/>
    <frame tileid="82" duration="150"/>
    <frame tileid="86" duration="150"/>
    <frame tileid="90" duration="150"/>
    <frame tileid="94" duration="150"/>
   </animation>
  </tile>
  <tile id="67">
   <animation>
    <frame tileid="67" duration="150"/>
    <frame tileid="71" duration="150"/>
    <frame tileid="75" duration="150"/>
    <frame tileid="79" duration="150"/>
    <frame tileid="83" duration="150"/>
    <frame tileid="87" duration="150"/>
    <frame tileid="91" duration="150"/>
    <frame tileid="95" duration="150"/>
   </animation>
  </tile>
  <tile id="96">
   <animation>
    <frame tileid="96" duration="150"/>
    <frame tileid="100" duration="150"/>
    <frame tileid="104" duration="150"/>
    <frame tileid="108" duration="150"/>
    <frame tileid="112" duration="150"/>
    <frame tileid="116" duration="150"/>
    <frame tileid="120" duration="150"/>
    <frame tileid="124" duration="150"/>
   </animation>
  </tile>
  <tile id="97">
   <animation>
    <frame tileid="97" duration="150"/>
    <frame tileid="101" duration="150"/>
    <frame tileid="105" duration="150"/>
    <frame tileid="109" duration="150"/>
    <frame tileid="113" duration="150"/>
    <frame tileid="117" duration="150"/>
    <frame tileid="121" duration="150"/>
    <frame tileid="125" duration="150"/>
   </animation>
  </tile>
  <tile id="98">
   <animation>
    <frame tileid="98" duration="150"/>
    <frame tileid="102" duration="150"/>
    <frame tileid="106" duration="150"/>
    <frame tileid="110" duration="150"/>
    <frame tileid="114" duration="150"/>
    <frame tileid="118" duration="150"/>
    <frame tileid="122" duration="150"/>
    <frame tileid="126" duration="150"/>
   </animation>
  </tile>
  <tile id="99">
   <animation>
    <frame tileid="99" duration="150"/>
    <frame tileid="103" duration="150"/>
    <frame tileid="107" duration="150"/>
    <frame tileid="111" duration="150"/>
    <frame tileid="115" duration="150"/>
    <frame tileid="119" duration="150"/>
    <frame tileid="123" duration="150"/>
    <frame tileid="127" duration="150"/>
   </animation>
  </tile>
  <tile id="128">
   <animation>
    <frame tileid="128" duration="150"/>
    <frame tileid="132" duration="150"/>
    <frame tileid="136" duration="150"/>
    <frame tileid="140" duration="150"/>
    <frame tileid="144" duration="150"/>
    <frame tileid="148" duration="150"/>
    <frame tileid="152" duration="150"/>
    <frame tileid="156" duration="150"/>
   </animation>
  </tile>
  <tile id="129">
   <animation>
    <frame tileid="129" duration="150"/>
    <frame tileid="133" duration="150"/>
    <frame tileid="137" duration="150"/>
    <frame tileid="141" duration="150"/>
    <frame tileid="145" duration="150"/>
    <frame tileid="149" duration="150"/>
    <frame tileid="153" duration="150"/>
    <frame tileid="157" duration="150"/>
   </animation>
  </tile>
  <tile id="130">
   <animation>
    <frame tileid="130" duration="150"/>
    <frame tileid="134" duration="150"/>
    <frame tileid="138" duration="150"/>
    <frame tileid="142" duration="150"/>
    <frame tileid="146" duration="150"/>
    <frame tileid="150" duration="150"/>
    <frame tileid="154" duration="150"/>
    <frame tileid="158" duration="150"/>
   </animation>
  </tile>
  <tile id="131">
   <animation>
    <frame tileid="131" duration="150"/>
    <frame tileid="135" duration="150"/>
    <frame tileid="139" duration="150"/>
    <frame tileid="143" duration="150"/>
    <frame tileid="147" duration="150"/>
    <frame tileid="151" duration="150"/>
    <frame tileid="155" duration="150"/>
    <frame tileid="159" duration="150"/>
   </animation>
  </tile>
  <tile id="160">
   <animation>
    <frame tileid="160" duration="150"/>
    <frame tileid="164" duration="150"/>
    <frame tileid="168" duration="150"/>
    <frame tileid="172" duration="150"/>
    <frame tileid="176" duration="150"/>
    <frame tileid="180" duration="150"/>
    <frame tileid="184" duration="150"/>
    <frame tileid="188" duration="150"/>
   </animation>
  </tile>
  <tile id="161">
   <animation>
    <frame tileid="161" duration="150"/>
    <frame tileid="165" duration="150"/>
    <frame tileid="169" duration="150"/>
    <frame tileid="173" duration="150"/>
    <frame tileid="177" duration="150"/>
    <frame tileid="181" duration="150"/>
    <frame tileid="185" duration="150"/>
    <frame tileid="189" duration="150"/>
   </animation>
  </tile>
  <tile id="162">
   <animation>
    <frame tileid="162" duration="150"/>
    <frame tileid="166" duration="150"/>
    <frame tileid="170" duration="150"/>
    <frame tileid="174" duration="150"/>
    <frame tileid="178" duration="150"/>
    <frame tileid="182" duration="150"/>
    <frame tileid="186" duration="150"/>
    <frame tileid="190" duration="150"/>
   </animation>
  </tile>
  <tile id="163">
   <animation>
    <frame tileid="163" duration="150"/>
    <frame tileid="167" duration="150"/>
    <frame tileid="171" duration="150"/>
    <frame tileid="175" duration="150"/>
    <frame tileid="179" duration="150"/>
    <frame tileid="183" duration="150"/>
    <frame tileid="187" duration="150"/>
    <frame tileid="191" duration="150"/>
   </animation>
  </tile>
  <tile id="192">
   <animation>
    <frame tileid="192" duration="150"/>
    <frame tileid="196" duration="150"/>
    <frame tileid="200" duration="150"/>
    <frame tileid="204" duration="150"/>
    <frame tileid="208" duration="150"/>
    <frame tileid="212" duration="150"/>
    <frame tileid="216" duration="150"/>
    <frame tileid="220" duration="150"/>
   </animation>
  </tile>
  <tile id="193">
   <animation>
    <frame tileid="193" duration="150"/>
    <frame tileid="197" duration="150"/>
    <frame tileid="201" duration="150"/>
    <frame tileid="205" duration="150"/>
    <frame tileid="209" duration="150"/>
    <frame tileid="213" duration="150"/>
    <frame tileid="217" duration="150"/>
    <frame tileid="221" duration="150"/>
   </animation>
  </tile>
  <tile id="194">
   <animation>
    <frame tileid="194" duration="150"/>
    <frame tileid="198" duration="150"/>
    <frame tileid="202" duration="150"/>
    <frame tileid="206" duration="150"/>
    <frame tileid="210" duration="150"/>
    <frame tileid="214" duration="150"/>
    <frame tileid="218" duration="150"/>
    <frame tileid="222" duration="150"/>
   </animation>
  </tile>
  <tile id="195">
   <animation>
    <frame tileid="195" duration="150"/>
    <frame tileid="199" duration="150"/>
    <frame tileid="203" duration="150"/>
    <frame tileid="207" duration="150"/>
    <frame tileid="211" duration="150"/>
    <frame tileid="215" duration="150"/>
    <frame tileid="219" duration="150"/>
    <frame tileid="223" duration="150"/>
   </animation>
  </tile>
  <tile id="224">
   <animation>
    <frame tileid="224" duration="150"/>
    <frame tileid="228" duration="150"/>
    <frame tileid="232" duration="150"/>
    <frame tileid="236" duration="150"/>
    <frame tileid="240" duration="150"/>
    <frame tileid="244" duration="150"/>
    <frame tileid="248" duration="150"/>
    <frame tileid="252" duration="150"/>
   </animation>
  </tile>
  <tile id="225">
   <animation>
    <frame tileid="225" duration="150"/>
    <frame tileid="229" duration="150"/>
    <frame tileid="233" duration="150"/>
    <frame tileid="237" duration="150"/>
    <frame tileid="241" duration="150"/>
    <frame tileid="245" duration="150"/>
    <frame tileid="249" duration="150"/>
    <frame tileid="253" duration="150"/>
   </animation>
  </tile>
  <tile id="226">
   <animation>
    <frame tileid="226" duration="150"/>
    <frame tileid="230" duration="150"/>
    <frame tileid="234" duration="150"/>
    <frame tileid="238" duration="150"/>
    <frame tileid="242" duration="150"/>
    <frame tileid="246" duration="150"/>
    <frame tileid="250" duration="150"/>
    <frame tileid="254" duration="150"/>
   </animation>
  </tile>
  <tile id="227">
   <animation>
    <frame tileid="227" duration="150"/>
    <frame tileid="231" duration="150"/>
    <frame tileid="235" duration="150"/>
    <frame tileid="239" duration="150"/>
    <frame tileid="243" duration="150"/>
    <frame tileid="247" duration="150"/>
    <frame tileid="251" duration="150"/>
    <frame tileid="255" duration="150"/>
   </animation>
  </tile>
  <tile id="256">
   <animation>
    <frame tileid="256" duration="150"/>
    <frame tileid="260" duration="150"/>
    <frame tileid="264" duration="150"/>
    <frame tileid="268" duration="150"/>
    <frame tileid="272" duration="150"/>
    <frame tileid="276" duration="150"/>
    <frame tileid="280" duration="150"/>
    <frame tileid="284" duration="150"/>
   </animation>
  </tile>
  <tile id="257">
   <animation>
    <frame tileid="257" duration="150"/>
    <frame tileid="261" duration="150"/>
    <frame tileid="265" duration="150"/>
    <frame tileid="269" duration="150"/>
    <frame tileid="273" duration="150"/>
    <frame tileid="277" duration="150"/>
    <frame tileid="281" duration="150"/>
    <frame tileid="285" duration="150"/>
   </animation>
  </tile>
  <tile id="258">
   <animation>
    <frame tileid="258" duration="150"/>
    <frame tileid="262" duration="150"/>
    <frame tileid="266" duration="150"/>
    <frame tileid="270" duration="150"/>
    <frame tileid="274" duration="150"/>
    <frame tileid="278" duration="150"/>
    <frame tileid="282" duration="150"/>
    <frame tileid="286" duration="150"/>
   </animation>
  </tile>
  <tile id="259">
   <animation>
    <frame tileid="259" duration="150"/>
    <frame tileid="263" duration="150"/>
    <frame tileid="267" duration="150"/>
    <frame tileid="271" duration="150"/>
    <frame tileid="275" duration="150"/>
    <frame tileid="279" duration="150"/>
    <frame tileid="283" duration="150"/>
    <frame tileid="287" duration="150"/>
   </animation>
  </tile>
  <tile id="288">
   <animation>
    <frame tileid="288" duration="150"/>
    <frame tileid="292" duration="150"/>
    <frame tileid="296" duration="150"/>
    <frame tileid="300" duration="150"/>
    <frame tileid="304" duration="150"/>
    <frame tileid="308" duration="150"/>
    <frame tileid="312" duration="150"/>
    <frame tileid="316" duration="150"/>
   </animation>
  </tile>
  <tile id="289">
   <animation>
    <frame tileid="289" duration="150"/>
    <frame tileid="293" duration="150"/>
    <frame tileid="297" duration="150"/>
    <frame tileid="301" duration="150"/>
    <frame tileid="305" duration="150"/>
    <frame tileid="309" duration="150"/>
    <frame tileid="313" duration="150"/>
    <frame tileid="317" duration="150"/>
   </animation>
  </tile>
  <tile id="290">
   <animation>
    <frame tileid="290" duration="150"/>
    <frame tileid="294" duration="150"/>
    <frame tileid="298" duration="150"/>
    <frame tileid="302" duration="150"/>
    <frame tileid="306" duration="150"/>
    <frame tileid="310" duration="150"/>
    <frame tileid="314" duration="150"/>
    <frame tileid="318" duration="150"/>
   </animation>
  </tile>
  <tile id="291">
   <animation>
    <frame tileid="291" duration="150"/>
    <frame tileid="295" duration="150"/>
    <frame tileid="299" duration="150"/>
    <frame tileid="303" duration="150"/>
    <frame tileid="307" duration="150"/>
    <frame tileid="311" duration="150"/>
    <frame tileid="315" duration="150"/>
    <frame tileid="319" duration="150"/>
   </animation>
  </tile>
  <tile id="320">
   <animation>
    <frame tileid="320" duration="150"/>
    <frame tileid="324" duration="150"/>
    <frame tileid="328" duration="150"/>
    <frame tileid="332" duration="150"/>
    <frame tileid="336" duration="150"/>
    <frame tileid="340" duration="150"/>
    <frame tileid="344" duration="150"/>
    <frame tileid="348" duration="150"/>
   </animation>
  </tile>
  <tile id="321">
   <animation>
    <frame tileid="321" duration="150"/>
    <frame tileid="325" duration="150"/>
    <frame tileid="329" duration="150"/>
    <frame tileid="333" duration="150"/>
    <frame tileid="337" duration="150"/>
    <frame tileid="341" duration="150"/>
    <frame tileid="345" duration="150"/>
    <frame tileid="349" duration="150"/>
   </animation>
  </tile>
  <tile id="322">
   <animation>
    <frame tileid="322" duration="150"/>
    <frame tileid="326" duration="150"/>
    <frame tileid="330" duration="150"/>
    <frame tileid="334" duration="150"/>
    <frame tileid="338" duration="150"/>
    <frame tileid="342" duration="150"/>
    <frame tileid="346" duration="150"/>
    <frame tileid="350" duration="150"/>
   </animation>
  </tile>
  <tile id="323">
   <animation>
    <frame tileid="323" duration="150"/>
    <frame tileid="327" duration="150"/>
    <frame tileid="331" duration="150"/>
    <frame tileid="335" duration="150"/>
    <frame tileid="339" duration="150"/>
    <frame tileid="343" duration="150"/>
    <frame tileid="347" duration="150"/>
    <frame tileid="351" duration="150"/>
   </animation>
  </tile>
  <tile id="352">
   <animation>
    <frame tileid="352" duration="150"/>
    <frame tileid="356" duration="150"/>
    <frame tileid="360" duration="150"/>
    <frame tileid="364" duration="150"/>
    <frame tileid="368" duration="150"/>
    <frame tileid="372" duration="150"/>
    <frame tileid="376" duration="150"/>
    <frame tileid="380" duration="150"/>
   </animation>
  </tile>
  <tile id="353">
   <animation>
    <frame tileid="353" duration="150"/>
    <frame tileid="357" duration="150"/>
    <frame tileid="361" duration="150"/>
    <frame tileid="365" duration="150"/>
    <frame tileid="369" duration="150"/>
    <frame tileid="373" duration="150"/>
    <frame tileid="377" duration="150"/>
    <frame tileid="381" duration="150"/>
   </animation>
  </tile>
  <tile id="354">
   <animation>
    <frame tileid="354" duration="150"/>
    <frame tileid="358" duration="150"/>
    <frame tileid="362" duration="150"/>
    <frame tileid="366" duration="150"/>
    <frame tileid="370" duration="150"/>
    <frame tileid="374" duration="150"/>
    <frame tileid="378" duration="150"/>
    <frame tileid="382" duration="150"/>
   </animation>
  </tile>
  <tile id="355">
   <animation>
    <frame tileid="355" duration="150"/>
    <frame tileid="359" duration="150"/>
    <frame tileid="363" duration="150"/>
    <frame tileid="367" duration="150"/>
    <frame tileid="371" duration="150"/>
    <frame tileid="375" duration="150"/>
    <frame tileid="379" duration="150"/>
    <frame tileid="383" duration="150"/>
   </animation>
  </tile>
  <tile id="384">
   <animation>
    <frame tileid="384" duration="150"/>
    <frame tileid="388" duration="150"/>
    <frame tileid="392" duration="150"/>
    <frame tileid="396" duration="150"/>
    <frame tileid="400" duration="150"/>
    <frame tileid="404" duration="150"/>
    <frame tileid="408" duration="150"/>
    <frame tileid="412" duration="150"/>
   </animation>
  </tile>
  <tile id="385">
   <animation>
    <frame tileid="385" duration="150"/>
    <frame tileid="389" duration="150"/>
    <frame tileid="393" duration="150"/>
    <frame tileid="397" duration="150"/>
    <frame tileid="401" duration="150"/>
    <frame tileid="405" duration="150"/>
    <frame tileid="409" duration="150"/>
    <frame tileid="413" duration="150"/>
   </animation>
  </tile>
  <tile id="386">
   <animation>
    <frame tileid="386" duration="150"/>
    <frame tileid="390" duration="150"/>
    <frame tileid="394" duration="150"/>
    <frame tileid="398" duration="150"/>
    <frame tileid="402" duration="150"/>
    <frame tileid="406" duration="150"/>
    <frame tileid="410" duration="150"/>
    <frame tileid="414" duration="150"/>
   </animation>
  </tile>
  <tile id="387">
   <animation>
    <frame tileid="387" duration="150"/>
    <frame tileid="391" duration="150"/>
    <frame tileid="395" duration="150"/>
    <frame tileid="399" duration="150"/>
    <frame tileid="403" duration="150"/>
    <frame tileid="407" duration="150"/>
    <frame tileid="411" duration="150"/>
    <frame tileid="415" duration="150"/>
   </animation>
  </tile>
  <tile id="416">
   <animation>
    <frame tileid="416" duration="150"/>
    <frame tileid="420" duration="150"/>
    <frame tileid="424" duration="150"/>
    <frame tileid="428" duration="150"/>
    <frame tileid="432" duration="150"/>
    <frame tileid="436" duration="150"/>
    <frame tileid="440" duration="150"/>
    <frame tileid="444" duration="150"/>
   </animation>
  </tile>
  <tile id="417">
   <animation>
    <frame tileid="417" duration="150"/>
    <frame tileid="421" duration="150"/>
    <frame tileid="425" duration="150"/>
    <frame tileid="429" duration="150"/>
    <frame tileid="433" duration="150"/>
    <frame tileid="437" duration="150"/>
    <frame tileid="441" duration="150"/>
    <frame tileid="445" duration="150"/>
   </animation>
  </tile>
  <tile id="418">
   <animation>
    <frame tileid="418" duration="150"/>
    <frame tileid="422" duration="150"/>
    <frame tileid="426" duration="150"/>
    <frame tileid="430" duration="150"/>
    <frame tileid="434" duration="150"/>
    <frame tileid="438" duration="150"/>
    <frame tileid="442" duration="150"/>
    <frame tileid="446" duration="150"/>
   </animation>
  </tile>
  <tile id="419">
   <animation>
    <frame tileid="419" duration="150"/>
    <frame tileid="423" duration="150"/>
    <frame tileid="427" duration="150"/>
    <frame tileid="431" duration="150"/>
    <frame tileid="435" duration="150"/>
    <frame tileid="439" duration="150"/>
    <frame tileid="443" duration="150"/>
    <frame tileid="447" duration="150"/>
   </animation>
  </tile>
  <tile id="448">
   <animation>
    <frame tileid="448" duration="150"/>
    <frame tileid="452" duration="150"/>
    <frame tileid="456" duration="150"/>
    <frame tileid="460" duration="150"/>
    <frame tileid="464" duration="150"/>
    <frame tileid="468" duration="150"/>
    <frame tileid="472" duration="150"/>
    <frame tileid="476" duration="150"/>
   </animation>
  </tile>
  <tile id="449">
   <animation>
    <frame tileid="449" duration="150"/>
    <frame tileid="453" duration="150"/>
    <frame tileid="457" duration="150"/>
    <frame tileid="461" duration="150"/>
    <frame tileid="465" duration="150"/>
    <frame tileid="469" duration="150"/>
    <frame tileid="473" duration="150"/>
    <frame tileid="477" duration="150"/>
   </animation>
  </tile>
  <tile id="450">
   <animation>
    <frame tileid="450" duration="150"/>
    <frame tileid="454" duration="150"/>
    <frame tileid="458" duration="150"/>
    <frame tileid="462" duration="150"/>
    <frame tileid="466" duration="150"/>
    <frame tileid="470" duration="150"/>
    <frame tileid="474" duration="150"/>
    <frame tileid="478" duration="150"/>
   </animation>
  </tile>
  <tile id="451">
   <animation>
    <frame tileid="451" duration="150"/>
    <frame tileid="455" duration="150"/>
    <frame tileid="459" duration="150"/>
    <frame tileid="463" duration="150"/>
    <frame tileid="467" duration="150"/>
    <frame tileid="471" duration="150"/>
    <frame tileid="475" duration="150"/>
    <frame tileid="479" duration="150"/>
   </animation>
  </tile>
  <tile id="480">
   <animation>
    <frame tileid="480" duration="150"/>
    <frame tileid="484" duration="150"/>
    <frame tileid="488" duration="150"/>
    <frame tileid="492" duration="150"/>
    <frame tileid="496" duration="150"/>
    <frame tileid="500" duration="150"/>
    <frame tileid="504" duration="150"/>
    <frame tileid="508" duration="150"/>
   </animation>
  </tile>
  <tile id="481">
   <animation>
    <frame tileid="481" duration="150"/>
    <frame tileid="485" duration="150"/>
    <frame tileid="489" duration="150"/>
    <frame tileid="493" duration="150"/>
    <frame tileid="497" duration="150"/>
    <frame tileid="501" duration="150"/>
    <frame tileid="505" duration="150"/>
    <frame tileid="509" duration="150"/>
   </animation>
  </tile>
  <tile id="482">
   <animation>
    <frame tileid="482" duration="150"/>
    <frame tileid="486" duration="150"/>
    <frame tileid="490" duration="150"/>
    <frame tileid="494" duration="150"/>
    <frame tileid="498" duration="150"/>
    <frame tileid="502" duration="150"/>
    <frame tileid="506" duration="150"/>
    <frame tileid="510" duration="150"/>
   </animation>
  </tile>
  <tile id="483">
   <animation>
    <frame tileid="483" duration="150"/>
    <frame tileid="487" duration="150"/>
    <frame tileid="491" duration="150"/>
    <frame tileid="495" duration="150"/>
    <frame tileid="499" duration="150"/>
    <frame tileid="503" duration="150"/>
    <frame tileid="507" duration="150"/>
    <frame tileid="511" duration="150"/>
   </animation>
  </tile>
 </tileset>
 <tileset firstgid="3009" name="Slime1_Walk_full" tilewidth="16" tileheight="16" tilecount="512" columns="32">
  <image source="Slime1_Walk_body.png" width="512" height="256"/>
  <tile id="0">
   <animation>
    <frame tileid="0" duration="150"/>
    <frame tileid="4" duration="150"/>
    <frame tileid="8" duration="150"/>
    <frame tileid="12" duration="150"/>
    <frame tileid="16" duration="150"/>
    <frame tileid="20" duration="150"/>
    <frame tileid="24" duration="150"/>
    <frame tileid="28" duration="150"/>
   </animation>
  </tile>
  <tile id="1">
   <animation>
    <frame tileid="1" duration="150"/>
    <frame tileid="5" duration="150"/>
    <frame tileid="9" duration="150"/>
    <frame tileid="13" duration="150"/>
    <frame tileid="17" duration="150"/>
    <frame tileid="21" duration="150"/>
    <frame tileid="25" duration="150"/>
    <frame tileid="29" duration="150"/>
   </animation>
  </tile>
  <tile id="2">
   <animation>
    <frame tileid="2" duration="150"/>
    <frame tileid="6" duration="150"/>
    <frame tileid="10" duration="150"/>
    <frame tileid="14" duration="150"/>
    <frame tileid="18" duration="150"/>
    <frame tileid="22" duration="150"/>
    <frame tileid="26" duration="150"/>
    <frame tileid="30" duration="150"/>
   </animation>
  </tile>
  <tile id="3">
   <animation>
    <frame tileid="3" duration="150"/>
    <frame tileid="7" duration="150"/>
    <frame tileid="11" duration="150"/>
    <frame tileid="15" duration="150"/>
    <frame tileid="19" duration="150"/>
    <frame tileid="23" duration="150"/>
    <frame tileid="27" duration="150"/>
    <frame tileid="31" duration="150"/>
   </animation>
  </tile>
  <tile id="32">
   <animation>
    <frame tileid="32" duration="150"/>
    <frame tileid="36" duration="150"/>
    <frame tileid="40" duration="150"/>
    <frame tileid="44" duration="150"/>
    <frame tileid="48" duration="150"/>
    <frame tileid="52" duration="150"/>
    <frame tileid="56" duration="150"/>
    <frame tileid="60" duration="150"/>
   </animation>
  </tile>
  <tile id="33">
   <animation>
    <frame tileid="33" duration="150"/>
    <frame tileid="37" duration="150"/>
    <frame tileid="41" duration="150"/>
    <frame tileid="45" duration="150"/>
    <frame tileid="49" duration="150"/>
    <frame tileid="53" duration="150"/>
    <frame tileid="57" duration="150"/>
    <frame tileid="61" duration="150"/>
   </animation>
  </tile>
  <tile id="34">
   <animation>
    <frame tileid="34" duration="150"/>
    <frame tileid="38" duration="150"/>
    <frame tileid="42" duration="150"/>
    <frame tileid="46" duration="150"/>
    <frame tileid="50" duration="150"/>
    <frame tileid="54" duration="150"/>
    <frame tileid="58" duration="150"/>
    <frame tileid="62" duration="150"/>
   </animation>
  </tile>
  <tile id="35">
   <animation>
    <frame tileid="35" duration="150"/>
    <frame tileid="39" duration="150"/>
    <frame tileid="43" duration="150"/>
    <frame tileid="47" duration="150"/>
    <frame tileid="51" duration="150"/>
    <frame tileid="55" duration="150"/>
    <frame tileid="59" duration="150"/>
    <frame tileid="63" duration="150"/>
   </animation>
  </tile>
  <tile id="64">
   <animation>
    <frame tileid="64" duration="150"/>
    <frame tileid="68" duration="150"/>
    <frame tileid="72" duration="150"/>
    <frame tileid="76" duration="150"/>
    <frame tileid="80" duration="150"/>
    <frame tileid="84" duration="150"/>
    <frame tileid="88" duration="150"/>
    <frame tileid="92" duration="150"/>
   </animation>
  </tile>
  <tile id="65">
   <animation>
    <frame tileid="65" duration="150"/>
    <frame tileid="69" duration="150"/>
    <frame tileid="73" duration="150"/>
    <frame tileid="77" duration="150"/>
    <frame tileid="81" duration="150"/>
    <frame tileid="85" duration="150"/>
    <frame tileid="89" duration="150"/>
    <frame tileid="93" duration="150"/>
   </animation>
  </tile>
  <tile id="66">
   <animation>
    <frame tileid="66" duration="150"/>
    <frame tileid="70" duration="150"/>
    <frame tileid="74" duration="150"/>
    <frame tileid="78" duration="150"/>
    <frame tileid="82" duration="150"/>
    <frame tileid="86" duration="150"/>
    <frame tileid="90" duration="150"/>
    <frame tileid="94" duration="150"/>
   </animation>
  </tile>
  <tile id="67">
   <animation>
    <frame tileid="67" duration="150"/>
    <frame tileid="71" duration="150"/>
    <frame tileid="75" duration="150"/>
    <frame tileid="79" duration="150"/>
    <frame tileid="83" duration="150"/>
    <frame tileid="87" duration="150"/>
    <frame tileid="91" duration="150"/>
    <frame tileid="95" duration="150"/>
   </animation>
  </tile>
  <tile id="96">
   <animation>
    <frame tileid="96" duration="150"/>
    <frame tileid="100" duration="150"/>
    <frame tileid="104" duration="150"/>
    <frame tileid="108" duration="150"/>
    <frame tileid="112" duration="150"/>
    <frame tileid="116" duration="150"/>
    <frame tileid="120" duration="150"/>
    <frame tileid="124" duration="150"/>
   </animation>
  </tile>
  <tile id="97">
   <animation>
    <frame tileid="97" duration="150"/>
    <frame tileid="101" duration="150"/>
    <frame tileid="105" duration="150"/>
    <frame tileid="109" duration="150"/>
    <frame tileid="113" duration="150"/>
    <frame tileid="117" duration="150"/>
    <frame tileid="121" duration="150"/>
    <frame tileid="125" duration="150"/>
   </animation>
  </tile>
  <tile id="98">
   <animation>
    <frame tileid="98" duration="150"/>
    <frame tileid="102" duration="150"/>
    <frame tileid="106" duration="150"/>
    <frame tileid="110" duration="150"/>
    <frame tileid="114" duration="150"/>
    <frame tileid="118" duration="150"/>
    <frame tileid="122" duration="150"/>
    <frame tileid="126" duration="150"/>
   </animation>
  </tile>
  <tile id="99">
   <animation>
    <frame tileid="99" duration="150"/>
    <frame tileid="103" duration="150"/>
    <frame tileid="107" duration="150"/>
    <frame tileid="111" duration="150"/>
    <frame tileid="115" duration="150"/>
    <frame tileid="119" duration="150"/>
    <frame tileid="123" duration="150"/>
    <frame tileid="127" duration="150"/>
   </animation>
  </tile>
  <tile id="128">
   <animation>
    <frame tileid="128" duration="150"/>
    <frame tileid="132" duration="150"/>
    <frame tileid="136" duration="150"/>
    <frame tileid="140" duration="150"/>
    <frame tileid="144" duration="150"/>
    <frame tileid="148" duration="150"/>
    <frame tileid="152" duration="150"/>
    <frame tileid="156" duration="150"/>
   </animation>
  </tile>
  <tile id="129">
   <animation>
    <frame tileid="129" duration="150"/>
    <frame tileid="133" duration="150"/>
    <frame tileid="137" duration="150"/>
    <frame tileid="141" duration="150"/>
    <frame tileid="145" duration="150"/>
    <frame tileid="149" duration="150"/>
    <frame tileid="153" duration="150"/>
    <frame tileid="157" duration="150"/>
   </animation>
  </tile>
  <tile id="130">
   <animation>
    <frame tileid="130" duration="150"/>
    <frame tileid="134" duration="150"/>
    <frame tileid="138" duration="150"/>
    <frame tileid="142" duration="150"/>
    <frame tileid="146" duration="150"/>
    <frame tileid="150" duration="150"/>
    <frame tileid="154" duration="150"/>
    <frame tileid="158" duration="150"/>
   </animation>
  </tile>
  <tile id="131">
   <animation>
    <frame tileid="131" duration="150"/>
    <frame tileid="135" duration="150"/>
    <frame tileid="139" duration="150"/>
    <frame tileid="143" duration="150"/>
    <frame tileid="147" duration="150"/>
    <frame tileid="151" duration="150"/>
    <frame tileid="155" duration="150"/>
    <frame tileid="159" duration="150"/>
   </animation>
  </tile>
  <tile id="160">
   <animation>
    <frame tileid="160" duration="150"/>
    <frame tileid="164" duration="150"/>
    <frame tileid="168" duration="150"/>
    <frame tileid="172" duration="150"/>
    <frame tileid="176" duration="150"/>
    <frame tileid="180" duration="150"/>
    <frame tileid="184" duration="150"/>
    <frame tileid="188" duration="150"/>
   </animation>
  </tile>
  <tile id="161">
   <animation>
    <frame tileid="161" duration="150"/>
    <frame tileid="165" duration="150"/>
    <frame tileid="169" duration="150"/>
    <frame tileid="173" duration="150"/>
    <frame tileid="177" duration="150"/>
    <frame tileid="181" duration="150"/>
    <frame tileid="185" duration="150"/>
    <frame tileid="189" duration="150"/>
   </animation>
  </tile>
  <tile id="162">
   <animation>
    <frame tileid="162" duration="150"/>
    <frame tileid="166" duration="150"/>
    <frame tileid="170" duration="150"/>
    <frame tileid="174" duration="150"/>
    <frame tileid="178" duration="150"/>
    <frame tileid="182" duration="150"/>
    <frame tileid="186" duration="150"/>
    <frame tileid="190" duration="150"/>
   </animation>
  </tile>
  <tile id="163">
   <animation>
    <frame tileid="163" duration="150"/>
    <frame tileid="167" duration="150"/>
    <frame tileid="171" duration="150"/>
    <frame tileid="175" duration="150"/>
    <frame tileid="179" duration="150"/>
    <frame tileid="183" duration="150"/>
    <frame tileid="187" duration="150"/>
    <frame tileid="191" duration="150"/>
   </animation>
  </tile>
  <tile id="192">
   <animation>
    <frame tileid="192" duration="150"/>
    <frame tileid="196" duration="150"/>
    <frame tileid="200" duration="150"/>
    <frame tileid="204" duration="150"/>
    <frame tileid="208" duration="150"/>
    <frame tileid="212" duration="150"/>
    <frame tileid="216" duration="150"/>
    <frame tileid="220" duration="150"/>
   </animation>
  </tile>
  <tile id="193">
   <animation>
    <frame tileid="193" duration="150"/>
    <frame tileid="197" duration="150"/>
    <frame tileid="201" duration="150"/>
    <frame tileid="205" duration="150"/>
    <frame tileid="209" duration="150"/>
    <frame tileid="213" duration="150"/>
    <frame tileid="217" duration="150"/>
    <frame tileid="221" duration="150"/>
   </animation>
  </tile>
  <tile id="194">
   <animation>
    <frame tileid="194" duration="150"/>
    <frame tileid="198" duration="150"/>
    <frame tileid="202" duration="150"/>
    <frame tileid="206" duration="150"/>
    <frame tileid="210" duration="150"/>
    <frame tileid="214" duration="150"/>
    <frame tileid="218" duration="150"/>
    <frame tileid="222" duration="150"/>
   </animation>
  </tile>
  <tile id="195">
   <animation>
    <frame tileid="195" duration="150"/>
    <frame tileid="199" duration="150"/>
    <frame tileid="203" duration="150"/>
    <frame tileid="207" duration="150"/>
    <frame tileid="211" duration="150"/>
    <frame tileid="215" duration="150"/>
    <frame tileid="219" duration="150"/>
    <frame tileid="223" duration="150"/>
   </animation>
  </tile>
  <tile id="224">
   <animation>
    <frame tileid="224" duration="150"/>
    <frame tileid="228" duration="150"/>
    <frame tileid="232" duration="150"/>
    <frame tileid="236" duration="150"/>
    <frame tileid="240" duration="150"/>
    <frame tileid="244" duration="150"/>
    <frame tileid="248" duration="150"/>
    <frame tileid="252" duration="150"/>
   </animation>
  </tile>
  <tile id="225">
   <animation>
    <frame tileid="225" duration="150"/>
    <frame tileid="229" duration="150"/>
    <frame tileid="233" duration="150"/>
    <frame tileid="237" duration="150"/>
    <frame tileid="241" duration="150"/>
    <frame tileid="245" duration="150"/>
    <frame tileid="249" duration="150"/>
    <frame tileid="253" duration="150"/>
   </animation>
  </tile>
  <tile id="226">
   <animation>
    <frame tileid="226" duration="150"/>
    <frame tileid="230" duration="150"/>
    <frame tileid="234" duration="150"/>
    <frame tileid="238" duration="150"/>
    <frame tileid="242" duration="150"/>
    <frame tileid="246" duration="150"/>
    <frame tileid="250" duration="150"/>
    <frame tileid="254" duration="150"/>
   </animation>
  </tile>
  <tile id="227">
   <animation>
    <frame tileid="227" duration="150"/>
    <frame tileid="231" duration="150"/>
    <frame tileid="235" duration="150"/>
    <frame tileid="239" duration="150"/>
    <frame tileid="243" duration="150"/>
    <frame tileid="247" duration="150"/>
    <frame tileid="251" duration="150"/>
    <frame tileid="255" duration="150"/>
   </animation>
  </tile>
  <tile id="256">
   <animation>
    <frame tileid="256" duration="150"/>
    <frame tileid="260" duration="150"/>
    <frame tileid="264" duration="150"/>
    <frame tileid="268" duration="150"/>
    <frame tileid="272" duration="150"/>
    <frame tileid="276" duration="150"/>
    <frame tileid="280" duration="150"/>
    <frame tileid="284" duration="150"/>
   </animation>
  </tile>
  <tile id="257">
   <animation>
    <frame tileid="257" duration="150"/>
    <frame tileid="261" duration="150"/>
    <frame tileid="265" duration="150"/>
    <frame tileid="269" duration="150"/>
    <frame tileid="273" duration="150"/>
    <frame tileid="277" duration="150"/>
    <frame tileid="281" duration="150"/>
    <frame tileid="285" duration="150"/>
   </animation>
  </tile>
  <tile id="258">
   <animation>
    <frame tileid="258" duration="150"/>
    <frame tileid="262" duration="150"/>
    <frame tileid="266" duration="150"/>
    <frame tileid="270" duration="150"/>
    <frame tileid="274" duration="150"/>
    <frame tileid="278" duration="150"/>
    <frame tileid="282" duration="150"/>
    <frame tileid="286" duration="150"/>
   </animation>
  </tile>
  <tile id="259">
   <animation>
    <frame tileid="259" duration="150"/>
    <frame tileid="263" duration="150"/>
    <frame tileid="267" duration="150"/>
    <frame tileid="271" duration="150"/>
    <frame tileid="275" duration="150"/>
    <frame tileid="279" duration="150"/>
    <frame tileid="283" duration="150"/>
    <frame tileid="287" duration="150"/>
   </animation>
  </tile>
  <tile id="288">
   <animation>
    <frame tileid="288" duration="150"/>
    <frame tileid="292" duration="150"/>
    <frame tileid="296" duration="150"/>
    <frame tileid="300" duration="150"/>
    <frame tileid="304" duration="150"/>
    <frame tileid="308" duration="150"/>
    <frame tileid="312" duration="150"/>
    <frame tileid="316" duration="150"/>
   </animation>
  </tile>
  <tile id="289">
   <animation>
    <frame tileid="289" duration="150"/>
    <frame tileid="293" duration="150"/>
    <frame tileid="297" duration="150"/>
    <frame tileid="301" duration="150"/>
    <frame tileid="305" duration="150"/>
    <frame tileid="309" duration="150"/>
    <frame tileid="313" duration="150"/>
    <frame tileid="317" duration="150"/>
   </animation>
  </tile>
  <tile id="290">
   <animation>
    <frame tileid="290" duration="150"/>
    <frame tileid="294" duration="150"/>
    <frame tileid="298" duration="150"/>
    <frame tileid="302" duration="150"/>
    <frame tileid="306" duration="150"/>
    <frame tileid="310" duration="150"/>
    <frame tileid="314" duration="150"/>
    <frame tileid="318" duration="150"/>
   </animation>
  </tile>
  <tile id="291">
   <animation>
    <frame tileid="291" duration="150"/>
    <frame tileid="295" duration="150"/>
    <frame tileid="299" duration="150"/>
    <frame tileid="303" duration="150"/>
    <frame tileid="307" duration="150"/>
    <frame tileid="311" duration="150"/>
    <frame tileid="315" duration="150"/>
    <frame tileid="319" duration="150"/>
   </animation>
  </tile>
  <tile id="320">
   <animation>
    <frame tileid="320" duration="150"/>
    <frame tileid="324" duration="150"/>
    <frame tileid="328" duration="150"/>
    <frame tileid="332" duration="150"/>
    <frame tileid="336" duration="150"/>
    <frame tileid="340" duration="150"/>
    <frame tileid="344" duration="150"/>
    <frame tileid="348" duration="150"/>
   </animation>
  </tile>
  <tile id="321">
   <animation>
    <frame tileid="321" duration="150"/>
    <frame tileid="325" duration="150"/>
    <frame tileid="329" duration="150"/>
    <frame tileid="333" duration="150"/>
    <frame tileid="337" duration="150"/>
    <frame tileid="341" duration="150"/>
    <frame tileid="345" duration="150"/>
    <frame tileid="349" duration="150"/>
   </animation>
  </tile>
  <tile id="322">
   <animation>
    <frame tileid="322" duration="150"/>
    <frame tileid="326" duration="150"/>
    <frame tileid="330" duration="150"/>
    <frame tileid="334" duration="150"/>
    <frame tileid="338" duration="150"/>
    <frame tileid="342" duration="150"/>
    <frame tileid="346" duration="150"/>
    <frame tileid="350" duration="150"/>
   </animation>
  </tile>
  <tile id="323">
   <animation>
    <frame tileid="323" duration="150"/>
    <frame tileid="327" duration="150"/>
    <frame tileid="331" duration="150"/>
    <frame tileid="335" duration="150"/>
    <frame tileid="339" duration="150"/>
    <frame tileid="343" duration="150"/>
    <frame tileid="347" duration="150"/>
    <frame tileid="351" duration="150"/>
   </animation>
  </tile>
  <tile id="352">
   <animation>
    <frame tileid="352" duration="150"/>
    <frame tileid="356" duration="150"/>
    <frame tileid="360" duration="150"/>
    <frame tileid="364" duration="150"/>
    <frame tileid="368" duration="150"/>
    <frame tileid="372" duration="150"/>
    <frame tileid="376" duration="150"/>
    <frame tileid="380" duration="150"/>
   </animation>
  </tile>
  <tile id="353">
   <animation>
    <frame tileid="353" duration="150"/>
    <frame tileid="357" duration="150"/>
    <frame tileid="361" duration="150"/>
    <frame tileid="365" duration="150"/>
    <frame tileid="369" duration="150"/>
    <frame tileid="373" duration="150"/>
    <frame tileid="377" duration="150"/>
    <frame tileid="381" duration="150"/>
   </animation>
  </tile>
  <tile id="354">
   <animation>
    <frame tileid="354" duration="150"/>
    <frame tileid="358" duration="150"/>
    <frame tileid="362" duration="150"/>
    <frame tileid="366" duration="150"/>
    <frame tileid="370" duration="150"/>
    <frame tileid="374" duration="150"/>
    <frame tileid="378" duration="150"/>
    <frame tileid="382" duration="150"/>
   </animation>
  </tile>
  <tile id="355">
   <animation>
    <frame tileid="355" duration="150"/>
    <frame tileid="359" duration="150"/>
    <frame tileid="363" duration="150"/>
    <frame tileid="367" duration="150"/>
    <frame tileid="371" duration="150"/>
    <frame tileid="375" duration="150"/>
    <frame tileid="379" duration="150"/>
    <frame tileid="383" duration="150"/>
   </animation>
  </tile>
  <tile id="384">
   <animation>
    <frame tileid="384" duration="150"/>
    <frame tileid="388" duration="150"/>
    <frame tileid="392" duration="150"/>
    <frame tileid="396" duration="150"/>
    <frame tileid="400" duration="150"/>
    <frame tileid="404" duration="150"/>
    <frame tileid="408" duration="150"/>
    <frame tileid="412" duration="150"/>
   </animation>
  </tile>
  <tile id="385">
   <animation>
    <frame tileid="385" duration="150"/>
    <frame tileid="389" duration="150"/>
    <frame tileid="393" duration="150"/>
    <frame tileid="397" duration="150"/>
    <frame tileid="401" duration="150"/>
    <frame tileid="405" duration="150"/>
    <frame tileid="409" duration="150"/>
    <frame tileid="413" duration="150"/>
   </animation>
  </tile>
  <tile id="386">
   <animation>
    <frame tileid="386" duration="150"/>
    <frame tileid="390" duration="150"/>
    <frame tileid="394" duration="150"/>
    <frame tileid="398" duration="150"/>
    <frame tileid="402" duration="150"/>
    <frame tileid="406" duration="150"/>
    <frame tileid="410" duration="150"/>
    <frame tileid="414" duration="150"/>
   </animation>
  </tile>
  <tile id="387">
   <animation>
    <frame tileid="387" duration="150"/>
    <frame tileid="391" duration="150"/>
    <frame tileid="395" duration="150"/>
    <frame tileid="399" duration="150"/>
    <frame tileid="403" duration="150"/>
    <frame tileid="407" duration="150"/>
    <frame tileid="411" duration="150"/>
    <frame tileid="415" duration="150"/>
   </animation>
  </tile>
  <tile id="416">
   <animation>
    <frame tileid="416" duration="150"/>
    <frame tileid="420" duration="150"/>
    <frame tileid="424" duration="150"/>
    <frame tileid="428" duration="150"/>
    <frame tileid="432" duration="150"/>
    <frame tileid="436" duration="150"/>
    <frame tileid="440" duration="150"/>
    <frame tileid="444" duration="150"/>
   </animation>
  </tile>
  <tile id="417">
   <animation>
    <frame tileid="417" duration="150"/>
    <frame tileid="421" duration="150"/>
    <frame tileid="425" duration="150"/>
    <frame tileid="429" duration="150"/>
    <frame tileid="433" duration="150"/>
    <frame tileid="437" duration="150"/>
    <frame tileid="441" duration="150"/>
    <frame tileid="445" duration="150"/>
   </animation>
  </tile>
  <tile id="418">
   <animation>
    <frame tileid="418" duration="150"/>
    <frame tileid="422" duration="150"/>
    <frame tileid="426" duration="150"/>
    <frame tileid="430" duration="150"/>
    <frame tileid="434" duration="150"/>
    <frame tileid="438" duration="150"/>
    <frame tileid="442" duration="150"/>
    <frame tileid="446" duration="150"/>
   </animation>
  </tile>
  <tile id="419">
   <animation>
    <frame tileid="419" duration="150"/>
    <frame tileid="423" duration="150"/>
    <frame tileid="427" duration="150"/>
    <frame tileid="431" duration="150"/>
    <frame tileid="435" duration="150"/>
    <frame tileid="439" duration="150"/>
    <frame tileid="443" duration="150"/>
    <frame tileid="447" duration="150"/>
   </animation>
  </tile>
  <tile id="448">
   <animation>
    <frame tileid="448" duration="150"/>
    <frame tileid="452" duration="150"/>
    <frame tileid="456" duration="150"/>
    <frame tileid="460" duration="150"/>
    <frame tileid="464" duration="150"/>
    <frame tileid="468" duration="150"/>
    <frame tileid="472" duration="150"/>
    <frame tileid="476" duration="150"/>
   </animation>
  </tile>
  <tile id="449">
   <animation>
    <frame tileid="449" duration="150"/>
    <frame tileid="453" duration="150"/>
    <frame tileid="457" duration="150"/>
    <frame tileid="461" duration="150"/>
    <frame tileid="465" duration="150"/>
    <frame tileid="469" duration="150"/>
    <frame tileid="473" duration="150"/>
    <frame tileid="477" duration="150"/>
   </animation>
  </tile>
  <tile id="450">
   <animation>
    <frame tileid="450" duration="150"/>
    <frame tileid="454" duration="150"/>
    <frame tileid="458" duration="150"/>
    <frame tileid="462" duration="150"/>
    <frame tileid="466" duration="150"/>
    <frame tileid="470" duration="150"/>
    <frame tileid="474" duration="150"/>
    <frame tileid="478" duration="150"/>
   </animation>
  </tile>
  <tile id="451">
   <animation>
    <frame tileid="451" duration="150"/>
    <frame tileid="455" duration="150"/>
    <frame tileid="459" duration="150"/>
    <frame tileid="463" duration="150"/>
    <frame tileid="467" duration="150"/>
    <frame tileid="471" duration="150"/>
    <frame tileid="475" duration="150"/>
    <frame tileid="479" duration="150"/>
   </animation>
  </tile>
  <tile id="480">
   <animation>
    <frame tileid="480" duration="150"/>
    <frame tileid="484" duration="150"/>
    <frame tileid="488" duration="150"/>
    <frame tileid="492" duration="150"/>
    <frame tileid="496" duration="150"/>
    <frame tileid="500" duration="150"/>
    <frame tileid="504" duration="150"/>
    <frame tileid="508" duration="150"/>
   </animation>
  </tile>
  <tile id="481">
   <animation>
    <frame tileid="481" duration="150"/>
    <frame tileid="485" duration="150"/>
    <frame tileid="489" duration="150"/>
    <frame tileid="493" duration="150"/>
    <frame tileid="497" duration="150"/>
    <frame tileid="501" duration="150"/>
    <frame tileid="505" duration="150"/>
    <frame tileid="509" duration="150"/>
   </animation>
  </tile>
  <tile id="482">
   <animation>
    <frame tileid="482" duration="150"/>
    <frame tileid="486" duration="150"/>
    <frame tileid="490" duration="150"/>
    <frame tileid="494" duration="150"/>
    <frame tileid="498" duration="150"/>
    <frame tileid="502" duration="150"/>
    <frame tileid="506" duration="150"/>
    <frame tileid="510" duration="150"/>
   </animation>
  </tile>
  <tile id="483">
   <animation>
    <frame tileid="483" duration="150"/>
    <frame tileid="487" duration="150"/>
    <frame tileid="491" duration="150"/>
    <frame tileid="495" duration="150"/>
    <frame tileid="499" duration="150"/>
    <frame tileid="503" duration="150"/>
    <frame tileid="507" duration="150"/>
    <frame tileid="511" duration="150"/>
   </animation>
  </tile>
 </tileset>
 <tileset firstgid="3521" name="Slime1_Hurt_full" tilewidth="16" tileheight="16" tilecount="320" columns="20">
  <image source="Slime1_Hurt_body.png" width="320" height="256"/>
  <tile id="0">
   <animation>
    <frame tileid="0" duration="150"/>
    <frame tileid="4" duration="150"/>
    <frame tileid="8" duration="150"/>
    <frame tileid="12" duration="150"/>
    <frame tileid="16" duration="150"/>
   </animation>
  </tile>
  <tile id="1">
   <animation>
    <frame tileid="1" duration="150"/>
    <frame tileid="5" duration="150"/>
    <frame tileid="9" duration="150"/>
    <frame tileid="13" duration="150"/>
    <frame tileid="17" duration="150"/>
   </animation>
  </tile>
  <tile id="2">
   <animation>
    <frame tileid="2" duration="150"/>
    <frame tileid="6" duration="150"/>
    <frame tileid="10" duration="150"/>
    <frame tileid="14" duration="150"/>
    <frame tileid="18" duration="150"/>
   </animation>
  </tile>
  <tile id="3">
   <animation>
    <frame tileid="3" duration="150"/>
    <frame tileid="7" duration="150"/>
    <frame tileid="11" duration="150"/>
    <frame tileid="15" duration="150"/>
    <frame tileid="19" duration="150"/>
   </animation>
  </tile>
  <tile id="20">
   <animation>
    <frame tileid="20" duration="150"/>
    <frame tileid="24" duration="150"/>
    <frame tileid="28" duration="150"/>
    <frame tileid="32" duration="150"/>
    <frame tileid="36" duration="150"/>
   </animation>
  </tile>
  <tile id="21">
   <animation>
    <frame tileid="21" duration="150"/>
    <frame tileid="25" duration="150"/>
    <frame tileid="29" duration="150"/>
    <frame tileid="33" duration="150"/>
    <frame tileid="37" duration="150"/>
   </animation>
  </tile>
  <tile id="22">
   <animation>
    <frame tileid="22" duration="150"/>
    <frame tileid="26" duration="150"/>
    <frame tileid="30" duration="150"/>
    <frame tileid="34" duration="150"/>
    <frame tileid="38" duration="150"/>
   </animation>
  </tile>
  <tile id="23">
   <animation>
    <frame tileid="23" duration="150"/>
    <frame tileid="27" duration="150"/>
    <frame tileid="31" duration="150"/>
    <frame tileid="35" duration="150"/>
    <frame tileid="39" duration="150"/>
   </animation>
  </tile>
  <tile id="40">
   <animation>
    <frame tileid="40" duration="150"/>
    <frame tileid="44" duration="150"/>
    <frame tileid="48" duration="150"/>
    <frame tileid="52" duration="150"/>
    <frame tileid="56" duration="150"/>
   </animation>
  </tile>
  <tile id="41">
   <animation>
    <frame tileid="41" duration="150"/>
    <frame tileid="45" duration="150"/>
    <frame tileid="49" duration="150"/>
    <frame tileid="53" duration="150"/>
    <frame tileid="57" duration="150"/>
   </animation>
  </tile>
  <tile id="42">
   <animation>
    <frame tileid="42" duration="150"/>
    <frame tileid="46" duration="150"/>
    <frame tileid="50" duration="150"/>
    <frame tileid="54" duration="150"/>
    <frame tileid="58" duration="150"/>
   </animation>
  </tile>
  <tile id="43">
   <animation>
    <frame tileid="43" duration="150"/>
    <frame tileid="47" duration="150"/>
    <frame tileid="51" duration="150"/>
    <frame tileid="55" duration="150"/>
    <frame tileid="59" duration="150"/>
   </animation>
  </tile>
  <tile id="60">
   <animation>
    <frame tileid="60" duration="150"/>
    <frame tileid="64" duration="150"/>
    <frame tileid="68" duration="150"/>
    <frame tileid="72" duration="150"/>
    <frame tileid="76" duration="150"/>
   </animation>
  </tile>
  <tile id="61">
   <animation>
    <frame tileid="61" duration="150"/>
    <frame tileid="65" duration="150"/>
    <frame tileid="69" duration="150"/>
    <frame tileid="73" duration="150"/>
    <frame tileid="77" duration="150"/>
   </animation>
  </tile>
  <tile id="62">
   <animation>
    <frame tileid="62" duration="150"/>
    <frame tileid="66" duration="150"/>
    <frame tileid="70" duration="150"/>
    <frame tileid="74" duration="150"/>
    <frame tileid="78" duration="150"/>
   </animation>
  </tile>
  <tile id="63">
   <animation>
    <frame tileid="63" duration="150"/>
    <frame tileid="67" duration="150"/>
    <frame tileid="71" duration="150"/>
    <frame tileid="75" duration="150"/>
    <frame tileid="79" duration="150"/>
   </animation>
  </tile>
  <tile id="80">
   <animation>
    <frame tileid="80" duration="150"/>
    <frame tileid="84" duration="150"/>
    <frame tileid="88" duration="150"/>
    <frame tileid="92" duration="150"/>
    <frame tileid="96" duration="150"/>
   </animation>
  </tile>
  <tile id="81">
   <animation>
    <frame tileid="81" duration="150"/>
    <frame tileid="85" duration="150"/>
    <frame tileid="89" duration="150"/>
    <frame tileid="93" duration="150"/>
    <frame tileid="97" duration="150"/>
   </animation>
  </tile>
  <tile id="82">
   <animation>
    <frame tileid="82" duration="150"/>
    <frame tileid="86" duration="150"/>
    <frame tileid="90" duration="150"/>
    <frame tileid="94" duration="150"/>
    <frame tileid="98" duration="150"/>
   </animation>
  </tile>
  <tile id="83">
   <animation>
    <frame tileid="83" duration="150"/>
    <frame tileid="87" duration="150"/>
    <frame tileid="91" duration="150"/>
    <frame tileid="95" duration="150"/>
    <frame tileid="99" duration="150"/>
   </animation>
  </tile>
  <tile id="100">
   <animation>
    <frame tileid="100" duration="150"/>
    <frame tileid="104" duration="150"/>
    <frame tileid="108" duration="150"/>
    <frame tileid="112" duration="150"/>
    <frame tileid="116" duration="150"/>
   </animation>
  </tile>
  <tile id="101">
   <animation>
    <frame tileid="101" duration="150"/>
    <frame tileid="105" duration="150"/>
    <frame tileid="109" duration="150"/>
    <frame tileid="113" duration="150"/>
    <frame tileid="117" duration="150"/>
   </animation>
  </tile>
  <tile id="102">
   <animation>
    <frame tileid="102" duration="150"/>
    <frame tileid="106" duration="150"/>
    <frame tileid="110" duration="150"/>
    <frame tileid="114" duration="150"/>
    <frame tileid="118" duration="150"/>
   </animation>
  </tile>
  <tile id="103">
   <animation>
    <frame tileid="103" duration="150"/>
    <frame tileid="107" duration="150"/>
    <frame tileid="111" duration="150"/>
    <frame tileid="115" duration="150"/>
    <frame tileid="119" duration="150"/>
   </animation>
  </tile>
  <tile id="120">
   <animation>
    <frame tileid="120" duration="150"/>
    <frame tileid="124" duration="150"/>
    <frame tileid="128" duration="150"/>
    <frame tileid="132" duration="150"/>
    <frame tileid="136" duration="150"/>
   </animation>
  </tile>
  <tile id="121">
   <animation>
    <frame tileid="121" duration="150"/>
    <frame tileid="125" duration="150"/>
    <frame tileid="129" duration="150"/>
    <frame tileid="133" duration="150"/>
    <frame tileid="137" duration="150"/>
   </animation>
  </tile>
  <tile id="122">
   <animation>
    <frame tileid="122" duration="150"/>
    <frame tileid="126" duration="150"/>
    <frame tileid="130" duration="150"/>
    <frame tileid="134" duration="150"/>
    <frame tileid="138" duration="150"/>
   </animation>
  </tile>
  <tile id="123">
   <animation>
    <frame tileid="123" duration="150"/>
    <frame tileid="127" duration="150"/>
    <frame tileid="131" duration="150"/>
    <frame tileid="135" duration="150"/>
    <frame tileid="139" duration="150"/>
   </animation>
  </tile>
  <tile id="140">
   <animation>
    <frame tileid="140" duration="150"/>
    <frame tileid="144" duration="150"/>
    <frame tileid="148" duration="150"/>
    <frame tileid="152" duration="150"/>
    <frame tileid="156" duration="150"/>
   </animation>
  </tile>
  <tile id="141">
   <animation>
    <frame tileid="141" duration="150"/>
    <frame tileid="145" duration="150"/>
    <frame tileid="149" duration="150"/>
    <frame tileid="153" duration="150"/>
    <frame tileid="157" duration="150"/>
   </animation>
  </tile>
  <tile id="142">
   <animation>
    <frame tileid="142" duration="150"/>
    <frame tileid="146" duration="150"/>
    <frame tileid="150" duration="150"/>
    <frame tileid="154" duration="150"/>
    <frame tileid="158" duration="150"/>
   </animation>
  </tile>
  <tile id="143">
   <animation>
    <frame tileid="143" duration="150"/>
    <frame tileid="147" duration="150"/>
    <frame tileid="151" duration="150"/>
    <frame tileid="155" duration="150"/>
    <frame tileid="159" duration="150"/>
   </animation>
  </tile>
  <tile id="160">
   <animation>
    <frame tileid="160" duration="150"/>
    <frame tileid="164" duration="150"/>
    <frame tileid="168" duration="150"/>
    <frame tileid="172" duration="150"/>
    <frame tileid="176" duration="150"/>
   </animation>
  </tile>
  <tile id="161">
   <animation>
    <frame tileid="161" duration="150"/>
    <frame tileid="165" duration="150"/>
    <frame tileid="169" duration="150"/>
    <frame tileid="173" duration="150"/>
    <frame tileid="177" duration="150"/>
   </animation>
  </tile>
  <tile id="162">
   <animation>
    <frame tileid="162" duration="150"/>
    <frame tileid="166" duration="150"/>
    <frame tileid="170" duration="150"/>
    <frame tileid="174" duration="150"/>
    <frame tileid="178" duration="150"/>
   </animation>
  </tile>
  <tile id="163">
   <animation>
    <frame tileid="163" duration="150"/>
    <frame tileid="167" duration="150"/>
    <frame tileid="171" duration="150"/>
    <frame tileid="175" duration="150"/>
    <frame tileid="179" duration="150"/>
   </animation>
  </tile>
  <tile id="180">
   <animation>
    <frame tileid="180" duration="150"/>
    <frame tileid="184" duration="150"/>
    <frame tileid="188" duration="150"/>
    <frame tileid="192" duration="150"/>
    <frame tileid="196" duration="150"/>
   </animation>
  </tile>
  <tile id="181">
   <animation>
    <frame tileid="181" duration="150"/>
    <frame tileid="185" duration="150"/>
    <frame tileid="189" duration="150"/>
    <frame tileid="193" duration="150"/>
    <frame tileid="197" duration="150"/>
   </animation>
  </tile>
  <tile id="182">
   <animation>
    <frame tileid="182" duration="150"/>
    <frame tileid="186" duration="150"/>
    <frame tileid="190" duration="150"/>
    <frame tileid="194" duration="150"/>
    <frame tileid="198" duration="150"/>
   </animation>
  </tile>
  <tile id="183">
   <animation>
    <frame tileid="183" duration="150"/>
    <frame tileid="187" duration="150"/>
    <frame tileid="191" duration="150"/>
    <frame tileid="195" duration="150"/>
    <frame tileid="199" duration="150"/>
   </animation>
  </tile>
  <tile id="200">
   <animation>
    <frame tileid="200" duration="150"/>
    <frame tileid="204" duration="150"/>
    <frame tileid="208" duration="150"/>
    <frame tileid="212" duration="150"/>
    <frame tileid="216" duration="150"/>
   </animation>
  </tile>
  <tile id="201">
   <animation>
    <frame tileid="201" duration="150"/>
    <frame tileid="205" duration="150"/>
    <frame tileid="209" duration="150"/>
    <frame tileid="213" duration="150"/>
    <frame tileid="217" duration="150"/>
   </animation>
  </tile>
  <tile id="202">
   <animation>
    <frame tileid="202" duration="150"/>
    <frame tileid="206" duration="150"/>
    <frame tileid="210" duration="150"/>
    <frame tileid="214" duration="150"/>
    <frame tileid="218" duration="150"/>
   </animation>
  </tile>
  <tile id="203">
   <animation>
    <frame tileid="203" duration="150"/>
    <frame tileid="207" duration="150"/>
    <frame tileid="211" duration="150"/>
    <frame tileid="215" duration="150"/>
    <frame tileid="219" duration="150"/>
   </animation>
  </tile>
  <tile id="220">
   <animation>
    <frame tileid="220" duration="150"/>
    <frame tileid="224" duration="150"/>
    <frame tileid="228" duration="150"/>
    <frame tileid="232" duration="150"/>
    <frame tileid="236" duration="150"/>
   </animation>
  </tile>
  <tile id="221">
   <animation>
    <frame tileid="221" duration="150"/>
    <frame tileid="225" duration="150"/>
    <frame tileid="229" duration="150"/>
    <frame tileid="233" duration="150"/>
    <frame tileid="237" duration="150"/>
   </animation>
  </tile>
  <tile id="222">
   <animation>
    <frame tileid="222" duration="150"/>
    <frame tileid="226" duration="150"/>
    <frame tileid="230" duration="150"/>
    <frame tileid="234" duration="150"/>
    <frame tileid="238" duration="150"/>
   </animation>
  </tile>
  <tile id="223">
   <animation>
    <frame tileid="223" duration="150"/>
    <frame tileid="227" duration="150"/>
    <frame tileid="231" duration="150"/>
    <frame tileid="235" duration="150"/>
    <frame tileid="239" duration="150"/>
   </animation>
  </tile>
  <tile id="240">
   <animation>
    <frame tileid="240" duration="150"/>
    <frame tileid="244" duration="150"/>
    <frame tileid="248" duration="150"/>
    <frame tileid="252" duration="150"/>
    <frame tileid="256" duration="150"/>
   </animation>
  </tile>
  <tile id="241">
   <animation>
    <frame tileid="241" duration="150"/>
    <frame tileid="245" duration="150"/>
    <frame tileid="249" duration="150"/>
    <frame tileid="253" duration="150"/>
    <frame tileid="257" duration="150"/>
   </animation>
  </tile>
  <tile id="242">
   <animation>
    <frame tileid="242" duration="150"/>
    <frame tileid="246" duration="150"/>
    <frame tileid="250" duration="150"/>
    <frame tileid="254" duration="150"/>
    <frame tileid="258" duration="150"/>
   </animation>
  </tile>
  <tile id="243">
   <animation>
    <frame tileid="243" duration="150"/>
    <frame tileid="247" duration="150"/>
    <frame tileid="251" duration="150"/>
    <frame tileid="255" duration="150"/>
    <frame tileid="259" duration="150"/>
   </animation>
  </tile>
  <tile id="260">
   <animation>
    <frame tileid="260" duration="150"/>
    <frame tileid="264" duration="150"/>
    <frame tileid="268" duration="150"/>
    <frame tileid="272" duration="150"/>
    <frame tileid="276" duration="150"/>
   </animation>
  </tile>
  <tile id="261">
   <animation>
    <frame tileid="261" duration="150"/>
    <frame tileid="265" duration="150"/>
    <frame tileid="269" duration="150"/>
    <frame tileid="273" duration="150"/>
    <frame tileid="277" duration="150"/>
   </animation>
  </tile>
  <tile id="262">
   <animation>
    <frame tileid="262" duration="150"/>
    <frame tileid="266" duration="150"/>
    <frame tileid="270" duration="150"/>
    <frame tileid="274" duration="150"/>
    <frame tileid="278" duration="150"/>
   </animation>
  </tile>
  <tile id="263">
   <animation>
    <frame tileid="263" duration="150"/>
    <frame tileid="267" duration="150"/>
    <frame tileid="271" duration="150"/>
    <frame tileid="275" duration="150"/>
    <frame tileid="279" duration="150"/>
   </animation>
  </tile>
  <tile id="280">
   <animation>
    <frame tileid="280" duration="150"/>
    <frame tileid="284" duration="150"/>
    <frame tileid="288" duration="150"/>
    <frame tileid="292" duration="150"/>
    <frame tileid="296" duration="150"/>
   </animation>
  </tile>
  <tile id="281">
   <animation>
    <frame tileid="281" duration="150"/>
    <frame tileid="285" duration="150"/>
    <frame tileid="289" duration="150"/>
    <frame tileid="293" duration="150"/>
    <frame tileid="297" duration="150"/>
   </animation>
  </tile>
  <tile id="282">
   <animation>
    <frame tileid="282" duration="150"/>
    <frame tileid="286" duration="150"/>
    <frame tileid="290" duration="150"/>
    <frame tileid="294" duration="150"/>
    <frame tileid="298" duration="150"/>
   </animation>
  </tile>
  <tile id="283">
   <animation>
    <frame tileid="283" duration="150"/>
    <frame tileid="287" duration="150"/>
    <frame tileid="291" duration="150"/>
    <frame tileid="295" duration="150"/>
    <frame tileid="299" duration="150"/>
   </animation>
  </tile>
  <tile id="300">
   <animation>
    <frame tileid="300" duration="150"/>
    <frame tileid="304" duration="150"/>
    <frame tileid="308" duration="150"/>
    <frame tileid="312" duration="150"/>
    <frame tileid="316" duration="150"/>
   </animation>
  </tile>
  <tile id="301">
   <animation>
    <frame tileid="301" duration="150"/>
    <frame tileid="305" duration="150"/>
    <frame tileid="309" duration="150"/>
    <frame tileid="313" duration="150"/>
    <frame tileid="317" duration="150"/>
   </animation>
  </tile>
  <tile id="302">
   <animation>
    <frame tileid="302" duration="150"/>
    <frame tileid="306" duration="150"/>
    <frame tileid="310" duration="150"/>
    <frame tileid="314" duration="150"/>
    <frame tileid="318" duration="150"/>
   </animation>
  </tile>
  <tile id="303">
   <animation>
    <frame tileid="303" duration="150"/>
    <frame tileid="307" duration="150"/>
    <frame tileid="311" duration="150"/>
    <frame tileid="315" duration="150"/>
    <frame tileid="319" duration="150"/>
   </animation>
  </tile>
 </tileset>
 <tileset firstgid="3841" name="Slime1_Attack_full" tilewidth="16" tileheight="16" tilecount="640" columns="40">
  <image source="Slime1_Attack_body.png" width="640" height="256"/>
  <tile id="0">
   <animation>
    <frame tileid="0" duration="150"/>
    <frame tileid="4" duration="150"/>
    <frame tileid="8" duration="150"/>
    <frame tileid="12" duration="150"/>
    <frame tileid="16" duration="150"/>
    <frame tileid="20" duration="150"/>
    <frame tileid="24" duration="150"/>
    <frame tileid="28" duration="150"/>
    <frame tileid="32" duration="150"/>
    <frame tileid="36" duration="150"/>
   </animation>
  </tile>
  <tile id="1">
   <animation>
    <frame tileid="1" duration="150"/>
    <frame tileid="5" duration="150"/>
    <frame tileid="9" duration="150"/>
    <frame tileid="13" duration="150"/>
    <frame tileid="17" duration="150"/>
    <frame tileid="21" duration="150"/>
    <frame tileid="25" duration="150"/>
    <frame tileid="29" duration="150"/>
    <frame tileid="33" duration="150"/>
    <frame tileid="37" duration="150"/>
   </animation>
  </tile>
  <tile id="2">
   <animation>
    <frame tileid="2" duration="150"/>
    <frame tileid="6" duration="150"/>
    <frame tileid="10" duration="150"/>
    <frame tileid="14" duration="150"/>
    <frame tileid="18" duration="150"/>
    <frame tileid="22" duration="150"/>
    <frame tileid="26" duration="150"/>
    <frame tileid="30" duration="150"/>
    <frame tileid="34" duration="150"/>
    <frame tileid="38" duration="150"/>
   </animation>
  </tile>
  <tile id="3">
   <animation>
    <frame tileid="3" duration="150"/>
    <frame tileid="7" duration="150"/>
    <frame tileid="11" duration="150"/>
    <frame tileid="15" duration="150"/>
    <frame tileid="19" duration="150"/>
    <frame tileid="23" duration="150"/>
    <frame tileid="27" duration="150"/>
    <frame tileid="31" duration="150"/>
    <frame tileid="35" duration="150"/>
    <frame tileid="39" duration="150"/>
   </animation>
  </tile>
  <tile id="40">
   <animation>
    <frame tileid="40" duration="150"/>
    <frame tileid="44" duration="150"/>
    <frame tileid="48" duration="150"/>
    <frame tileid="52" duration="150"/>
    <frame tileid="56" duration="150"/>
    <frame tileid="60" duration="150"/>
    <frame tileid="64" duration="150"/>
    <frame tileid="68" duration="150"/>
    <frame tileid="72" duration="150"/>
    <frame tileid="76" duration="150"/>
   </animation>
  </tile>
  <tile id="41">
   <animation>
    <frame tileid="41" duration="150"/>
    <frame tileid="45" duration="150"/>
    <frame tileid="49" duration="150"/>
    <frame tileid="53" duration="150"/>
    <frame tileid="57" duration="150"/>
    <frame tileid="61" duration="150"/>
    <frame tileid="65" duration="150"/>
    <frame tileid="69" duration="150"/>
    <frame tileid="73" duration="150"/>
    <frame tileid="77" duration="150"/>
   </animation>
  </tile>
  <tile id="42">
   <animation>
    <frame tileid="42" duration="150"/>
    <frame tileid="46" duration="150"/>
    <frame tileid="50" duration="150"/>
    <frame tileid="54" duration="150"/>
    <frame tileid="58" duration="150"/>
    <frame tileid="62" duration="150"/>
    <frame tileid="66" duration="150"/>
    <frame tileid="70" duration="150"/>
    <frame tileid="74" duration="150"/>
    <frame tileid="78" duration="150"/>
   </animation>
  </tile>
  <tile id="43">
   <animation>
    <frame tileid="43" duration="150"/>
    <frame tileid="47" duration="150"/>
    <frame tileid="51" duration="150"/>
    <frame tileid="55" duration="150"/>
    <frame tileid="59" duration="150"/>
    <frame tileid="63" duration="150"/>
    <frame tileid="67" duration="150"/>
    <frame tileid="71" duration="150"/>
    <frame tileid="75" duration="150"/>
    <frame tileid="79" duration="150"/>
   </animation>
  </tile>
  <tile id="80">
   <animation>
    <frame tileid="80" duration="150"/>
    <frame tileid="84" duration="150"/>
    <frame tileid="88" duration="150"/>
    <frame tileid="92" duration="150"/>
    <frame tileid="96" duration="150"/>
    <frame tileid="100" duration="150"/>
    <frame tileid="104" duration="150"/>
    <frame tileid="108" duration="150"/>
    <frame tileid="112" duration="150"/>
    <frame tileid="116" duration="150"/>
   </animation>
  </tile>
  <tile id="81">
   <animation>
    <frame tileid="81" duration="150"/>
    <frame tileid="85" duration="150"/>
    <frame tileid="89" duration="150"/>
    <frame tileid="93" duration="150"/>
    <frame tileid="97" duration="150"/>
    <frame tileid="101" duration="150"/>
    <frame tileid="105" duration="150"/>
    <frame tileid="109" duration="150"/>
    <frame tileid="113" duration="150"/>
    <frame tileid="117" duration="150"/>
   </animation>
  </tile>
  <tile id="82">
   <animation>
    <frame tileid="82" duration="150"/>
    <frame tileid="86" duration="150"/>
    <frame tileid="90" duration="150"/>
    <frame tileid="94" duration="150"/>
    <frame tileid="98" duration="150"/>
    <frame tileid="102" duration="150"/>
    <frame tileid="106" duration="150"/>
    <frame tileid="110" duration="150"/>
    <frame tileid="114" duration="150"/>
    <frame tileid="118" duration="150"/>
   </animation>
  </tile>
  <tile id="83">
   <animation>
    <frame tileid="83" duration="150"/>
    <frame tileid="87" duration="150"/>
    <frame tileid="91" duration="150"/>
    <frame tileid="95" duration="150"/>
    <frame tileid="99" duration="150"/>
    <frame tileid="103" duration="150"/>
    <frame tileid="107" duration="150"/>
    <frame tileid="111" duration="150"/>
    <frame tileid="115" duration="150"/>
    <frame tileid="119" duration="150"/>
   </animation>
  </tile>
  <tile id="120">
   <animation>
    <frame tileid="120" duration="150"/>
    <frame tileid="124" duration="150"/>
    <frame tileid="128" duration="150"/>
    <frame tileid="132" duration="150"/>
    <frame tileid="136" duration="150"/>
    <frame tileid="140" duration="150"/>
    <frame tileid="144" duration="150"/>
    <frame tileid="148" duration="150"/>
    <frame tileid="152" duration="150"/>
    <frame tileid="156" duration="150"/>
   </animation>
  </tile>
  <tile id="121">
   <animation>
    <frame tileid="121" duration="150"/>
    <frame tileid="125" duration="150"/>
    <frame tileid="129" duration="150"/>
    <frame tileid="133" duration="150"/>
    <frame tileid="137" duration="150"/>
    <frame tileid="141" duration="150"/>
    <frame tileid="145" duration="150"/>
    <frame tileid="149" duration="150"/>
    <frame tileid="153" duration="150"/>
    <frame tileid="157" duration="150"/>
   </animation>
  </tile>
  <tile id="122">
   <animation>
    <frame tileid="122" duration="150"/>
    <frame tileid="126" duration="150"/>
    <frame tileid="130" duration="150"/>
    <frame tileid="134" duration="150"/>
    <frame tileid="138" duration="150"/>
    <frame tileid="142" duration="150"/>
    <frame tileid="146" duration="150"/>
    <frame tileid="150" duration="150"/>
    <frame tileid="154" duration="150"/>
    <frame tileid="158" duration="150"/>
   </animation>
  </tile>
  <tile id="123">
   <animation>
    <frame tileid="123" duration="150"/>
    <frame tileid="127" duration="150"/>
    <frame tileid="131" duration="150"/>
    <frame tileid="135" duration="150"/>
    <frame tileid="139" duration="150"/>
    <frame tileid="143" duration="150"/>
    <frame tileid="147" duration="150"/>
    <frame tileid="151" duration="150"/>
    <frame tileid="155" duration="150"/>
    <frame tileid="159" duration="150"/>
   </animation>
  </tile>
  <tile id="160">
   <animation>
    <frame tileid="160" duration="150"/>
    <frame tileid="164" duration="150"/>
    <frame tileid="168" duration="150"/>
    <frame tileid="172" duration="150"/>
    <frame tileid="176" duration="150"/>
    <frame tileid="180" duration="150"/>
    <frame tileid="184" duration="150"/>
    <frame tileid="188" duration="150"/>
    <frame tileid="192" duration="150"/>
    <frame tileid="196" duration="150"/>
   </animation>
  </tile>
  <tile id="161">
   <animation>
    <frame tileid="161" duration="150"/>
    <frame tileid="165" duration="150"/>
    <frame tileid="169" duration="150"/>
    <frame tileid="173" duration="150"/>
    <frame tileid="177" duration="150"/>
    <frame tileid="181" duration="150"/>
    <frame tileid="185" duration="150"/>
    <frame tileid="189" duration="150"/>
    <frame tileid="193" duration="150"/>
    <frame tileid="197" duration="150"/>
   </animation>
  </tile>
  <tile id="162">
   <animation>
    <frame tileid="162" duration="150"/>
    <frame tileid="166" duration="150"/>
    <frame tileid="170" duration="150"/>
    <frame tileid="174" duration="150"/>
    <frame tileid="178" duration="150"/>
    <frame tileid="182" duration="150"/>
    <frame tileid="186" duration="150"/>
    <frame tileid="190" duration="150"/>
    <frame tileid="194" duration="150"/>
    <frame tileid="198" duration="150"/>
   </animation>
  </tile>
  <tile id="163">
   <animation>
    <frame tileid="163" duration="150"/>
    <frame tileid="167" duration="150"/>
    <frame tileid="171" duration="150"/>
    <frame tileid="175" duration="150"/>
    <frame tileid="179" duration="150"/>
    <frame tileid="183" duration="150"/>
    <frame tileid="187" duration="150"/>
    <frame tileid="191" duration="150"/>
    <frame tileid="195" duration="150"/>
    <frame tileid="199" duration="150"/>
   </animation>
  </tile>
  <tile id="200">
   <animation>
    <frame tileid="200" duration="150"/>
    <frame tileid="204" duration="150"/>
    <frame tileid="208" duration="150"/>
    <frame tileid="212" duration="150"/>
    <frame tileid="216" duration="150"/>
    <frame tileid="220" duration="150"/>
    <frame tileid="224" duration="150"/>
    <frame tileid="228" duration="150"/>
    <frame tileid="232" duration="150"/>
    <frame tileid="236" duration="150"/>
   </animation>
  </tile>
  <tile id="201">
   <animation>
    <frame tileid="201" duration="150"/>
    <frame tileid="205" duration="150"/>
    <frame tileid="209" duration="150"/>
    <frame tileid="213" duration="150"/>
    <frame tileid="217" duration="150"/>
    <frame tileid="221" duration="150"/>
    <frame tileid="225" duration="150"/>
    <frame tileid="229" duration="150"/>
    <frame tileid="233" duration="150"/>
    <frame tileid="237" duration="150"/>
   </animation>
  </tile>
  <tile id="202">
   <animation>
    <frame tileid="202" duration="150"/>
    <frame tileid="206" duration="150"/>
    <frame tileid="210" duration="150"/>
    <frame tileid="214" duration="150"/>
    <frame tileid="218" duration="150"/>
    <frame tileid="222" duration="150"/>
    <frame tileid="226" duration="150"/>
    <frame tileid="230" duration="150"/>
    <frame tileid="234" duration="150"/>
    <frame tileid="238" duration="150"/>
   </animation>
  </tile>
  <tile id="203">
   <animation>
    <frame tileid="203" duration="150"/>
    <frame tileid="207" duration="150"/>
    <frame tileid="211" duration="150"/>
    <frame tileid="215" duration="150"/>
    <frame tileid="219" duration="150"/>
    <frame tileid="223" duration="150"/>
    <frame tileid="227" duration="150"/>
    <frame tileid="231" duration="150"/>
    <frame tileid="235" duration="150"/>
    <frame tileid="239" duration="150"/>
   </animation>
  </tile>
  <tile id="240">
   <animation>
    <frame tileid="240" duration="150"/>
    <frame tileid="244" duration="150"/>
    <frame tileid="248" duration="150"/>
    <frame tileid="252" duration="150"/>
    <frame tileid="256" duration="150"/>
    <frame tileid="260" duration="150"/>
    <frame tileid="264" duration="150"/>
    <frame tileid="268" duration="150"/>
    <frame tileid="272" duration="150"/>
    <frame tileid="276" duration="150"/>
   </animation>
  </tile>
  <tile id="241">
   <animation>
    <frame tileid="241" duration="150"/>
    <frame tileid="245" duration="150"/>
    <frame tileid="249" duration="150"/>
    <frame tileid="253" duration="150"/>
    <frame tileid="257" duration="150"/>
    <frame tileid="261" duration="150"/>
    <frame tileid="265" duration="150"/>
    <frame tileid="269" duration="150"/>
    <frame tileid="273" duration="150"/>
    <frame tileid="277" duration="150"/>
   </animation>
  </tile>
  <tile id="242">
   <animation>
    <frame tileid="242" duration="150"/>
    <frame tileid="246" duration="150"/>
    <frame tileid="250" duration="150"/>
    <frame tileid="254" duration="150"/>
    <frame tileid="258" duration="150"/>
    <frame tileid="262" duration="150"/>
    <frame tileid="266" duration="150"/>
    <frame tileid="270" duration="150"/>
    <frame tileid="274" duration="150"/>
    <frame tileid="278" duration="150"/>
   </animation>
  </tile>
  <tile id="243">
   <animation>
    <frame tileid="243" duration="150"/>
    <frame tileid="247" duration="150"/>
    <frame tileid="251" duration="150"/>
    <frame tileid="255" duration="150"/>
    <frame tileid="259" duration="150"/>
    <frame tileid="263" duration="150"/>
    <frame tileid="267" duration="150"/>
    <frame tileid="271" duration="150"/>
    <frame tileid="275" duration="150"/>
    <frame tileid="279" duration="150"/>
   </animation>
  </tile>
  <tile id="280">
   <animation>
    <frame tileid="280" duration="150"/>
    <frame tileid="284" duration="150"/>
    <frame tileid="288" duration="150"/>
    <frame tileid="292" duration="150"/>
    <frame tileid="296" duration="150"/>
    <frame tileid="300" duration="150"/>
    <frame tileid="304" duration="150"/>
    <frame tileid="308" duration="150"/>
    <frame tileid="312" duration="150"/>
    <frame tileid="316" duration="150"/>
   </animation>
  </tile>
  <tile id="281">
   <animation>
    <frame tileid="281" duration="150"/>
    <frame tileid="285" duration="150"/>
    <frame tileid="289" duration="150"/>
    <frame tileid="293" duration="150"/>
    <frame tileid="297" duration="150"/>
    <frame tileid="301" duration="150"/>
    <frame tileid="305" duration="150"/>
    <frame tileid="309" duration="150"/>
    <frame tileid="313" duration="150"/>
    <frame tileid="317" duration="150"/>
   </animation>
  </tile>
  <tile id="282">
   <animation>
    <frame tileid="282" duration="150"/>
    <frame tileid="286" duration="150"/>
    <frame tileid="290" duration="150"/>
    <frame tileid="294" duration="150"/>
    <frame tileid="298" duration="150"/>
    <frame tileid="302" duration="150"/>
    <frame tileid="306" duration="150"/>
    <frame tileid="310" duration="150"/>
    <frame tileid="314" duration="150"/>
    <frame tileid="318" duration="150"/>
   </animation>
  </tile>
  <tile id="283">
   <animation>
    <frame tileid="283" duration="150"/>
    <frame tileid="287" duration="150"/>
    <frame tileid="291" duration="150"/>
    <frame tileid="295" duration="150"/>
    <frame tileid="299" duration="150"/>
    <frame tileid="303" duration="150"/>
    <frame tileid="307" duration="150"/>
    <frame tileid="311" duration="150"/>
    <frame tileid="315" duration="150"/>
    <frame tileid="319" duration="150"/>
   </animation>
  </tile>
  <tile id="320">
   <animation>
    <frame tileid="320" duration="150"/>
    <frame tileid="324" duration="150"/>
    <frame tileid="328" duration="150"/>
    <frame tileid="332" duration="150"/>
    <frame tileid="336" duration="150"/>
    <frame tileid="340" duration="150"/>
    <frame tileid="344" duration="150"/>
    <frame tileid="348" duration="150"/>
    <frame tileid="352" duration="150"/>
    <frame tileid="357" duration="150"/>
   </animation>
  </tile>
  <tile id="321">
   <animation>
    <frame tileid="321" duration="150"/>
    <frame tileid="325" duration="150"/>
    <frame tileid="329" duration="150"/>
    <frame tileid="333" duration="150"/>
    <frame tileid="337" duration="150"/>
    <frame tileid="341" duration="150"/>
    <frame tileid="345" duration="150"/>
    <frame tileid="349" duration="150"/>
    <frame tileid="353" duration="150"/>
    <frame tileid="357" duration="150"/>
   </animation>
  </tile>
  <tile id="322">
   <animation>
    <frame tileid="322" duration="150"/>
    <frame tileid="326" duration="150"/>
    <frame tileid="330" duration="150"/>
    <frame tileid="334" duration="150"/>
    <frame tileid="338" duration="150"/>
    <frame tileid="342" duration="150"/>
    <frame tileid="346" duration="150"/>
    <frame tileid="350" duration="150"/>
    <frame tileid="354" duration="150"/>
    <frame tileid="358" duration="150"/>
   </animation>
  </tile>
  <tile id="323">
   <animation>
    <frame tileid="323" duration="150"/>
    <frame tileid="327" duration="150"/>
    <frame tileid="331" duration="150"/>
    <frame tileid="335" duration="150"/>
    <frame tileid="339" duration="150"/>
    <frame tileid="343" duration="150"/>
    <frame tileid="347" duration="150"/>
    <frame tileid="351" duration="150"/>
    <frame tileid="355" duration="150"/>
    <frame tileid="359" duration="150"/>
   </animation>
  </tile>
  <tile id="360">
   <animation>
    <frame tileid="360" duration="150"/>
    <frame tileid="364" duration="150"/>
    <frame tileid="368" duration="150"/>
    <frame tileid="372" duration="150"/>
    <frame tileid="376" duration="150"/>
    <frame tileid="380" duration="150"/>
    <frame tileid="384" duration="150"/>
    <frame tileid="388" duration="150"/>
    <frame tileid="392" duration="150"/>
    <frame tileid="396" duration="150"/>
   </animation>
  </tile>
  <tile id="361">
   <animation>
    <frame tileid="361" duration="150"/>
    <frame tileid="365" duration="150"/>
    <frame tileid="369" duration="150"/>
    <frame tileid="373" duration="150"/>
    <frame tileid="377" duration="150"/>
    <frame tileid="381" duration="150"/>
    <frame tileid="385" duration="150"/>
    <frame tileid="389" duration="150"/>
    <frame tileid="393" duration="150"/>
    <frame tileid="397" duration="150"/>
   </animation>
  </tile>
  <tile id="362">
   <animation>
    <frame tileid="362" duration="150"/>
    <frame tileid="366" duration="150"/>
    <frame tileid="370" duration="150"/>
    <frame tileid="374" duration="150"/>
    <frame tileid="378" duration="150"/>
    <frame tileid="382" duration="150"/>
    <frame tileid="386" duration="150"/>
    <frame tileid="390" duration="150"/>
    <frame tileid="394" duration="150"/>
    <frame tileid="398" duration="150"/>
   </animation>
  </tile>
  <tile id="363">
   <animation>
    <frame tileid="363" duration="150"/>
    <frame tileid="367" duration="150"/>
    <frame tileid="371" duration="150"/>
    <frame tileid="375" duration="150"/>
    <frame tileid="379" duration="150"/>
    <frame tileid="383" duration="150"/>
    <frame tileid="387" duration="150"/>
    <frame tileid="391" duration="150"/>
    <frame tileid="395" duration="150"/>
    <frame tileid="399" duration="150"/>
   </animation>
  </tile>
  <tile id="400">
   <animation>
    <frame tileid="400" duration="150"/>
    <frame tileid="404" duration="150"/>
    <frame tileid="408" duration="150"/>
    <frame tileid="412" duration="150"/>
    <frame tileid="416" duration="150"/>
    <frame tileid="420" duration="150"/>
    <frame tileid="424" duration="150"/>
    <frame tileid="428" duration="150"/>
    <frame tileid="432" duration="150"/>
    <frame tileid="436" duration="150"/>
   </animation>
  </tile>
  <tile id="401">
   <animation>
    <frame tileid="401" duration="150"/>
    <frame tileid="405" duration="150"/>
    <frame tileid="409" duration="150"/>
    <frame tileid="413" duration="150"/>
    <frame tileid="417" duration="150"/>
    <frame tileid="421" duration="150"/>
    <frame tileid="425" duration="150"/>
    <frame tileid="429" duration="150"/>
    <frame tileid="433" duration="150"/>
    <frame tileid="437" duration="150"/>
   </animation>
  </tile>
  <tile id="402">
   <animation>
    <frame tileid="402" duration="150"/>
    <frame tileid="406" duration="150"/>
    <frame tileid="410" duration="150"/>
    <frame tileid="414" duration="150"/>
    <frame tileid="418" duration="150"/>
    <frame tileid="422" duration="150"/>
    <frame tileid="426" duration="150"/>
    <frame tileid="430" duration="150"/>
    <frame tileid="434" duration="150"/>
    <frame tileid="438" duration="150"/>
   </animation>
  </tile>
  <tile id="403">
   <animation>
    <frame tileid="403" duration="150"/>
    <frame tileid="407" duration="150"/>
    <frame tileid="411" duration="150"/>
    <frame tileid="415" duration="150"/>
    <frame tileid="419" duration="150"/>
    <frame tileid="423" duration="150"/>
    <frame tileid="427" duration="150"/>
    <frame tileid="431" duration="150"/>
    <frame tileid="435" duration="150"/>
    <frame tileid="439" duration="150"/>
   </animation>
  </tile>
  <tile id="440">
   <animation>
    <frame tileid="440" duration="150"/>
    <frame tileid="444" duration="150"/>
    <frame tileid="448" duration="150"/>
    <frame tileid="452" duration="150"/>
    <frame tileid="456" duration="150"/>
    <frame tileid="460" duration="150"/>
    <frame tileid="464" duration="150"/>
    <frame tileid="468" duration="150"/>
    <frame tileid="472" duration="150"/>
    <frame tileid="476" duration="150"/>
   </animation>
  </tile>
  <tile id="441">
   <animation>
    <frame tileid="441" duration="150"/>
    <frame tileid="445" duration="150"/>
    <frame tileid="449" duration="150"/>
    <frame tileid="453" duration="150"/>
    <frame tileid="457" duration="150"/>
    <frame tileid="461" duration="150"/>
    <frame tileid="465" duration="150"/>
    <frame tileid="469" duration="150"/>
    <frame tileid="473" duration="150"/>
    <frame tileid="477" duration="150"/>
   </animation>
  </tile>
  <tile id="442">
   <animation>
    <frame tileid="442" duration="150"/>
    <frame tileid="446" duration="150"/>
    <frame tileid="450" duration="150"/>
    <frame tileid="454" duration="150"/>
    <frame tileid="458" duration="150"/>
    <frame tileid="462" duration="150"/>
    <frame tileid="466" duration="150"/>
    <frame tileid="470" duration="150"/>
    <frame tileid="474" duration="150"/>
    <frame tileid="478" duration="150"/>
   </animation>
  </tile>
  <tile id="443">
   <animation>
    <frame tileid="443" duration="150"/>
    <frame tileid="447" duration="150"/>
    <frame tileid="451" duration="150"/>
    <frame tileid="455" duration="150"/>
    <frame tileid="459" duration="150"/>
    <frame tileid="463" duration="150"/>
    <frame tileid="467" duration="150"/>
    <frame tileid="471" duration="150"/>
    <frame tileid="475" duration="150"/>
    <frame tileid="479" duration="150"/>
   </animation>
  </tile>
  <tile id="480">
   <animation>
    <frame tileid="480" duration="150"/>
    <frame tileid="484" duration="150"/>
    <frame tileid="488" duration="150"/>
    <frame tileid="492" duration="150"/>
    <frame tileid="496" duration="150"/>
    <frame tileid="500" duration="150"/>
    <frame tileid="504" duration="150"/>
    <frame tileid="508" duration="150"/>
    <frame tileid="512" duration="150"/>
    <frame tileid="516" duration="150"/>
   </animation>
  </tile>
  <tile id="481">
   <animation>
    <frame tileid="481" duration="150"/>
    <frame tileid="485" duration="150"/>
    <frame tileid="489" duration="150"/>
    <frame tileid="493" duration="150"/>
    <frame tileid="497" duration="150"/>
    <frame tileid="501" duration="150"/>
    <frame tileid="505" duration="150"/>
    <frame tileid="509" duration="150"/>
    <frame tileid="513" duration="150"/>
    <frame tileid="517" duration="150"/>
   </animation>
  </tile>
  <tile id="482">
   <animation>
    <frame tileid="482" duration="150"/>
    <frame tileid="486" duration="150"/>
    <frame tileid="490" duration="150"/>
    <frame tileid="494" duration="150"/>
    <frame tileid="498" duration="150"/>
    <frame tileid="502" duration="150"/>
    <frame tileid="506" duration="150"/>
    <frame tileid="510" duration="150"/>
    <frame tileid="514" duration="150"/>
    <frame tileid="518" duration="150"/>
   </animation>
  </tile>
  <tile id="483">
   <animation>
    <frame tileid="483" duration="150"/>
    <frame tileid="487" duration="150"/>
    <frame tileid="491" duration="150"/>
    <frame tileid="495" duration="150"/>
    <frame tileid="499" duration="150"/>
    <frame tileid="503" duration="150"/>
    <frame tileid="507" duration="150"/>
    <frame tileid="511" duration="150"/>
    <frame tileid="515" duration="150"/>
    <frame tileid="519" duration="150"/>
   </animation>
  </tile>
  <tile id="520">
   <animation>
    <frame tileid="520" duration="150"/>
    <frame tileid="524" duration="150"/>
    <frame tileid="528" duration="150"/>
    <frame tileid="532" duration="150"/>
    <frame tileid="536" duration="150"/>
    <frame tileid="540" duration="150"/>
    <frame tileid="544" duration="150"/>
    <frame tileid="548" duration="150"/>
    <frame tileid="552" duration="150"/>
    <frame tileid="556" duration="150"/>
   </animation>
  </tile>
  <tile id="521">
   <animation>
    <frame tileid="521" duration="150"/>
    <frame tileid="525" duration="150"/>
    <frame tileid="529" duration="150"/>
    <frame tileid="533" duration="150"/>
    <frame tileid="537" duration="150"/>
    <frame tileid="541" duration="150"/>
    <frame tileid="545" duration="150"/>
    <frame tileid="549" duration="150"/>
    <frame tileid="553" duration="150"/>
    <frame tileid="557" duration="150"/>
   </animation>
  </tile>
  <tile id="522">
   <animation>
    <frame tileid="522" duration="150"/>
    <frame tileid="526" duration="150"/>
    <frame tileid="530" duration="150"/>
    <frame tileid="534" duration="150"/>
    <frame tileid="538" duration="150"/>
    <frame tileid="542" duration="150"/>
    <frame tileid="546" duration="150"/>
    <frame tileid="550" duration="150"/>
    <frame tileid="554" duration="150"/>
    <frame tileid="558" duration="150"/>
   </animation>
  </tile>
  <tile id="523">
   <animation>
    <frame tileid="523" duration="150"/>
    <frame tileid="527" duration="150"/>
    <frame tileid="531" duration="150"/>
    <frame tileid="535" duration="150"/>
    <frame tileid="539" duration="150"/>
    <frame tileid="543" duration="150"/>
    <frame tileid="547" duration="150"/>
    <frame tileid="551" duration="150"/>
    <frame tileid="555" duration="150"/>
    <frame tileid="559" duration="150"/>
   </animation>
  </tile>
  <tile id="560">
   <animation>
    <frame tileid="560" duration="150"/>
    <frame tileid="564" duration="150"/>
    <frame tileid="568" duration="150"/>
    <frame tileid="572" duration="150"/>
    <frame tileid="576" duration="150"/>
    <frame tileid="580" duration="150"/>
    <frame tileid="584" duration="150"/>
    <frame tileid="588" duration="150"/>
    <frame tileid="592" duration="150"/>
    <frame tileid="596" duration="150"/>
   </animation>
  </tile>
  <tile id="561">
   <animation>
    <frame tileid="561" duration="150"/>
    <frame tileid="565" duration="150"/>
    <frame tileid="569" duration="150"/>
    <frame tileid="573" duration="150"/>
    <frame tileid="577" duration="150"/>
    <frame tileid="581" duration="150"/>
    <frame tileid="585" duration="150"/>
    <frame tileid="589" duration="150"/>
    <frame tileid="593" duration="150"/>
    <frame tileid="597" duration="150"/>
   </animation>
  </tile>
  <tile id="562">
   <animation>
    <frame tileid="562" duration="150"/>
    <frame tileid="566" duration="150"/>
    <frame tileid="570" duration="150"/>
    <frame tileid="574" duration="150"/>
    <frame tileid="578" duration="150"/>
    <frame tileid="582" duration="150"/>
    <frame tileid="586" duration="150"/>
    <frame tileid="590" duration="150"/>
    <frame tileid="594" duration="150"/>
    <frame tileid="598" duration="150"/>
   </animation>
  </tile>
  <tile id="563">
   <animation>
    <frame tileid="563" duration="150"/>
    <frame tileid="567" duration="150"/>
    <frame tileid="571" duration="150"/>
    <frame tileid="575" duration="150"/>
    <frame tileid="579" duration="150"/>
    <frame tileid="583" duration="150"/>
    <frame tileid="587" duration="150"/>
    <frame tileid="591" duration="150"/>
    <frame tileid="595" duration="150"/>
    <frame tileid="599" duration="150"/>
   </animation>
  </tile>
  <tile id="600">
   <animation>
    <frame tileid="600" duration="150"/>
    <frame tileid="604" duration="150"/>
    <frame tileid="608" duration="150"/>
    <frame tileid="612" duration="150"/>
    <frame tileid="616" duration="150"/>
    <frame tileid="620" duration="150"/>
    <frame tileid="624" duration="150"/>
    <frame tileid="628" duration="150"/>
    <frame tileid="632" duration="150"/>
    <frame tileid="636" duration="150"/>
   </animation>
  </tile>
  <tile id="601">
   <animation>
    <frame tileid="601" duration="150"/>
    <frame tileid="605" duration="150"/>
    <frame tileid="609" duration="150"/>
    <frame tileid="613" duration="150"/>
    <frame tileid="617" duration="150"/>
    <frame tileid="621" duration="150"/>
    <frame tileid="625" duration="150"/>
    <frame tileid="629" duration="150"/>
    <frame tileid="633" duration="150"/>
    <frame tileid="637" duration="150"/>
   </animation>
  </tile>
  <tile id="602">
   <animation>
    <frame tileid="602" duration="150"/>
    <frame tileid="606" duration="150"/>
    <frame tileid="610" duration="150"/>
    <frame tileid="614" duration="150"/>
    <frame tileid="618" duration="150"/>
    <frame tileid="622" duration="150"/>
    <frame tileid="626" duration="150"/>
    <frame tileid="630" duration="150"/>
    <frame tileid="634" duration="150"/>
    <frame tileid="638" duration="150"/>
   </animation>
  </tile>
  <tile id="603">
   <animation>
    <frame tileid="603" duration="150"/>
    <frame tileid="607" duration="150"/>
    <frame tileid="611" duration="150"/>
    <frame tileid="615" duration="150"/>
    <frame tileid="619" duration="150"/>
    <frame tileid="623" duration="150"/>
    <frame tileid="627" duration="150"/>
    <frame tileid="631" duration="150"/>
    <frame tileid="635" duration="150"/>
    <frame tileid="639" duration="150"/>
   </animation>
  </tile>
 </tileset>
 <tileset firstgid="4481" name="Slime1_Idle_full" tilewidth="16" tileheight="16" tilecount="384" columns="24">
  <image source="Slime1_Idle_body.png" width="384" height="256"/>
  <tile id="0">
   <animation>
    <frame tileid="0" duration="150"/>
    <frame tileid="4" duration="150"/>
    <frame tileid="8" duration="150"/>
    <frame tileid="12" duration="150"/>
    <frame tileid="16" duration="150"/>
    <frame tileid="20" duration="150"/>
   </animation>
  </tile>
  <tile id="1">
   <animation>
    <frame tileid="1" duration="150"/>
    <frame tileid="5" duration="150"/>
    <frame tileid="9" duration="150"/>
    <frame tileid="13" duration="150"/>
    <frame tileid="17" duration="150"/>
    <frame tileid="21" duration="150"/>
   </animation>
  </tile>
  <tile id="2">
   <animation>
    <frame tileid="2" duration="150"/>
    <frame tileid="6" duration="150"/>
    <frame tileid="10" duration="150"/>
    <frame tileid="14" duration="150"/>
    <frame tileid="18" duration="150"/>
    <frame tileid="22" duration="150"/>
   </animation>
  </tile>
  <tile id="3">
   <animation>
    <frame tileid="3" duration="150"/>
    <frame tileid="7" duration="150"/>
    <frame tileid="11" duration="150"/>
    <frame tileid="15" duration="150"/>
    <frame tileid="19" duration="150"/>
    <frame tileid="23" duration="150"/>
   </animation>
  </tile>
  <tile id="24">
   <animation>
    <frame tileid="24" duration="150"/>
    <frame tileid="28" duration="150"/>
    <frame tileid="32" duration="150"/>
    <frame tileid="36" duration="150"/>
    <frame tileid="40" duration="150"/>
    <frame tileid="44" duration="150"/>
   </animation>
  </tile>
  <tile id="25">
   <animation>
    <frame tileid="25" duration="150"/>
    <frame tileid="29" duration="150"/>
    <frame tileid="33" duration="150"/>
    <frame tileid="37" duration="150"/>
    <frame tileid="41" duration="150"/>
    <frame tileid="45" duration="150"/>
   </animation>
  </tile>
  <tile id="26">
   <animation>
    <frame tileid="26" duration="150"/>
    <frame tileid="30" duration="150"/>
    <frame tileid="34" duration="150"/>
    <frame tileid="38" duration="150"/>
    <frame tileid="42" duration="150"/>
    <frame tileid="46" duration="150"/>
   </animation>
  </tile>
  <tile id="27">
   <animation>
    <frame tileid="27" duration="150"/>
    <frame tileid="31" duration="150"/>
    <frame tileid="35" duration="150"/>
    <frame tileid="39" duration="150"/>
    <frame tileid="43" duration="150"/>
    <frame tileid="47" duration="150"/>
   </animation>
  </tile>
  <tile id="48">
   <animation>
    <frame tileid="48" duration="150"/>
    <frame tileid="52" duration="150"/>
    <frame tileid="56" duration="150"/>
    <frame tileid="60" duration="150"/>
    <frame tileid="64" duration="150"/>
    <frame tileid="68" duration="150"/>
   </animation>
  </tile>
  <tile id="49">
   <animation>
    <frame tileid="49" duration="150"/>
    <frame tileid="53" duration="150"/>
    <frame tileid="57" duration="150"/>
    <frame tileid="61" duration="150"/>
    <frame tileid="65" duration="150"/>
    <frame tileid="69" duration="150"/>
   </animation>
  </tile>
  <tile id="50">
   <animation>
    <frame tileid="50" duration="150"/>
    <frame tileid="54" duration="150"/>
    <frame tileid="58" duration="150"/>
    <frame tileid="62" duration="150"/>
    <frame tileid="66" duration="150"/>
    <frame tileid="70" duration="150"/>
   </animation>
  </tile>
  <tile id="51">
   <animation>
    <frame tileid="51" duration="150"/>
    <frame tileid="55" duration="150"/>
    <frame tileid="59" duration="150"/>
    <frame tileid="63" duration="150"/>
    <frame tileid="67" duration="150"/>
    <frame tileid="71" duration="150"/>
   </animation>
  </tile>
  <tile id="72">
   <animation>
    <frame tileid="72" duration="150"/>
    <frame tileid="76" duration="150"/>
    <frame tileid="80" duration="150"/>
    <frame tileid="84" duration="150"/>
    <frame tileid="88" duration="150"/>
    <frame tileid="92" duration="150"/>
   </animation>
  </tile>
  <tile id="73">
   <animation>
    <frame tileid="73" duration="150"/>
    <frame tileid="77" duration="150"/>
    <frame tileid="81" duration="150"/>
    <frame tileid="85" duration="150"/>
    <frame tileid="89" duration="150"/>
    <frame tileid="93" duration="150"/>
   </animation>
  </tile>
  <tile id="74">
   <animation>
    <frame tileid="74" duration="150"/>
    <frame tileid="78" duration="150"/>
    <frame tileid="82" duration="150"/>
    <frame tileid="86" duration="150"/>
    <frame tileid="90" duration="150"/>
    <frame tileid="94" duration="150"/>
   </animation>
  </tile>
  <tile id="75">
   <animation>
    <frame tileid="75" duration="150"/>
    <frame tileid="79" duration="150"/>
    <frame tileid="83" duration="150"/>
    <frame tileid="87" duration="150"/>
    <frame tileid="91" duration="150"/>
    <frame tileid="95" duration="150"/>
   </animation>
  </tile>
  <tile id="96">
   <animation>
    <frame tileid="96" duration="150"/>
    <frame tileid="100" duration="150"/>
    <frame tileid="104" duration="150"/>
    <frame tileid="108" duration="150"/>
    <frame tileid="112" duration="150"/>
    <frame tileid="116" duration="150"/>
   </animation>
  </tile>
  <tile id="97">
   <animation>
    <frame tileid="97" duration="150"/>
    <frame tileid="101" duration="150"/>
    <frame tileid="105" duration="150"/>
    <frame tileid="109" duration="150"/>
    <frame tileid="113" duration="150"/>
    <frame tileid="117" duration="150"/>
   </animation>
  </tile>
  <tile id="98">
   <animation>
    <frame tileid="98" duration="150"/>
    <frame tileid="102" duration="150"/>
    <frame tileid="106" duration="150"/>
    <frame tileid="110" duration="150"/>
    <frame tileid="114" duration="150"/>
    <frame tileid="118" duration="150"/>
   </animation>
  </tile>
  <tile id="99">
   <animation>
    <frame tileid="99" duration="150"/>
    <frame tileid="103" duration="150"/>
    <frame tileid="107" duration="150"/>
    <frame tileid="111" duration="150"/>
    <frame tileid="115" duration="150"/>
    <frame tileid="119" duration="150"/>
   </animation>
  </tile>
  <tile id="120">
   <animation>
    <frame tileid="120" duration="150"/>
    <frame tileid="124" duration="150"/>
    <frame tileid="128" duration="150"/>
    <frame tileid="132" duration="150"/>
    <frame tileid="136" duration="150"/>
    <frame tileid="140" duration="150"/>
   </animation>
  </tile>
  <tile id="121">
   <animation>
    <frame tileid="121" duration="150"/>
    <frame tileid="125" duration="150"/>
    <frame tileid="129" duration="150"/>
    <frame tileid="133" duration="150"/>
    <frame tileid="137" duration="150"/>
    <frame tileid="141" duration="150"/>
   </animation>
  </tile>
  <tile id="122">
   <animation>
    <frame tileid="122" duration="150"/>
    <frame tileid="126" duration="150"/>
    <frame tileid="130" duration="150"/>
    <frame tileid="134" duration="150"/>
    <frame tileid="138" duration="150"/>
    <frame tileid="142" duration="150"/>
   </animation>
  </tile>
  <tile id="123">
   <animation>
    <frame tileid="123" duration="150"/>
    <frame tileid="127" duration="150"/>
    <frame tileid="131" duration="150"/>
    <frame tileid="135" duration="150"/>
    <frame tileid="139" duration="150"/>
    <frame tileid="143" duration="150"/>
   </animation>
  </tile>
  <tile id="144">
   <animation>
    <frame tileid="144" duration="150"/>
    <frame tileid="148" duration="150"/>
    <frame tileid="152" duration="150"/>
    <frame tileid="156" duration="150"/>
    <frame tileid="160" duration="150"/>
    <frame tileid="164" duration="150"/>
   </animation>
  </tile>
  <tile id="145">
   <animation>
    <frame tileid="145" duration="150"/>
    <frame tileid="149" duration="150"/>
    <frame tileid="153" duration="150"/>
    <frame tileid="157" duration="150"/>
    <frame tileid="161" duration="150"/>
    <frame tileid="165" duration="150"/>
   </animation>
  </tile>
  <tile id="146">
   <animation>
    <frame tileid="146" duration="150"/>
    <frame tileid="150" duration="150"/>
    <frame tileid="154" duration="150"/>
    <frame tileid="158" duration="150"/>
    <frame tileid="162" duration="150"/>
    <frame tileid="166" duration="150"/>
   </animation>
  </tile>
  <tile id="147">
   <animation>
    <frame tileid="147" duration="150"/>
    <frame tileid="151" duration="150"/>
    <frame tileid="155" duration="150"/>
    <frame tileid="159" duration="150"/>
    <frame tileid="163" duration="150"/>
    <frame tileid="167" duration="150"/>
   </animation>
  </tile>
  <tile id="168">
   <animation>
    <frame tileid="168" duration="150"/>
    <frame tileid="172" duration="150"/>
    <frame tileid="176" duration="150"/>
    <frame tileid="180" duration="150"/>
    <frame tileid="184" duration="150"/>
    <frame tileid="188" duration="150"/>
   </animation>
  </tile>
  <tile id="169">
   <animation>
    <frame tileid="169" duration="150"/>
    <frame tileid="173" duration="150"/>
    <frame tileid="177" duration="150"/>
    <frame tileid="181" duration="150"/>
    <frame tileid="185" duration="150"/>
    <frame tileid="189" duration="150"/>
   </animation>
  </tile>
  <tile id="170">
   <animation>
    <frame tileid="170" duration="150"/>
    <frame tileid="174" duration="150"/>
    <frame tileid="178" duration="150"/>
    <frame tileid="182" duration="150"/>
    <frame tileid="186" duration="150"/>
    <frame tileid="190" duration="150"/>
   </animation>
  </tile>
  <tile id="171">
   <animation>
    <frame tileid="171" duration="150"/>
    <frame tileid="175" duration="150"/>
    <frame tileid="179" duration="150"/>
    <frame tileid="183" duration="150"/>
    <frame tileid="187" duration="150"/>
    <frame tileid="191" duration="150"/>
   </animation>
  </tile>
  <tile id="192">
   <animation>
    <frame tileid="192" duration="150"/>
    <frame tileid="196" duration="150"/>
    <frame tileid="200" duration="150"/>
    <frame tileid="204" duration="150"/>
    <frame tileid="208" duration="150"/>
    <frame tileid="212" duration="150"/>
   </animation>
  </tile>
  <tile id="193">
   <animation>
    <frame tileid="193" duration="150"/>
    <frame tileid="197" duration="150"/>
    <frame tileid="201" duration="150"/>
    <frame tileid="205" duration="150"/>
    <frame tileid="209" duration="150"/>
    <frame tileid="213" duration="150"/>
   </animation>
  </tile>
  <tile id="194">
   <animation>
    <frame tileid="194" duration="150"/>
    <frame tileid="198" duration="150"/>
    <frame tileid="202" duration="150"/>
    <frame tileid="206" duration="150"/>
    <frame tileid="210" duration="150"/>
    <frame tileid="214" duration="150"/>
   </animation>
  </tile>
  <tile id="195">
   <animation>
    <frame tileid="195" duration="150"/>
    <frame tileid="199" duration="150"/>
    <frame tileid="203" duration="150"/>
    <frame tileid="207" duration="150"/>
    <frame tileid="211" duration="150"/>
    <frame tileid="215" duration="150"/>
   </animation>
  </tile>
  <tile id="216">
   <animation>
    <frame tileid="216" duration="150"/>
    <frame tileid="220" duration="150"/>
    <frame tileid="224" duration="150"/>
    <frame tileid="228" duration="150"/>
    <frame tileid="232" duration="150"/>
    <frame tileid="236" duration="150"/>
   </animation>
  </tile>
  <tile id="217">
   <animation>
    <frame tileid="217" duration="150"/>
    <frame tileid="221" duration="150"/>
    <frame tileid="225" duration="150"/>
    <frame tileid="229" duration="150"/>
    <frame tileid="233" duration="150"/>
    <frame tileid="237" duration="150"/>
   </animation>
  </tile>
  <tile id="218">
   <animation>
    <frame tileid="218" duration="150"/>
    <frame tileid="222" duration="150"/>
    <frame tileid="226" duration="150"/>
    <frame tileid="230" duration="150"/>
    <frame tileid="234" duration="150"/>
    <frame tileid="238" duration="150"/>
   </animation>
  </tile>
  <tile id="219">
   <animation>
    <frame tileid="219" duration="150"/>
    <frame tileid="223" duration="150"/>
    <frame tileid="227" duration="150"/>
    <frame tileid="231" duration="150"/>
    <frame tileid="235" duration="150"/>
    <frame tileid="239" duration="150"/>
   </animation>
  </tile>
  <tile id="240">
   <animation>
    <frame tileid="240" duration="150"/>
    <frame tileid="244" duration="150"/>
    <frame tileid="248" duration="150"/>
    <frame tileid="252" duration="150"/>
    <frame tileid="256" duration="150"/>
    <frame tileid="260" duration="150"/>
   </animation>
  </tile>
  <tile id="241">
   <animation>
    <frame tileid="241" duration="150"/>
    <frame tileid="245" duration="150"/>
    <frame tileid="249" duration="150"/>
    <frame tileid="253" duration="150"/>
    <frame tileid="257" duration="150"/>
    <frame tileid="261" duration="150"/>
   </animation>
  </tile>
  <tile id="242">
   <animation>
    <frame tileid="242" duration="150"/>
    <frame tileid="246" duration="150"/>
    <frame tileid="250" duration="150"/>
    <frame tileid="254" duration="150"/>
    <frame tileid="258" duration="150"/>
    <frame tileid="262" duration="150"/>
   </animation>
  </tile>
  <tile id="243">
   <animation>
    <frame tileid="243" duration="150"/>
    <frame tileid="247" duration="150"/>
    <frame tileid="251" duration="150"/>
    <frame tileid="255" duration="150"/>
    <frame tileid="259" duration="150"/>
    <frame tileid="263" duration="150"/>
   </animation>
  </tile>
  <tile id="264">
   <animation>
    <frame tileid="264" duration="150"/>
    <frame tileid="268" duration="150"/>
    <frame tileid="272" duration="150"/>
    <frame tileid="276" duration="150"/>
    <frame tileid="280" duration="150"/>
    <frame tileid="284" duration="150"/>
   </animation>
  </tile>
  <tile id="265">
   <animation>
    <frame tileid="265" duration="150"/>
    <frame tileid="269" duration="150"/>
    <frame tileid="273" duration="150"/>
    <frame tileid="277" duration="150"/>
    <frame tileid="281" duration="150"/>
    <frame tileid="285" duration="150"/>
   </animation>
  </tile>
  <tile id="266">
   <animation>
    <frame tileid="266" duration="150"/>
    <frame tileid="270" duration="150"/>
    <frame tileid="274" duration="150"/>
    <frame tileid="278" duration="150"/>
    <frame tileid="282" duration="150"/>
    <frame tileid="286" duration="150"/>
   </animation>
  </tile>
  <tile id="267">
   <animation>
    <frame tileid="267" duration="150"/>
    <frame tileid="271" duration="150"/>
    <frame tileid="275" duration="150"/>
    <frame tileid="279" duration="150"/>
    <frame tileid="283" duration="150"/>
    <frame tileid="287" duration="150"/>
   </animation>
  </tile>
  <tile id="288">
   <animation>
    <frame tileid="288" duration="150"/>
    <frame tileid="292" duration="150"/>
    <frame tileid="296" duration="150"/>
    <frame tileid="300" duration="150"/>
    <frame tileid="304" duration="150"/>
    <frame tileid="308" duration="150"/>
   </animation>
  </tile>
  <tile id="289">
   <animation>
    <frame tileid="289" duration="150"/>
    <frame tileid="293" duration="150"/>
    <frame tileid="297" duration="150"/>
    <frame tileid="301" duration="150"/>
    <frame tileid="305" duration="150"/>
    <frame tileid="309" duration="150"/>
   </animation>
  </tile>
  <tile id="290">
   <animation>
    <frame tileid="290" duration="150"/>
    <frame tileid="294" duration="150"/>
    <frame tileid="298" duration="150"/>
    <frame tileid="302" duration="150"/>
    <frame tileid="306" duration="150"/>
    <frame tileid="310" duration="150"/>
   </animation>
  </tile>
  <tile id="291">
   <animation>
    <frame tileid="291" duration="150"/>
    <frame tileid="295" duration="150"/>
    <frame tileid="299" duration="150"/>
    <frame tileid="303" duration="150"/>
    <frame tileid="307" duration="150"/>
    <frame tileid="311" duration="150"/>
   </animation>
  </tile>
  <tile id="312">
   <animation>
    <frame tileid="312" duration="150"/>
    <frame tileid="316" duration="150"/>
    <frame tileid="320" duration="150"/>
    <frame tileid="324" duration="150"/>
    <frame tileid="328" duration="150"/>
    <frame tileid="332" duration="150"/>
   </animation>
  </tile>
  <tile id="313">
   <animation>
    <frame tileid="313" duration="150"/>
    <frame tileid="317" duration="150"/>
    <frame tileid="321" duration="150"/>
    <frame tileid="325" duration="150"/>
    <frame tileid="329" duration="150"/>
    <frame tileid="333" duration="150"/>
   </animation>
  </tile>
  <tile id="314">
   <animation>
    <frame tileid="314" duration="150"/>
    <frame tileid="318" duration="150"/>
    <frame tileid="322" duration="150"/>
    <frame tileid="326" duration="150"/>
    <frame tileid="330" duration="150"/>
    <frame tileid="334" duration="150"/>
   </animation>
  </tile>
  <tile id="315">
   <animation>
    <frame tileid="315" duration="150"/>
    <frame tileid="319" duration="150"/>
    <frame tileid="323" duration="150"/>
    <frame tileid="327" duration="150"/>
    <frame tileid="331" duration="150"/>
    <frame tileid="335" duration="150"/>
   </animation>
  </tile>
  <tile id="336">
   <animation>
    <frame tileid="336" duration="150"/>
    <frame tileid="340" duration="150"/>
    <frame tileid="344" duration="150"/>
    <frame tileid="348" duration="150"/>
    <frame tileid="352" duration="150"/>
    <frame tileid="356" duration="150"/>
   </animation>
  </tile>
  <tile id="337">
   <animation>
    <frame tileid="337" duration="150"/>
    <frame tileid="341" duration="150"/>
    <frame tileid="345" duration="150"/>
    <frame tileid="349" duration="150"/>
    <frame tileid="353" duration="150"/>
    <frame tileid="357" duration="150"/>
   </animation>
  </tile>
  <tile id="338">
   <animation>
    <frame tileid="338" duration="150"/>
    <frame tileid="342" duration="150"/>
    <frame tileid="346" duration="150"/>
    <frame tileid="350" duration="150"/>
    <frame tileid="354" duration="150"/>
    <frame tileid="358" duration="150"/>
   </animation>
  </tile>
  <tile id="339">
   <animation>
    <frame tileid="339" duration="150"/>
    <frame tileid="343" duration="150"/>
    <frame tileid="347" duration="150"/>
    <frame tileid="351" duration="150"/>
    <frame tileid="355" duration="150"/>
    <frame tileid="359" duration="150"/>
   </animation>
  </tile>
  <tile id="360">
   <animation>
    <frame tileid="360" duration="150"/>
    <frame tileid="364" duration="150"/>
    <frame tileid="368" duration="150"/>
    <frame tileid="372" duration="150"/>
    <frame tileid="376" duration="150"/>
    <frame tileid="380" duration="150"/>
   </animation>
  </tile>
  <tile id="361">
   <animation>
    <frame tileid="361" duration="150"/>
    <frame tileid="365" duration="150"/>
    <frame tileid="369" duration="150"/>
    <frame tileid="373" duration="150"/>
    <frame tileid="377" duration="150"/>
    <frame tileid="381" duration="150"/>
   </animation>
  </tile>
  <tile id="362">
   <animation>
    <frame tileid="362" duration="150"/>
    <frame tileid="366" duration="150"/>
    <frame tileid="370" duration="150"/>
    <frame tileid="374" duration="150"/>
    <frame tileid="378" duration="150"/>
    <frame tileid="382" duration="150"/>
   </animation>
  </tile>
  <tile id="363">
   <animation>
    <frame tileid="363" duration="150"/>
    <frame tileid="367" duration="150"/>
    <frame tileid="371" duration="150"/>
    <frame tileid="375" duration="150"/>
    <frame tileid="379" duration="150"/>
    <frame tileid="383" duration="150"/>
   </animation>
  </tile>
 </tileset>
 <tileset firstgid="4865" name="Slime1_Death_full" tilewidth="16" tileheight="16" tilecount="640" columns="40">
  <image source="Slime1_Death_body.png" width="640" height="256"/>
  <tile id="0">
   <animation>
    <frame tileid="0" duration="150"/>
    <frame tileid="4" duration="150"/>
    <frame tileid="8" duration="150"/>
    <frame tileid="12" duration="150"/>
    <frame tileid="16" duration="150"/>
    <frame tileid="20" duration="150"/>
    <frame tileid="24" duration="150"/>
    <frame tileid="28" duration="150"/>
    <frame tileid="32" duration="150"/>
    <frame tileid="36" duration="150"/>
   </animation>
  </tile>
  <tile id="1">
   <animation>
    <frame tileid="1" duration="150"/>
    <frame tileid="5" duration="150"/>
    <frame tileid="9" duration="150"/>
    <frame tileid="13" duration="150"/>
    <frame tileid="17" duration="150"/>
    <frame tileid="21" duration="150"/>
    <frame tileid="25" duration="150"/>
    <frame tileid="29" duration="150"/>
    <frame tileid="33" duration="150"/>
    <frame tileid="37" duration="150"/>
   </animation>
  </tile>
  <tile id="2">
   <animation>
    <frame tileid="2" duration="150"/>
    <frame tileid="6" duration="150"/>
    <frame tileid="10" duration="150"/>
    <frame tileid="14" duration="150"/>
    <frame tileid="18" duration="150"/>
    <frame tileid="22" duration="150"/>
    <frame tileid="26" duration="150"/>
    <frame tileid="30" duration="150"/>
    <frame tileid="34" duration="150"/>
    <frame tileid="38" duration="150"/>
   </animation>
  </tile>
  <tile id="3">
   <animation>
    <frame tileid="3" duration="150"/>
    <frame tileid="7" duration="150"/>
    <frame tileid="11" duration="150"/>
    <frame tileid="15" duration="150"/>
    <frame tileid="19" duration="150"/>
    <frame tileid="23" duration="150"/>
    <frame tileid="27" duration="150"/>
    <frame tileid="31" duration="150"/>
    <frame tileid="35" duration="150"/>
    <frame tileid="39" duration="150"/>
   </animation>
  </tile>
  <tile id="40">
   <animation>
    <frame tileid="40" duration="150"/>
    <frame tileid="44" duration="150"/>
    <frame tileid="48" duration="150"/>
    <frame tileid="52" duration="150"/>
    <frame tileid="56" duration="150"/>
    <frame tileid="60" duration="150"/>
    <frame tileid="64" duration="150"/>
    <frame tileid="68" duration="150"/>
    <frame tileid="72" duration="150"/>
    <frame tileid="76" duration="150"/>
   </animation>
  </tile>
  <tile id="41">
   <animation>
    <frame tileid="41" duration="150"/>
    <frame tileid="45" duration="150"/>
    <frame tileid="49" duration="150"/>
    <frame tileid="53" duration="150"/>
    <frame tileid="57" duration="150"/>
    <frame tileid="61" duration="150"/>
    <frame tileid="65" duration="150"/>
    <frame tileid="69" duration="150"/>
    <frame tileid="73" duration="150"/>
    <frame tileid="77" duration="150"/>
   </animation>
  </tile>
  <tile id="42">
   <animation>
    <frame tileid="42" duration="150"/>
    <frame tileid="46" duration="150"/>
    <frame tileid="50" duration="150"/>
    <frame tileid="54" duration="150"/>
    <frame tileid="58" duration="150"/>
    <frame tileid="62" duration="150"/>
    <frame tileid="66" duration="150"/>
    <frame tileid="70" duration="150"/>
    <frame tileid="74" duration="150"/>
    <frame tileid="78" duration="150"/>
   </animation>
  </tile>
  <tile id="43">
   <animation>
    <frame tileid="43" duration="150"/>
    <frame tileid="47" duration="150"/>
    <frame tileid="51" duration="150"/>
    <frame tileid="55" duration="150"/>
    <frame tileid="59" duration="150"/>
    <frame tileid="63" duration="150"/>
    <frame tileid="67" duration="150"/>
    <frame tileid="71" duration="150"/>
    <frame tileid="75" duration="150"/>
    <frame tileid="79" duration="150"/>
   </animation>
  </tile>
  <tile id="80">
   <animation>
    <frame tileid="80" duration="150"/>
    <frame tileid="84" duration="150"/>
    <frame tileid="88" duration="150"/>
    <frame tileid="92" duration="150"/>
    <frame tileid="96" duration="150"/>
    <frame tileid="100" duration="150"/>
    <frame tileid="104" duration="150"/>
    <frame tileid="108" duration="150"/>
    <frame tileid="112" duration="150"/>
    <frame tileid="116" duration="150"/>
   </animation>
  </tile>
  <tile id="81">
   <animation>
    <frame tileid="81" duration="150"/>
    <frame tileid="85" duration="150"/>
    <frame tileid="89" duration="150"/>
    <frame tileid="93" duration="150"/>
    <frame tileid="97" duration="150"/>
    <frame tileid="101" duration="150"/>
    <frame tileid="105" duration="150"/>
    <frame tileid="109" duration="150"/>
    <frame tileid="113" duration="150"/>
    <frame tileid="117" duration="150"/>
   </animation>
  </tile>
  <tile id="82">
   <animation>
    <frame tileid="82" duration="150"/>
    <frame tileid="86" duration="150"/>
    <frame tileid="90" duration="150"/>
    <frame tileid="94" duration="150"/>
    <frame tileid="98" duration="150"/>
    <frame tileid="102" duration="150"/>
    <frame tileid="106" duration="150"/>
    <frame tileid="110" duration="150"/>
    <frame tileid="114" duration="150"/>
    <frame tileid="118" duration="150"/>
   </animation>
  </tile>
  <tile id="83">
   <animation>
    <frame tileid="83" duration="150"/>
    <frame tileid="87" duration="150"/>
    <frame tileid="91" duration="150"/>
    <frame tileid="95" duration="150"/>
    <frame tileid="99" duration="150"/>
    <frame tileid="103" duration="150"/>
    <frame tileid="107" duration="150"/>
    <frame tileid="111" duration="150"/>
    <frame tileid="115" duration="150"/>
    <frame tileid="119" duration="150"/>
   </animation>
  </tile>
  <tile id="120">
   <animation>
    <frame tileid="120" duration="150"/>
    <frame tileid="124" duration="150"/>
    <frame tileid="128" duration="150"/>
    <frame tileid="132" duration="150"/>
    <frame tileid="136" duration="150"/>
    <frame tileid="140" duration="150"/>
    <frame tileid="144" duration="150"/>
    <frame tileid="148" duration="150"/>
    <frame tileid="152" duration="150"/>
    <frame tileid="156" duration="150"/>
   </animation>
  </tile>
  <tile id="121">
   <animation>
    <frame tileid="121" duration="150"/>
    <frame tileid="125" duration="150"/>
    <frame tileid="129" duration="150"/>
    <frame tileid="133" duration="150"/>
    <frame tileid="137" duration="150"/>
    <frame tileid="141" duration="150"/>
    <frame tileid="145" duration="150"/>
    <frame tileid="149" duration="150"/>
    <frame tileid="153" duration="150"/>
    <frame tileid="157" duration="150"/>
   </animation>
  </tile>
  <tile id="122">
   <animation>
    <frame tileid="122" duration="150"/>
    <frame tileid="126" duration="150"/>
    <frame tileid="130" duration="150"/>
    <frame tileid="134" duration="150"/>
    <frame tileid="138" duration="150"/>
    <frame tileid="142" duration="150"/>
    <frame tileid="146" duration="150"/>
    <frame tileid="150" duration="150"/>
    <frame tileid="154" duration="150"/>
    <frame tileid="158" duration="150"/>
   </animation>
  </tile>
  <tile id="123">
   <animation>
    <frame tileid="123" duration="150"/>
    <frame tileid="127" duration="150"/>
    <frame tileid="131" duration="150"/>
    <frame tileid="135" duration="150"/>
    <frame tileid="139" duration="150"/>
    <frame tileid="143" duration="150"/>
    <frame tileid="147" duration="150"/>
    <frame tileid="151" duration="150"/>
    <frame tileid="155" duration="150"/>
    <frame tileid="159" duration="150"/>
   </animation>
  </tile>
  <tile id="160">
   <animation>
    <frame tileid="160" duration="150"/>
    <frame tileid="164" duration="150"/>
    <frame tileid="168" duration="150"/>
    <frame tileid="172" duration="150"/>
    <frame tileid="176" duration="150"/>
    <frame tileid="180" duration="150"/>
    <frame tileid="184" duration="150"/>
    <frame tileid="188" duration="150"/>
    <frame tileid="192" duration="150"/>
    <frame tileid="196" duration="150"/>
   </animation>
  </tile>
  <tile id="161">
   <animation>
    <frame tileid="161" duration="150"/>
    <frame tileid="165" duration="150"/>
    <frame tileid="169" duration="150"/>
    <frame tileid="173" duration="150"/>
    <frame tileid="177" duration="150"/>
    <frame tileid="181" duration="150"/>
    <frame tileid="185" duration="150"/>
    <frame tileid="189" duration="150"/>
    <frame tileid="193" duration="150"/>
    <frame tileid="197" duration="150"/>
   </animation>
  </tile>
  <tile id="162">
   <animation>
    <frame tileid="162" duration="150"/>
    <frame tileid="166" duration="150"/>
    <frame tileid="170" duration="150"/>
    <frame tileid="174" duration="150"/>
    <frame tileid="178" duration="150"/>
    <frame tileid="182" duration="150"/>
    <frame tileid="186" duration="150"/>
    <frame tileid="190" duration="150"/>
    <frame tileid="194" duration="150"/>
    <frame tileid="198" duration="150"/>
   </animation>
  </tile>
  <tile id="163">
   <animation>
    <frame tileid="163" duration="150"/>
    <frame tileid="167" duration="150"/>
    <frame tileid="171" duration="150"/>
    <frame tileid="175" duration="150"/>
    <frame tileid="179" duration="150"/>
    <frame tileid="183" duration="150"/>
    <frame tileid="187" duration="150"/>
    <frame tileid="191" duration="150"/>
    <frame tileid="195" duration="150"/>
    <frame tileid="199" duration="150"/>
   </animation>
  </tile>
  <tile id="200">
   <animation>
    <frame tileid="200" duration="150"/>
    <frame tileid="204" duration="150"/>
    <frame tileid="208" duration="150"/>
    <frame tileid="212" duration="150"/>
    <frame tileid="216" duration="150"/>
    <frame tileid="220" duration="150"/>
    <frame tileid="224" duration="150"/>
    <frame tileid="228" duration="150"/>
    <frame tileid="232" duration="150"/>
    <frame tileid="236" duration="150"/>
   </animation>
  </tile>
  <tile id="201">
   <animation>
    <frame tileid="201" duration="150"/>
    <frame tileid="205" duration="150"/>
    <frame tileid="209" duration="150"/>
    <frame tileid="213" duration="150"/>
    <frame tileid="217" duration="150"/>
    <frame tileid="221" duration="150"/>
    <frame tileid="225" duration="150"/>
    <frame tileid="229" duration="150"/>
    <frame tileid="233" duration="150"/>
    <frame tileid="237" duration="150"/>
   </animation>
  </tile>
  <tile id="202">
   <animation>
    <frame tileid="202" duration="150"/>
    <frame tileid="206" duration="150"/>
    <frame tileid="210" duration="150"/>
    <frame tileid="214" duration="150"/>
    <frame tileid="218" duration="150"/>
    <frame tileid="222" duration="150"/>
    <frame tileid="226" duration="150"/>
    <frame tileid="230" duration="150"/>
    <frame tileid="234" duration="150"/>
    <frame tileid="238" duration="150"/>
   </animation>
  </tile>
  <tile id="203">
   <animation>
    <frame tileid="203" duration="150"/>
    <frame tileid="207" duration="150"/>
    <frame tileid="211" duration="150"/>
    <frame tileid="215" duration="150"/>
    <frame tileid="219" duration="150"/>
    <frame tileid="223" duration="150"/>
    <frame tileid="227" duration="150"/>
    <frame tileid="231" duration="150"/>
    <frame tileid="235" duration="150"/>
    <frame tileid="239" duration="150"/>
   </animation>
  </tile>
  <tile id="240">
   <animation>
    <frame tileid="240" duration="150"/>
    <frame tileid="244" duration="150"/>
    <frame tileid="248" duration="150"/>
    <frame tileid="252" duration="150"/>
    <frame tileid="256" duration="150"/>
    <frame tileid="260" duration="150"/>
    <frame tileid="264" duration="150"/>
    <frame tileid="268" duration="150"/>
    <frame tileid="272" duration="150"/>
    <frame tileid="276" duration="150"/>
   </animation>
  </tile>
  <tile id="241">
   <animation>
    <frame tileid="241" duration="150"/>
    <frame tileid="245" duration="150"/>
    <frame tileid="249" duration="150"/>
    <frame tileid="253" duration="150"/>
    <frame tileid="257" duration="150"/>
    <frame tileid="261" duration="150"/>
    <frame tileid="265" duration="150"/>
    <frame tileid="269" duration="150"/>
    <frame tileid="273" duration="150"/>
    <frame tileid="277" duration="150"/>
   </animation>
  </tile>
  <tile id="242">
   <animation>
    <frame tileid="242" duration="150"/>
    <frame tileid="246" duration="150"/>
    <frame tileid="250" duration="150"/>
    <frame tileid="254" duration="150"/>
    <frame tileid="258" duration="150"/>
    <frame tileid="262" duration="150"/>
    <frame tileid="266" duration="150"/>
    <frame tileid="270" duration="150"/>
    <frame tileid="274" duration="150"/>
    <frame tileid="278" duration="150"/>
   </animation>
  </tile>
  <tile id="243">
   <animation>
    <frame tileid="243" duration="150"/>
    <frame tileid="247" duration="150"/>
    <frame tileid="251" duration="150"/>
    <frame tileid="255" duration="150"/>
    <frame tileid="259" duration="150"/>
    <frame tileid="263" duration="150"/>
    <frame tileid="267" duration="150"/>
    <frame tileid="271" duration="150"/>
    <frame tileid="275" duration="150"/>
    <frame tileid="279" duration="150"/>
   </animation>
  </tile>
  <tile id="280">
   <animation>
    <frame tileid="280" duration="150"/>
    <frame tileid="284" duration="150"/>
    <frame tileid="288" duration="150"/>
    <frame tileid="292" duration="150"/>
    <frame tileid="296" duration="150"/>
    <frame tileid="300" duration="150"/>
    <frame tileid="304" duration="150"/>
    <frame tileid="308" duration="150"/>
    <frame tileid="312" duration="150"/>
    <frame tileid="316" duration="150"/>
   </animation>
  </tile>
  <tile id="281">
   <animation>
    <frame tileid="281" duration="150"/>
    <frame tileid="285" duration="150"/>
    <frame tileid="289" duration="150"/>
    <frame tileid="293" duration="150"/>
    <frame tileid="297" duration="150"/>
    <frame tileid="301" duration="150"/>
    <frame tileid="305" duration="150"/>
    <frame tileid="309" duration="150"/>
    <frame tileid="313" duration="150"/>
    <frame tileid="317" duration="150"/>
   </animation>
  </tile>
  <tile id="282">
   <animation>
    <frame tileid="282" duration="150"/>
    <frame tileid="286" duration="150"/>
    <frame tileid="290" duration="150"/>
    <frame tileid="294" duration="150"/>
    <frame tileid="298" duration="150"/>
    <frame tileid="302" duration="150"/>
    <frame tileid="306" duration="150"/>
    <frame tileid="310" duration="150"/>
    <frame tileid="314" duration="150"/>
    <frame tileid="318" duration="150"/>
   </animation>
  </tile>
  <tile id="283">
   <animation>
    <frame tileid="283" duration="150"/>
    <frame tileid="287" duration="150"/>
    <frame tileid="291" duration="150"/>
    <frame tileid="295" duration="150"/>
    <frame tileid="299" duration="150"/>
    <frame tileid="303" duration="150"/>
    <frame tileid="307" duration="150"/>
    <frame tileid="311" duration="150"/>
    <frame tileid="315" duration="150"/>
    <frame tileid="319" duration="150"/>
   </animation>
  </tile>
  <tile id="320">
   <animation>
    <frame tileid="320" duration="150"/>
    <frame tileid="324" duration="150"/>
    <frame tileid="328" duration="150"/>
    <frame tileid="332" duration="150"/>
    <frame tileid="336" duration="150"/>
    <frame tileid="340" duration="150"/>
    <frame tileid="344" duration="150"/>
    <frame tileid="348" duration="150"/>
    <frame tileid="352" duration="150"/>
    <frame tileid="356" duration="150"/>
   </animation>
  </tile>
  <tile id="321">
   <animation>
    <frame tileid="321" duration="150"/>
    <frame tileid="325" duration="150"/>
    <frame tileid="329" duration="150"/>
    <frame tileid="333" duration="150"/>
    <frame tileid="337" duration="150"/>
    <frame tileid="341" duration="150"/>
    <frame tileid="345" duration="150"/>
    <frame tileid="349" duration="150"/>
    <frame tileid="353" duration="150"/>
    <frame tileid="357" duration="150"/>
   </animation>
  </tile>
  <tile id="322">
   <animation>
    <frame tileid="322" duration="150"/>
    <frame tileid="326" duration="150"/>
    <frame tileid="330" duration="150"/>
    <frame tileid="334" duration="150"/>
    <frame tileid="338" duration="150"/>
    <frame tileid="342" duration="150"/>
    <frame tileid="346" duration="150"/>
    <frame tileid="350" duration="150"/>
    <frame tileid="354" duration="150"/>
    <frame tileid="358" duration="150"/>
   </animation>
  </tile>
  <tile id="323">
   <animation>
    <frame tileid="323" duration="150"/>
    <frame tileid="327" duration="150"/>
    <frame tileid="331" duration="150"/>
    <frame tileid="335" duration="150"/>
    <frame tileid="339" duration="150"/>
    <frame tileid="343" duration="150"/>
    <frame tileid="347" duration="150"/>
    <frame tileid="351" duration="150"/>
    <frame tileid="355" duration="150"/>
    <frame tileid="359" duration="150"/>
   </animation>
  </tile>
  <tile id="360">
   <animation>
    <frame tileid="360" duration="150"/>
    <frame tileid="364" duration="150"/>
    <frame tileid="368" duration="150"/>
    <frame tileid="372" duration="150"/>
    <frame tileid="376" duration="150"/>
    <frame tileid="380" duration="150"/>
    <frame tileid="384" duration="150"/>
    <frame tileid="388" duration="150"/>
    <frame tileid="392" duration="150"/>
    <frame tileid="396" duration="150"/>
   </animation>
  </tile>
  <tile id="361">
   <animation>
    <frame tileid="361" duration="150"/>
    <frame tileid="365" duration="150"/>
    <frame tileid="369" duration="150"/>
    <frame tileid="373" duration="150"/>
    <frame tileid="377" duration="150"/>
    <frame tileid="381" duration="150"/>
    <frame tileid="385" duration="150"/>
    <frame tileid="389" duration="150"/>
    <frame tileid="393" duration="150"/>
    <frame tileid="397" duration="150"/>
   </animation>
  </tile>
  <tile id="362">
   <animation>
    <frame tileid="362" duration="150"/>
    <frame tileid="366" duration="150"/>
    <frame tileid="370" duration="150"/>
    <frame tileid="374" duration="150"/>
    <frame tileid="378" duration="150"/>
    <frame tileid="382" duration="150"/>
    <frame tileid="386" duration="150"/>
    <frame tileid="390" duration="150"/>
    <frame tileid="394" duration="150"/>
    <frame tileid="398" duration="150"/>
   </animation>
  </tile>
  <tile id="363">
   <animation>
    <frame tileid="363" duration="150"/>
    <frame tileid="367" duration="150"/>
    <frame tileid="371" duration="150"/>
    <frame tileid="375" duration="150"/>
    <frame tileid="379" duration="150"/>
    <frame tileid="383" duration="150"/>
    <frame tileid="387" duration="150"/>
    <frame tileid="391" duration="150"/>
    <frame tileid="395" duration="150"/>
    <frame tileid="399" duration="150"/>
   </animation>
  </tile>
  <tile id="400">
   <animation>
    <frame tileid="400" duration="150"/>
    <frame tileid="404" duration="150"/>
    <frame tileid="408" duration="150"/>
    <frame tileid="412" duration="150"/>
    <frame tileid="416" duration="150"/>
    <frame tileid="420" duration="150"/>
    <frame tileid="424" duration="150"/>
    <frame tileid="428" duration="150"/>
    <frame tileid="432" duration="150"/>
    <frame tileid="436" duration="150"/>
   </animation>
  </tile>
  <tile id="401">
   <animation>
    <frame tileid="401" duration="150"/>
    <frame tileid="405" duration="150"/>
    <frame tileid="409" duration="150"/>
    <frame tileid="413" duration="150"/>
    <frame tileid="417" duration="150"/>
    <frame tileid="421" duration="150"/>
    <frame tileid="425" duration="150"/>
    <frame tileid="429" duration="150"/>
    <frame tileid="433" duration="150"/>
    <frame tileid="437" duration="150"/>
   </animation>
  </tile>
  <tile id="402">
   <animation>
    <frame tileid="402" duration="150"/>
    <frame tileid="406" duration="150"/>
    <frame tileid="410" duration="150"/>
    <frame tileid="414" duration="150"/>
    <frame tileid="418" duration="150"/>
    <frame tileid="422" duration="150"/>
    <frame tileid="426" duration="150"/>
    <frame tileid="430" duration="150"/>
    <frame tileid="434" duration="150"/>
    <frame tileid="438" duration="150"/>
   </animation>
  </tile>
  <tile id="403">
   <animation>
    <frame tileid="403" duration="150"/>
    <frame tileid="407" duration="150"/>
    <frame tileid="411" duration="150"/>
    <frame tileid="415" duration="150"/>
    <frame tileid="419" duration="150"/>
    <frame tileid="423" duration="150"/>
    <frame tileid="427" duration="150"/>
    <frame tileid="431" duration="150"/>
    <frame tileid="435" duration="150"/>
    <frame tileid="439" duration="150"/>
   </animation>
  </tile>
  <tile id="440">
   <animation>
    <frame tileid="440" duration="150"/>
    <frame tileid="444" duration="150"/>
    <frame tileid="448" duration="150"/>
    <frame tileid="452" duration="150"/>
    <frame tileid="456" duration="150"/>
    <frame tileid="460" duration="150"/>
    <frame tileid="464" duration="150"/>
    <frame tileid="468" duration="150"/>
    <frame tileid="472" duration="150"/>
    <frame tileid="476" duration="150"/>
   </animation>
  </tile>
  <tile id="441">
   <animation>
    <frame tileid="441" duration="150"/>
    <frame tileid="445" duration="150"/>
    <frame tileid="449" duration="150"/>
    <frame tileid="453" duration="150"/>
    <frame tileid="457" duration="150"/>
    <frame tileid="461" duration="150"/>
    <frame tileid="465" duration="150"/>
    <frame tileid="469" duration="150"/>
    <frame tileid="473" duration="150"/>
    <frame tileid="477" duration="150"/>
   </animation>
  </tile>
  <tile id="442">
   <animation>
    <frame tileid="442" duration="150"/>
    <frame tileid="446" duration="150"/>
    <frame tileid="450" duration="150"/>
    <frame tileid="454" duration="150"/>
    <frame tileid="458" duration="150"/>
    <frame tileid="462" duration="150"/>
    <frame tileid="466" duration="150"/>
    <frame tileid="470" duration="150"/>
    <frame tileid="474" duration="150"/>
    <frame tileid="478" duration="150"/>
   </animation>
  </tile>
  <tile id="443">
   <animation>
    <frame tileid="443" duration="150"/>
    <frame tileid="447" duration="150"/>
    <frame tileid="451" duration="150"/>
    <frame tileid="455" duration="150"/>
    <frame tileid="459" duration="150"/>
    <frame tileid="463" duration="150"/>
    <frame tileid="467" duration="150"/>
    <frame tileid="471" duration="150"/>
    <frame tileid="475" duration="150"/>
    <frame tileid="479" duration="150"/>
   </animation>
  </tile>
  <tile id="480">
   <animation>
    <frame tileid="480" duration="150"/>
    <frame tileid="484" duration="150"/>
    <frame tileid="488" duration="150"/>
    <frame tileid="492" duration="150"/>
    <frame tileid="496" duration="150"/>
    <frame tileid="500" duration="150"/>
    <frame tileid="504" duration="150"/>
    <frame tileid="508" duration="150"/>
    <frame tileid="512" duration="150"/>
    <frame tileid="516" duration="150"/>
   </animation>
  </tile>
  <tile id="481">
   <animation>
    <frame tileid="481" duration="150"/>
    <frame tileid="485" duration="150"/>
    <frame tileid="489" duration="150"/>
    <frame tileid="493" duration="150"/>
    <frame tileid="497" duration="150"/>
    <frame tileid="501" duration="150"/>
    <frame tileid="505" duration="150"/>
    <frame tileid="509" duration="150"/>
    <frame tileid="513" duration="150"/>
    <frame tileid="517" duration="150"/>
   </animation>
  </tile>
  <tile id="482">
   <animation>
    <frame tileid="482" duration="150"/>
    <frame tileid="486" duration="150"/>
    <frame tileid="490" duration="150"/>
    <frame tileid="494" duration="150"/>
    <frame tileid="498" duration="150"/>
    <frame tileid="502" duration="150"/>
    <frame tileid="506" duration="150"/>
    <frame tileid="510" duration="150"/>
    <frame tileid="514" duration="150"/>
    <frame tileid="518" duration="150"/>
   </animation>
  </tile>
  <tile id="483">
   <animation>
    <frame tileid="483" duration="150"/>
    <frame tileid="487" duration="150"/>
    <frame tileid="491" duration="150"/>
    <frame tileid="495" duration="150"/>
    <frame tileid="499" duration="150"/>
    <frame tileid="503" duration="150"/>
    <frame tileid="507" duration="150"/>
    <frame tileid="511" duration="150"/>
    <frame tileid="515" duration="150"/>
    <frame tileid="519" duration="150"/>
   </animation>
  </tile>
  <tile id="520">
   <animation>
    <frame tileid="520" duration="150"/>
    <frame tileid="524" duration="150"/>
    <frame tileid="528" duration="150"/>
    <frame tileid="532" duration="150"/>
    <frame tileid="536" duration="150"/>
    <frame tileid="540" duration="150"/>
    <frame tileid="544" duration="150"/>
    <frame tileid="548" duration="150"/>
    <frame tileid="552" duration="150"/>
    <frame tileid="556" duration="150"/>
   </animation>
  </tile>
  <tile id="521">
   <animation>
    <frame tileid="521" duration="150"/>
    <frame tileid="525" duration="150"/>
    <frame tileid="529" duration="150"/>
    <frame tileid="533" duration="150"/>
    <frame tileid="537" duration="150"/>
    <frame tileid="541" duration="150"/>
    <frame tileid="545" duration="150"/>
    <frame tileid="549" duration="150"/>
    <frame tileid="553" duration="150"/>
    <frame tileid="557" duration="150"/>
   </animation>
  </tile>
  <tile id="522">
   <animation>
    <frame tileid="522" duration="150"/>
    <frame tileid="526" duration="150"/>
    <frame tileid="530" duration="150"/>
    <frame tileid="534" duration="150"/>
    <frame tileid="538" duration="150"/>
    <frame tileid="542" duration="150"/>
    <frame tileid="546" duration="150"/>
    <frame tileid="550" duration="150"/>
    <frame tileid="554" duration="150"/>
    <frame tileid="558" duration="150"/>
   </animation>
  </tile>
  <tile id="523">
   <animation>
    <frame tileid="523" duration="150"/>
    <frame tileid="527" duration="150"/>
    <frame tileid="531" duration="150"/>
    <frame tileid="535" duration="150"/>
    <frame tileid="539" duration="150"/>
    <frame tileid="543" duration="150"/>
    <frame tileid="547" duration="150"/>
    <frame tileid="551" duration="150"/>
    <frame tileid="555" duration="150"/>
    <frame tileid="559" duration="150"/>
   </animation>
  </tile>
  <tile id="560">
   <animation>
    <frame tileid="560" duration="150"/>
    <frame tileid="564" duration="150"/>
    <frame tileid="568" duration="150"/>
    <frame tileid="572" duration="150"/>
    <frame tileid="576" duration="150"/>
    <frame tileid="580" duration="150"/>
    <frame tileid="584" duration="150"/>
    <frame tileid="588" duration="150"/>
    <frame tileid="592" duration="150"/>
    <frame tileid="596" duration="150"/>
   </animation>
  </tile>
  <tile id="561">
   <animation>
    <frame tileid="561" duration="150"/>
    <frame tileid="565" duration="150"/>
    <frame tileid="569" duration="150"/>
    <frame tileid="573" duration="150"/>
    <frame tileid="577" duration="150"/>
    <frame tileid="581" duration="150"/>
    <frame tileid="585" duration="150"/>
    <frame tileid="589" duration="150"/>
    <frame tileid="593" duration="150"/>
    <frame tileid="597" duration="150"/>
   </animation>
  </tile>
  <tile id="562">
   <animation>
    <frame tileid="562" duration="150"/>
    <frame tileid="566" duration="150"/>
    <frame tileid="570" duration="150"/>
    <frame tileid="574" duration="150"/>
    <frame tileid="578" duration="150"/>
    <frame tileid="582" duration="150"/>
    <frame tileid="586" duration="150"/>
    <frame tileid="590" duration="150"/>
    <frame tileid="594" duration="150"/>
    <frame tileid="598" duration="150"/>
   </animation>
  </tile>
  <tile id="563">
   <animation>
    <frame tileid="563" duration="150"/>
    <frame tileid="567" duration="150"/>
    <frame tileid="571" duration="150"/>
    <frame tileid="575" duration="150"/>
    <frame tileid="579" duration="150"/>
    <frame tileid="583" duration="150"/>
    <frame tileid="587" duration="150"/>
    <frame tileid="591" duration="150"/>
    <frame tileid="595" duration="150"/>
    <frame tileid="599" duration="150"/>
   </animation>
  </tile>
  <tile id="600">
   <animation>
    <frame tileid="600" duration="150"/>
    <frame tileid="604" duration="150"/>
    <frame tileid="608" duration="150"/>
    <frame tileid="612" duration="150"/>
    <frame tileid="616" duration="150"/>
    <frame tileid="620" duration="150"/>
    <frame tileid="624" duration="150"/>
    <frame tileid="628" duration="150"/>
    <frame tileid="632" duration="150"/>
    <frame tileid="636" duration="150"/>
   </animation>
  </tile>
  <tile id="601">
   <animation>
    <frame tileid="601" duration="150"/>
    <frame tileid="605" duration="150"/>
    <frame tileid="609" duration="150"/>
    <frame tileid="613" duration="150"/>
    <frame tileid="617" duration="150"/>
    <frame tileid="621" duration="150"/>
    <frame tileid="625" duration="150"/>
    <frame tileid="629" duration="150"/>
    <frame tileid="633" duration="150"/>
    <frame tileid="637" duration="150"/>
   </animation>
  </tile>
  <tile id="602">
   <animation>
    <frame tileid="602" duration="150"/>
    <frame tileid="606" duration="150"/>
    <frame tileid="610" duration="150"/>
    <frame tileid="614" duration="150"/>
    <frame tileid="618" duration="150"/>
    <frame tileid="622" duration="150"/>
    <frame tileid="626" duration="150"/>
    <frame tileid="630" duration="150"/>
    <frame tileid="634" duration="150"/>
    <frame tileid="638" duration="150"/>
   </animation>
  </tile>
  <tile id="603">
   <animation>
    <frame tileid="603" duration="150"/>
    <frame tileid="607" duration="150"/>
    <frame tileid="611" duration="150"/>
    <frame tileid="615" duration="150"/>
    <frame tileid="619" duration="150"/>
    <frame tileid="623" duration="150"/>
    <frame tileid="627" duration="150"/>
    <frame tileid="631" duration="150"/>
    <frame tileid="635" duration="150"/>
    <frame tileid="639" duration="150"/>
   </animation>
  </tile>
 </tileset>
 <tileset firstgid="5505" name="Slime1_Run_full" tilewidth="16" tileheight="16" tilecount="512" columns="32">
  <image source="Slime1_Run_body.png" width="512" height="256"/>
  <tile id="0">
   <animation>
    <frame tileid="0" duration="150"/>
    <frame tileid="4" duration="150"/>
    <frame tileid="8" duration="150"/>
    <frame tileid="12" duration="150"/>
    <frame tileid="16" duration="150"/>
    <frame tileid="20" duration="150"/>
    <frame tileid="24" duration="150"/>
    <frame tileid="28" duration="150"/>
   </animation>
  </tile>
  <tile id="1">
   <animation>
    <frame tileid="1" duration="150"/>
    <frame tileid="5" duration="150"/>
    <frame tileid="9" duration="150"/>
    <frame tileid="13" duration="150"/>
    <frame tileid="17" duration="150"/>
    <frame tileid="21" duration="150"/>
    <frame tileid="25" duration="150"/>
    <frame tileid="29" duration="150"/>
   </animation>
  </tile>
  <tile id="2">
   <animation>
    <frame tileid="2" duration="150"/>
    <frame tileid="6" duration="150"/>
    <frame tileid="10" duration="150"/>
    <frame tileid="14" duration="150"/>
    <frame tileid="18" duration="150"/>
    <frame tileid="22" duration="150"/>
    <frame tileid="26" duration="150"/>
    <frame tileid="30" duration="150"/>
   </animation>
  </tile>
  <tile id="3">
   <animation>
    <frame tileid="3" duration="150"/>
    <frame tileid="7" duration="150"/>
    <frame tileid="11" duration="150"/>
    <frame tileid="15" duration="150"/>
    <frame tileid="19" duration="150"/>
    <frame tileid="23" duration="150"/>
    <frame tileid="27" duration="150"/>
    <frame tileid="31" duration="150"/>
   </animation>
  </tile>
  <tile id="32">
   <animation>
    <frame tileid="32" duration="150"/>
    <frame tileid="36" duration="150"/>
    <frame tileid="40" duration="150"/>
    <frame tileid="44" duration="150"/>
    <frame tileid="48" duration="150"/>
    <frame tileid="52" duration="150"/>
    <frame tileid="56" duration="150"/>
    <frame tileid="60" duration="150"/>
   </animation>
  </tile>
  <tile id="33">
   <animation>
    <frame tileid="33" duration="150"/>
    <frame tileid="37" duration="150"/>
    <frame tileid="41" duration="150"/>
    <frame tileid="45" duration="150"/>
    <frame tileid="49" duration="150"/>
    <frame tileid="53" duration="150"/>
    <frame tileid="57" duration="150"/>
    <frame tileid="61" duration="150"/>
   </animation>
  </tile>
  <tile id="34">
   <animation>
    <frame tileid="34" duration="150"/>
    <frame tileid="38" duration="150"/>
    <frame tileid="42" duration="150"/>
    <frame tileid="46" duration="150"/>
    <frame tileid="50" duration="150"/>
    <frame tileid="54" duration="150"/>
    <frame tileid="58" duration="150"/>
    <frame tileid="62" duration="150"/>
   </animation>
  </tile>
  <tile id="35">
   <animation>
    <frame tileid="35" duration="150"/>
    <frame tileid="39" duration="150"/>
    <frame tileid="43" duration="150"/>
    <frame tileid="47" duration="150"/>
    <frame tileid="51" duration="150"/>
    <frame tileid="55" duration="150"/>
    <frame tileid="59" duration="150"/>
    <frame tileid="63" duration="150"/>
   </animation>
  </tile>
  <tile id="64">
   <animation>
    <frame tileid="64" duration="150"/>
    <frame tileid="68" duration="150"/>
    <frame tileid="72" duration="150"/>
    <frame tileid="76" duration="150"/>
    <frame tileid="80" duration="150"/>
    <frame tileid="84" duration="150"/>
    <frame tileid="88" duration="150"/>
    <frame tileid="92" duration="150"/>
   </animation>
  </tile>
  <tile id="65">
   <animation>
    <frame tileid="65" duration="150"/>
    <frame tileid="69" duration="150"/>
    <frame tileid="73" duration="150"/>
    <frame tileid="77" duration="150"/>
    <frame tileid="81" duration="150"/>
    <frame tileid="85" duration="150"/>
    <frame tileid="89" duration="150"/>
    <frame tileid="93" duration="150"/>
   </animation>
  </tile>
  <tile id="66">
   <animation>
    <frame tileid="66" duration="150"/>
    <frame tileid="70" duration="150"/>
    <frame tileid="74" duration="150"/>
    <frame tileid="78" duration="150"/>
    <frame tileid="82" duration="150"/>
    <frame tileid="86" duration="150"/>
    <frame tileid="90" duration="150"/>
    <frame tileid="94" duration="150"/>
   </animation>
  </tile>
  <tile id="67">
   <animation>
    <frame tileid="67" duration="150"/>
    <frame tileid="71" duration="150"/>
    <frame tileid="75" duration="150"/>
    <frame tileid="79" duration="150"/>
    <frame tileid="83" duration="150"/>
    <frame tileid="87" duration="150"/>
    <frame tileid="91" duration="150"/>
    <frame tileid="95" duration="150"/>
   </animation>
  </tile>
  <tile id="96">
   <animation>
    <frame tileid="96" duration="150"/>
    <frame tileid="100" duration="150"/>
    <frame tileid="104" duration="150"/>
    <frame tileid="108" duration="150"/>
    <frame tileid="112" duration="150"/>
    <frame tileid="116" duration="150"/>
    <frame tileid="120" duration="150"/>
    <frame tileid="124" duration="150"/>
   </animation>
  </tile>
  <tile id="97">
   <animation>
    <frame tileid="97" duration="150"/>
    <frame tileid="101" duration="150"/>
    <frame tileid="105" duration="150"/>
    <frame tileid="109" duration="150"/>
    <frame tileid="113" duration="150"/>
    <frame tileid="117" duration="150"/>
    <frame tileid="121" duration="150"/>
    <frame tileid="125" duration="150"/>
   </animation>
  </tile>
  <tile id="98">
   <animation>
    <frame tileid="98" duration="150"/>
    <frame tileid="102" duration="150"/>
    <frame tileid="106" duration="150"/>
    <frame tileid="110" duration="150"/>
    <frame tileid="114" duration="150"/>
    <frame tileid="118" duration="150"/>
    <frame tileid="122" duration="150"/>
    <frame tileid="126" duration="150"/>
   </animation>
  </tile>
  <tile id="99">
   <animation>
    <frame tileid="99" duration="150"/>
    <frame tileid="103" duration="150"/>
    <frame tileid="107" duration="150"/>
    <frame tileid="111" duration="150"/>
    <frame tileid="115" duration="150"/>
    <frame tileid="119" duration="150"/>
    <frame tileid="123" duration="150"/>
    <frame tileid="127" duration="150"/>
   </animation>
  </tile>
  <tile id="128">
   <animation>
    <frame tileid="128" duration="150"/>
    <frame tileid="132" duration="150"/>
    <frame tileid="136" duration="150"/>
    <frame tileid="140" duration="150"/>
    <frame tileid="144" duration="150"/>
    <frame tileid="148" duration="150"/>
    <frame tileid="152" duration="150"/>
    <frame tileid="156" duration="150"/>
   </animation>
  </tile>
  <tile id="129">
   <animation>
    <frame tileid="129" duration="150"/>
    <frame tileid="133" duration="150"/>
    <frame tileid="137" duration="150"/>
    <frame tileid="141" duration="150"/>
    <frame tileid="145" duration="150"/>
    <frame tileid="149" duration="150"/>
    <frame tileid="153" duration="150"/>
    <frame tileid="157" duration="150"/>
   </animation>
  </tile>
  <tile id="130">
   <animation>
    <frame tileid="130" duration="150"/>
    <frame tileid="134" duration="150"/>
    <frame tileid="138" duration="150"/>
    <frame tileid="142" duration="150"/>
    <frame tileid="146" duration="150"/>
    <frame tileid="150" duration="150"/>
    <frame tileid="154" duration="150"/>
    <frame tileid="158" duration="150"/>
   </animation>
  </tile>
  <tile id="131">
   <animation>
    <frame tileid="131" duration="150"/>
    <frame tileid="135" duration="150"/>
    <frame tileid="139" duration="150"/>
    <frame tileid="143" duration="150"/>
    <frame tileid="147" duration="150"/>
    <frame tileid="151" duration="150"/>
    <frame tileid="155" duration="150"/>
    <frame tileid="159" duration="150"/>
   </animation>
  </tile>
  <tile id="160">
   <animation>
    <frame tileid="160" duration="150"/>
    <frame tileid="164" duration="150"/>
    <frame tileid="168" duration="150"/>
    <frame tileid="172" duration="150"/>
    <frame tileid="176" duration="150"/>
    <frame tileid="180" duration="150"/>
    <frame tileid="184" duration="150"/>
    <frame tileid="188" duration="150"/>
   </animation>
  </tile>
  <tile id="161">
   <animation>
    <frame tileid="161" duration="150"/>
    <frame tileid="165" duration="150"/>
    <frame tileid="169" duration="150"/>
    <frame tileid="173" duration="150"/>
    <frame tileid="177" duration="150"/>
    <frame tileid="181" duration="150"/>
    <frame tileid="185" duration="150"/>
    <frame tileid="189" duration="150"/>
   </animation>
  </tile>
  <tile id="162">
   <animation>
    <frame tileid="162" duration="150"/>
    <frame tileid="166" duration="150"/>
    <frame tileid="170" duration="150"/>
    <frame tileid="174" duration="150"/>
    <frame tileid="178" duration="150"/>
    <frame tileid="182" duration="150"/>
    <frame tileid="186" duration="150"/>
    <frame tileid="190" duration="150"/>
   </animation>
  </tile>
  <tile id="163">
   <animation>
    <frame tileid="163" duration="150"/>
    <frame tileid="167" duration="150"/>
    <frame tileid="171" duration="150"/>
    <frame tileid="175" duration="150"/>
    <frame tileid="179" duration="150"/>
    <frame tileid="183" duration="150"/>
    <frame tileid="187" duration="150"/>
    <frame tileid="191" duration="150"/>
   </animation>
  </tile>
  <tile id="192">
   <animation>
    <frame tileid="192" duration="150"/>
    <frame tileid="196" duration="150"/>
    <frame tileid="200" duration="150"/>
    <frame tileid="204" duration="150"/>
    <frame tileid="208" duration="150"/>
    <frame tileid="212" duration="150"/>
    <frame tileid="216" duration="150"/>
    <frame tileid="220" duration="150"/>
   </animation>
  </tile>
  <tile id="193">
   <animation>
    <frame tileid="193" duration="150"/>
    <frame tileid="197" duration="150"/>
    <frame tileid="201" duration="150"/>
    <frame tileid="205" duration="150"/>
    <frame tileid="209" duration="150"/>
    <frame tileid="213" duration="150"/>
    <frame tileid="217" duration="150"/>
    <frame tileid="221" duration="150"/>
   </animation>
  </tile>
  <tile id="194">
   <animation>
    <frame tileid="194" duration="150"/>
    <frame tileid="198" duration="150"/>
    <frame tileid="202" duration="150"/>
    <frame tileid="206" duration="150"/>
    <frame tileid="210" duration="150"/>
    <frame tileid="214" duration="150"/>
    <frame tileid="218" duration="150"/>
    <frame tileid="222" duration="150"/>
   </animation>
  </tile>
  <tile id="195">
   <animation>
    <frame tileid="195" duration="150"/>
    <frame tileid="199" duration="150"/>
    <frame tileid="203" duration="150"/>
    <frame tileid="207" duration="150"/>
    <frame tileid="211" duration="150"/>
    <frame tileid="215" duration="150"/>
    <frame tileid="219" duration="150"/>
    <frame tileid="223" duration="150"/>
   </animation>
  </tile>
  <tile id="224">
   <animation>
    <frame tileid="224" duration="150"/>
    <frame tileid="228" duration="150"/>
    <frame tileid="232" duration="150"/>
    <frame tileid="236" duration="150"/>
    <frame tileid="240" duration="150"/>
    <frame tileid="244" duration="150"/>
    <frame tileid="248" duration="150"/>
    <frame tileid="252" duration="150"/>
   </animation>
  </tile>
  <tile id="225">
   <animation>
    <frame tileid="225" duration="150"/>
    <frame tileid="229" duration="150"/>
    <frame tileid="233" duration="150"/>
    <frame tileid="237" duration="150"/>
    <frame tileid="241" duration="150"/>
    <frame tileid="245" duration="150"/>
    <frame tileid="249" duration="150"/>
    <frame tileid="253" duration="150"/>
   </animation>
  </tile>
  <tile id="226">
   <animation>
    <frame tileid="226" duration="150"/>
    <frame tileid="230" duration="150"/>
    <frame tileid="234" duration="150"/>
    <frame tileid="238" duration="150"/>
    <frame tileid="242" duration="150"/>
    <frame tileid="246" duration="150"/>
    <frame tileid="250" duration="150"/>
    <frame tileid="254" duration="150"/>
   </animation>
  </tile>
  <tile id="227">
   <animation>
    <frame tileid="227" duration="150"/>
    <frame tileid="231" duration="150"/>
    <frame tileid="235" duration="150"/>
    <frame tileid="239" duration="150"/>
    <frame tileid="243" duration="150"/>
    <frame tileid="247" duration="150"/>
    <frame tileid="251" duration="150"/>
    <frame tileid="255" duration="150"/>
   </animation>
  </tile>
  <tile id="256">
   <animation>
    <frame tileid="256" duration="150"/>
    <frame tileid="260" duration="150"/>
    <frame tileid="264" duration="150"/>
    <frame tileid="268" duration="150"/>
    <frame tileid="272" duration="150"/>
    <frame tileid="276" duration="150"/>
    <frame tileid="280" duration="150"/>
    <frame tileid="284" duration="150"/>
   </animation>
  </tile>
  <tile id="257">
   <animation>
    <frame tileid="257" duration="150"/>
    <frame tileid="261" duration="150"/>
    <frame tileid="265" duration="150"/>
    <frame tileid="269" duration="150"/>
    <frame tileid="273" duration="150"/>
    <frame tileid="277" duration="150"/>
    <frame tileid="281" duration="150"/>
    <frame tileid="285" duration="150"/>
   </animation>
  </tile>
  <tile id="258">
   <animation>
    <frame tileid="258" duration="150"/>
    <frame tileid="262" duration="150"/>
    <frame tileid="266" duration="150"/>
    <frame tileid="270" duration="150"/>
    <frame tileid="274" duration="150"/>
    <frame tileid="278" duration="150"/>
    <frame tileid="282" duration="150"/>
    <frame tileid="286" duration="150"/>
   </animation>
  </tile>
  <tile id="259">
   <animation>
    <frame tileid="259" duration="150"/>
    <frame tileid="263" duration="150"/>
    <frame tileid="267" duration="150"/>
    <frame tileid="271" duration="150"/>
    <frame tileid="275" duration="150"/>
    <frame tileid="279" duration="150"/>
    <frame tileid="283" duration="150"/>
    <frame tileid="287" duration="150"/>
   </animation>
  </tile>
  <tile id="288">
   <animation>
    <frame tileid="288" duration="150"/>
    <frame tileid="292" duration="150"/>
    <frame tileid="296" duration="150"/>
    <frame tileid="300" duration="150"/>
    <frame tileid="304" duration="150"/>
    <frame tileid="308" duration="150"/>
    <frame tileid="312" duration="150"/>
    <frame tileid="316" duration="150"/>
   </animation>
  </tile>
  <tile id="289">
   <animation>
    <frame tileid="289" duration="150"/>
    <frame tileid="293" duration="150"/>
    <frame tileid="297" duration="150"/>
    <frame tileid="301" duration="150"/>
    <frame tileid="305" duration="150"/>
    <frame tileid="309" duration="150"/>
    <frame tileid="313" duration="150"/>
    <frame tileid="317" duration="150"/>
   </animation>
  </tile>
  <tile id="290">
   <animation>
    <frame tileid="290" duration="150"/>
    <frame tileid="294" duration="150"/>
    <frame tileid="298" duration="150"/>
    <frame tileid="302" duration="150"/>
    <frame tileid="306" duration="150"/>
    <frame tileid="310" duration="150"/>
    <frame tileid="314" duration="150"/>
    <frame tileid="318" duration="150"/>
   </animation>
  </tile>
  <tile id="291">
   <animation>
    <frame tileid="291" duration="150"/>
    <frame tileid="295" duration="150"/>
    <frame tileid="299" duration="150"/>
    <frame tileid="303" duration="150"/>
    <frame tileid="307" duration="150"/>
    <frame tileid="311" duration="150"/>
    <frame tileid="315" duration="150"/>
    <frame tileid="319" duration="150"/>
   </animation>
  </tile>
  <tile id="320">
   <animation>
    <frame tileid="320" duration="150"/>
    <frame tileid="324" duration="150"/>
    <frame tileid="328" duration="150"/>
    <frame tileid="332" duration="150"/>
    <frame tileid="336" duration="150"/>
    <frame tileid="340" duration="150"/>
    <frame tileid="344" duration="150"/>
    <frame tileid="348" duration="150"/>
   </animation>
  </tile>
  <tile id="321">
   <animation>
    <frame tileid="321" duration="150"/>
    <frame tileid="325" duration="150"/>
    <frame tileid="329" duration="150"/>
    <frame tileid="333" duration="150"/>
    <frame tileid="337" duration="150"/>
    <frame tileid="341" duration="150"/>
    <frame tileid="345" duration="150"/>
    <frame tileid="349" duration="150"/>
   </animation>
  </tile>
  <tile id="322">
   <animation>
    <frame tileid="322" duration="150"/>
    <frame tileid="326" duration="150"/>
    <frame tileid="330" duration="150"/>
    <frame tileid="334" duration="150"/>
    <frame tileid="338" duration="150"/>
    <frame tileid="342" duration="150"/>
    <frame tileid="346" duration="150"/>
    <frame tileid="350" duration="150"/>
   </animation>
  </tile>
  <tile id="323">
   <animation>
    <frame tileid="323" duration="150"/>
    <frame tileid="327" duration="150"/>
    <frame tileid="331" duration="150"/>
    <frame tileid="335" duration="150"/>
    <frame tileid="339" duration="150"/>
    <frame tileid="343" duration="150"/>
    <frame tileid="347" duration="150"/>
    <frame tileid="351" duration="150"/>
   </animation>
  </tile>
  <tile id="352">
   <animation>
    <frame tileid="352" duration="150"/>
    <frame tileid="356" duration="150"/>
    <frame tileid="360" duration="150"/>
    <frame tileid="364" duration="150"/>
    <frame tileid="368" duration="150"/>
    <frame tileid="372" duration="150"/>
    <frame tileid="376" duration="150"/>
    <frame tileid="380" duration="150"/>
   </animation>
  </tile>
  <tile id="353">
   <animation>
    <frame tileid="353" duration="150"/>
    <frame tileid="357" duration="150"/>
    <frame tileid="361" duration="150"/>
    <frame tileid="365" duration="150"/>
    <frame tileid="369" duration="150"/>
    <frame tileid="373" duration="150"/>
    <frame tileid="377" duration="150"/>
    <frame tileid="381" duration="150"/>
   </animation>
  </tile>
  <tile id="354">
   <animation>
    <frame tileid="354" duration="150"/>
    <frame tileid="358" duration="150"/>
    <frame tileid="362" duration="150"/>
    <frame tileid="366" duration="150"/>
    <frame tileid="370" duration="150"/>
    <frame tileid="374" duration="150"/>
    <frame tileid="378" duration="150"/>
    <frame tileid="382" duration="150"/>
   </animation>
  </tile>
  <tile id="355">
   <animation>
    <frame tileid="355" duration="150"/>
    <frame tileid="359" duration="150"/>
    <frame tileid="363" duration="150"/>
    <frame tileid="367" duration="150"/>
    <frame tileid="371" duration="150"/>
    <frame tileid="375" duration="150"/>
    <frame tileid="379" duration="150"/>
    <frame tileid="383" duration="150"/>
   </animation>
  </tile>
  <tile id="384">
   <animation>
    <frame tileid="384" duration="150"/>
    <frame tileid="388" duration="150"/>
    <frame tileid="392" duration="150"/>
    <frame tileid="396" duration="150"/>
    <frame tileid="400" duration="150"/>
    <frame tileid="404" duration="150"/>
    <frame tileid="408" duration="150"/>
    <frame tileid="412" duration="150"/>
   </animation>
  </tile>
  <tile id="385">
   <animation>
    <frame tileid="385" duration="150"/>
    <frame tileid="389" duration="150"/>
    <frame tileid="393" duration="150"/>
    <frame tileid="397" duration="150"/>
    <frame tileid="401" duration="150"/>
    <frame tileid="405" duration="150"/>
    <frame tileid="409" duration="150"/>
    <frame tileid="413" duration="150"/>
   </animation>
  </tile>
  <tile id="386">
   <animation>
    <frame tileid="386" duration="150"/>
    <frame tileid="390" duration="150"/>
    <frame tileid="394" duration="150"/>
    <frame tileid="398" duration="150"/>
    <frame tileid="402" duration="150"/>
    <frame tileid="406" duration="150"/>
    <frame tileid="410" duration="150"/>
    <frame tileid="414" duration="150"/>
   </animation>
  </tile>
  <tile id="387">
   <animation>
    <frame tileid="387" duration="150"/>
    <frame tileid="391" duration="150"/>
    <frame tileid="395" duration="150"/>
    <frame tileid="399" duration="150"/>
    <frame tileid="403" duration="150"/>
    <frame tileid="407" duration="150"/>
    <frame tileid="411" duration="150"/>
    <frame tileid="415" duration="150"/>
   </animation>
  </tile>
  <tile id="416">
   <animation>
    <frame tileid="416" duration="150"/>
    <frame tileid="420" duration="150"/>
    <frame tileid="424" duration="150"/>
    <frame tileid="428" duration="150"/>
    <frame tileid="432" duration="150"/>
    <frame tileid="436" duration="150"/>
    <frame tileid="440" duration="150"/>
    <frame tileid="444" duration="150"/>
   </animation>
  </tile>
  <tile id="417">
   <animation>
    <frame tileid="417" duration="150"/>
    <frame tileid="421" duration="150"/>
    <frame tileid="425" duration="150"/>
    <frame tileid="429" duration="150"/>
    <frame tileid="433" duration="150"/>
    <frame tileid="437" duration="150"/>
    <frame tileid="441" duration="150"/>
    <frame tileid="445" duration="150"/>
   </animation>
  </tile>
  <tile id="418">
   <animation>
    <frame tileid="418" duration="150"/>
    <frame tileid="422" duration="150"/>
    <frame tileid="426" duration="150"/>
    <frame tileid="430" duration="150"/>
    <frame tileid="434" duration="150"/>
    <frame tileid="438" duration="150"/>
    <frame tileid="442" duration="150"/>
    <frame tileid="446" duration="150"/>
   </animation>
  </tile>
  <tile id="419">
   <animation>
    <frame tileid="419" duration="150"/>
    <frame tileid="423" duration="150"/>
    <frame tileid="427" duration="150"/>
    <frame tileid="431" duration="150"/>
    <frame tileid="435" duration="150"/>
    <frame tileid="439" duration="150"/>
    <frame tileid="443" duration="150"/>
    <frame tileid="447" duration="150"/>
   </animation>
  </tile>
  <tile id="448">
   <animation>
    <frame tileid="448" duration="150"/>
    <frame tileid="452" duration="150"/>
    <frame tileid="456" duration="150"/>
    <frame tileid="460" duration="150"/>
    <frame tileid="464" duration="150"/>
    <frame tileid="468" duration="150"/>
    <frame tileid="472" duration="150"/>
    <frame tileid="476" duration="150"/>
   </animation>
  </tile>
  <tile id="449">
   <animation>
    <frame tileid="449" duration="150"/>
    <frame tileid="453" duration="150"/>
    <frame tileid="457" duration="150"/>
    <frame tileid="461" duration="150"/>
    <frame tileid="465" duration="150"/>
    <frame tileid="469" duration="150"/>
    <frame tileid="473" duration="150"/>
    <frame tileid="477" duration="150"/>
   </animation>
  </tile>
  <tile id="450">
   <animation>
    <frame tileid="450" duration="150"/>
    <frame tileid="454" duration="150"/>
    <frame tileid="458" duration="150"/>
    <frame tileid="462" duration="150"/>
    <frame tileid="466" duration="150"/>
    <frame tileid="470" duration="150"/>
    <frame tileid="474" duration="150"/>
    <frame tileid="478" duration="150"/>
   </animation>
  </tile>
  <tile id="451">
   <animation>
    <frame tileid="451" duration="150"/>
    <frame tileid="455" duration="150"/>
    <frame tileid="459" duration="150"/>
    <frame tileid="463" duration="150"/>
    <frame tileid="467" duration="150"/>
    <frame tileid="471" duration="150"/>
    <frame tileid="475" duration="150"/>
    <frame tileid="479" duration="150"/>
   </animation>
  </tile>
  <tile id="480">
   <animation>
    <frame tileid="480" duration="150"/>
    <frame tileid="484" duration="150"/>
    <frame tileid="488" duration="150"/>
    <frame tileid="492" duration="150"/>
    <frame tileid="496" duration="150"/>
    <frame tileid="500" duration="150"/>
    <frame tileid="504" duration="150"/>
    <frame tileid="508" duration="150"/>
   </animation>
  </tile>
  <tile id="481">
   <animation>
    <frame tileid="481" duration="150"/>
    <frame tileid="485" duration="150"/>
    <frame tileid="489" duration="150"/>
    <frame tileid="493" duration="150"/>
    <frame tileid="497" duration="150"/>
    <frame tileid="501" duration="150"/>
    <frame tileid="505" duration="150"/>
    <frame tileid="509" duration="150"/>
   </animation>
  </tile>
  <tile id="482">
   <animation>
    <frame tileid="482" duration="150"/>
    <frame tileid="486" duration="150"/>
    <frame tileid="490" duration="150"/>
    <frame tileid="494" duration="150"/>
    <frame tileid="498" duration="150"/>
    <frame tileid="502" duration="150"/>
    <frame tileid="506" duration="150"/>
    <frame tileid="510" duration="150"/>
   </animation>
  </tile>
  <tile id="483">
   <animation>
    <frame tileid="483" duration="150"/>
    <frame tileid="487" duration="150"/>
    <frame tileid="491" duration="150"/>
    <frame tileid="495" duration="150"/>
    <frame tileid="499" duration="150"/>
    <frame tileid="503" duration="150"/>
    <frame tileid="507" duration="150"/>
    <frame tileid="511" duration="150"/>
   </animation>
  </tile>
 </tileset>
 <tileset firstgid="6017" name="Shadow_walk" tilewidth="16" tileheight="16" tilecount="96" columns="24">
  <image source="Shadow_walk.png" width="384" height="64"/>
  <tile id="0">
   <animation>
    <frame tileid="0" duration="150"/>
    <frame tileid="2" duration="150"/>
    <frame tileid="4" duration="150"/>
    <frame tileid="6" duration="150"/>
    <frame tileid="8" duration="150"/>
    <frame tileid="10" duration="150"/>
    <frame tileid="12" duration="150"/>
    <frame tileid="14" duration="150"/>
   </animation>
  </tile>
  <tile id="1">
   <animation>
    <frame tileid="1" duration="150"/>
    <frame tileid="3" duration="150"/>
    <frame tileid="5" duration="150"/>
    <frame tileid="7" duration="150"/>
    <frame tileid="9" duration="150"/>
    <frame tileid="11" duration="150"/>
    <frame tileid="13" duration="150"/>
    <frame tileid="15" duration="150"/>
   </animation>
  </tile>
  <tile id="24">
   <animation>
    <frame tileid="24" duration="150"/>
    <frame tileid="26" duration="150"/>
    <frame tileid="28" duration="150"/>
    <frame tileid="30" duration="150"/>
    <frame tileid="32" duration="150"/>
    <frame tileid="34" duration="150"/>
    <frame tileid="36" duration="150"/>
    <frame tileid="38" duration="150"/>
   </animation>
  </tile>
  <tile id="25">
   <animation>
    <frame tileid="25" duration="150"/>
    <frame tileid="27" duration="150"/>
    <frame tileid="29" duration="150"/>
    <frame tileid="31" duration="150"/>
    <frame tileid="33" duration="150"/>
    <frame tileid="35" duration="150"/>
    <frame tileid="37" duration="150"/>
    <frame tileid="39" duration="150"/>
   </animation>
  </tile>
  <tile id="48">
   <animation>
    <frame tileid="48" duration="150"/>
    <frame tileid="51" duration="150"/>
    <frame tileid="54" duration="150"/>
    <frame tileid="57" duration="150"/>
    <frame tileid="60" duration="150"/>
    <frame tileid="63" duration="150"/>
    <frame tileid="66" duration="150"/>
    <frame tileid="69" duration="150"/>
   </animation>
  </tile>
  <tile id="49">
   <animation>
    <frame tileid="49" duration="150"/>
    <frame tileid="52" duration="150"/>
    <frame tileid="55" duration="150"/>
    <frame tileid="58" duration="150"/>
    <frame tileid="61" duration="150"/>
    <frame tileid="64" duration="150"/>
    <frame tileid="67" duration="150"/>
    <frame tileid="70" duration="150"/>
   </animation>
  </tile>
  <tile id="50">
   <animation>
    <frame tileid="50" duration="150"/>
    <frame tileid="53" duration="150"/>
    <frame tileid="56" duration="150"/>
    <frame tileid="59" duration="150"/>
    <frame tileid="62" duration="150"/>
    <frame tileid="65" duration="150"/>
    <frame tileid="68" duration="150"/>
    <frame tileid="71" duration="150"/>
   </animation>
  </tile>
  <tile id="72">
   <animation>
    <frame tileid="72" duration="150"/>
    <frame tileid="75" duration="150"/>
    <frame tileid="78" duration="150"/>
    <frame tileid="81" duration="150"/>
    <frame tileid="84" duration="150"/>
    <frame tileid="87" duration="150"/>
    <frame tileid="90" duration="150"/>
    <frame tileid="93" duration="150"/>
   </animation>
  </tile>
  <tile id="73">
   <animation>
    <frame tileid="73" duration="150"/>
    <frame tileid="76" duration="150"/>
    <frame tileid="79" duration="150"/>
    <frame tileid="82" duration="150"/>
    <frame tileid="85" duration="150"/>
    <frame tileid="88" duration="150"/>
    <frame tileid="91" duration="150"/>
    <frame tileid="94" duration="150"/>
   </animation>
  </tile>
  <tile id="74">
   <animation>
    <frame tileid="74" duration="150"/>
    <frame tileid="77" duration="150"/>
    <frame tileid="80" duration="150"/>
    <frame tileid="83" duration="150"/>
    <frame tileid="86" duration="150"/>
    <frame tileid="89" duration="150"/>
    <frame tileid="92" duration="150"/>
    <frame tileid="95" duration="150"/>
   </animation>
  </tile>
 </tileset>
 <tileset firstgid="6113" name="Shadow_run" tilewidth="16" tileheight="16" tilecount="64" columns="16">
  <image source="Shadow_run.png" width="256" height="64"/>
  <tile id="0">
   <animation>
    <frame tileid="0" duration="150"/>
    <frame tileid="2" duration="150"/>
    <frame tileid="4" duration="150"/>
    <frame tileid="6" duration="150"/>
    <frame tileid="8" duration="150"/>
    <frame tileid="10" duration="150"/>
    <frame tileid="12" duration="150"/>
    <frame tileid="14" duration="150"/>
   </animation>
  </tile>
  <tile id="1">
   <animation>
    <frame tileid="1" duration="150"/>
    <frame tileid="3" duration="150"/>
    <frame tileid="5" duration="150"/>
    <frame tileid="7" duration="150"/>
    <frame tileid="9" duration="150"/>
    <frame tileid="11" duration="150"/>
    <frame tileid="13" duration="150"/>
    <frame tileid="15" duration="150"/>
   </animation>
  </tile>
  <tile id="16">
   <animation>
    <frame tileid="16" duration="150"/>
    <frame tileid="18" duration="150"/>
    <frame tileid="20" duration="150"/>
    <frame tileid="22" duration="150"/>
    <frame tileid="24" duration="150"/>
    <frame tileid="26" duration="150"/>
    <frame tileid="28" duration="150"/>
    <frame tileid="30" duration="150"/>
   </animation>
  </tile>
  <tile id="17">
   <animation>
    <frame tileid="17" duration="150"/>
    <frame tileid="19" duration="150"/>
    <frame tileid="21" duration="150"/>
    <frame tileid="23" duration="150"/>
    <frame tileid="25" duration="150"/>
    <frame tileid="27" duration="150"/>
    <frame tileid="29" duration="150"/>
    <frame tileid="31" duration="150"/>
   </animation>
  </tile>
  <tile id="32">
   <animation>
    <frame tileid="32" duration="150"/>
    <frame tileid="34" duration="150"/>
    <frame tileid="36" duration="150"/>
    <frame tileid="38" duration="150"/>
    <frame tileid="40" duration="150"/>
    <frame tileid="42" duration="150"/>
    <frame tileid="44" duration="150"/>
    <frame tileid="46" duration="150"/>
   </animation>
  </tile>
  <tile id="33">
   <animation>
    <frame tileid="33" duration="150"/>
    <frame tileid="35" duration="150"/>
    <frame tileid="37" duration="150"/>
    <frame tileid="39" duration="150"/>
    <frame tileid="41" duration="150"/>
    <frame tileid="43" duration="150"/>
    <frame tileid="45" duration="150"/>
    <frame tileid="47" duration="150"/>
   </animation>
  </tile>
  <tile id="48">
   <animation>
    <frame tileid="48" duration="150"/>
    <frame tileid="50" duration="150"/>
    <frame tileid="52" duration="150"/>
    <frame tileid="54" duration="150"/>
    <frame tileid="56" duration="150"/>
    <frame tileid="58" duration="150"/>
    <frame tileid="60" duration="150"/>
    <frame tileid="62" duration="150"/>
   </animation>
  </tile>
  <tile id="49">
   <animation>
    <frame tileid="49" duration="150"/>
    <frame tileid="51" duration="150"/>
    <frame tileid="53" duration="150"/>
    <frame tileid="55" duration="150"/>
    <frame tileid="57" duration="150"/>
    <frame tileid="59" duration="150"/>
    <frame tileid="61" duration="150"/>
    <frame tileid="63" duration="150"/>
   </animation>
  </tile>
 </tileset>
 <tileset firstgid="6177" name="Shadow" tilewidth="16" tileheight="16" tilecount="2" columns="2">
  <image source="Shadow.png" width="32" height="16"/>
 </tileset>
 <tileset firstgid="6179" name="Shadow_death" tilewidth="16" tileheight="16" tilecount="160" columns="40">
  <image source="Shadow_death.png" width="640" height="64"/>
  <tile id="0">
   <animation>
    <frame tileid="0" duration="150"/>
    <frame tileid="4" duration="150"/>
    <frame tileid="8" duration="150"/>
    <frame tileid="12" duration="150"/>
    <frame tileid="16" duration="150"/>
    <frame tileid="20" duration="150"/>
    <frame tileid="24" duration="150"/>
    <frame tileid="28" duration="150"/>
    <frame tileid="32" duration="150"/>
    <frame tileid="36" duration="150"/>
   </animation>
  </tile>
  <tile id="1">
   <animation>
    <frame tileid="1" duration="150"/>
    <frame tileid="5" duration="150"/>
    <frame tileid="9" duration="150"/>
    <frame tileid="13" duration="150"/>
    <frame tileid="17" duration="150"/>
    <frame tileid="21" duration="150"/>
    <frame tileid="25" duration="150"/>
    <frame tileid="29" duration="150"/>
    <frame tileid="33" duration="150"/>
    <frame tileid="37" duration="150"/>
   </animation>
  </tile>
  <tile id="2">
   <animation>
    <frame tileid="2" duration="150"/>
    <frame tileid="6" duration="150"/>
    <frame tileid="10" duration="150"/>
    <frame tileid="14" duration="150"/>
    <frame tileid="18" duration="150"/>
    <frame tileid="22" duration="150"/>
    <frame tileid="26" duration="150"/>
    <frame tileid="30" duration="150"/>
    <frame tileid="34" duration="150"/>
    <frame tileid="38" duration="150"/>
   </animation>
  </tile>
  <tile id="3">
   <animation>
    <frame tileid="3" duration="150"/>
    <frame tileid="7" duration="150"/>
    <frame tileid="11" duration="150"/>
    <frame tileid="15" duration="150"/>
    <frame tileid="19" duration="150"/>
    <frame tileid="23" duration="150"/>
    <frame tileid="27" duration="150"/>
    <frame tileid="31" duration="150"/>
    <frame tileid="35" duration="150"/>
    <frame tileid="39" duration="150"/>
   </animation>
  </tile>
  <tile id="40">
   <animation>
    <frame tileid="40" duration="150"/>
    <frame tileid="44" duration="150"/>
    <frame tileid="48" duration="150"/>
    <frame tileid="52" duration="150"/>
    <frame tileid="56" duration="150"/>
    <frame tileid="60" duration="150"/>
    <frame tileid="64" duration="150"/>
    <frame tileid="68" duration="150"/>
    <frame tileid="72" duration="150"/>
    <frame tileid="76" duration="150"/>
   </animation>
  </tile>
  <tile id="41">
   <animation>
    <frame tileid="41" duration="150"/>
    <frame tileid="45" duration="150"/>
    <frame tileid="49" duration="150"/>
    <frame tileid="53" duration="150"/>
    <frame tileid="57" duration="150"/>
    <frame tileid="61" duration="150"/>
    <frame tileid="65" duration="150"/>
    <frame tileid="69" duration="150"/>
    <frame tileid="73" duration="150"/>
    <frame tileid="77" duration="150"/>
   </animation>
  </tile>
  <tile id="42">
   <animation>
    <frame tileid="42" duration="150"/>
    <frame tileid="46" duration="150"/>
    <frame tileid="50" duration="150"/>
    <frame tileid="54" duration="150"/>
    <frame tileid="58" duration="150"/>
    <frame tileid="62" duration="150"/>
    <frame tileid="66" duration="150"/>
    <frame tileid="70" duration="150"/>
    <frame tileid="74" duration="150"/>
    <frame tileid="78" duration="150"/>
   </animation>
  </tile>
  <tile id="43">
   <animation>
    <frame tileid="43" duration="150"/>
    <frame tileid="47" duration="150"/>
    <frame tileid="51" duration="150"/>
    <frame tileid="55" duration="150"/>
    <frame tileid="59" duration="150"/>
    <frame tileid="63" duration="150"/>
    <frame tileid="67" duration="150"/>
    <frame tileid="71" duration="150"/>
    <frame tileid="75" duration="150"/>
    <frame tileid="79" duration="150"/>
   </animation>
  </tile>
  <tile id="80">
   <animation>
    <frame tileid="80" duration="150"/>
    <frame tileid="84" duration="150"/>
    <frame tileid="88" duration="150"/>
    <frame tileid="92" duration="150"/>
    <frame tileid="96" duration="150"/>
    <frame tileid="100" duration="150"/>
    <frame tileid="104" duration="150"/>
    <frame tileid="108" duration="150"/>
    <frame tileid="112" duration="150"/>
    <frame tileid="116" duration="150"/>
   </animation>
  </tile>
  <tile id="81">
   <animation>
    <frame tileid="81" duration="150"/>
    <frame tileid="85" duration="150"/>
    <frame tileid="89" duration="150"/>
    <frame tileid="93" duration="150"/>
    <frame tileid="97" duration="150"/>
    <frame tileid="101" duration="150"/>
    <frame tileid="105" duration="150"/>
    <frame tileid="109" duration="150"/>
    <frame tileid="113" duration="150"/>
    <frame tileid="117" duration="150"/>
   </animation>
  </tile>
  <tile id="82">
   <animation>
    <frame tileid="82" duration="150"/>
    <frame tileid="86" duration="150"/>
    <frame tileid="90" duration="150"/>
    <frame tileid="94" duration="150"/>
    <frame tileid="98" duration="150"/>
    <frame tileid="102" duration="150"/>
    <frame tileid="106" duration="150"/>
    <frame tileid="110" duration="150"/>
    <frame tileid="114" duration="150"/>
    <frame tileid="118" duration="150"/>
   </animation>
  </tile>
  <tile id="83">
   <animation>
    <frame tileid="83" duration="150"/>
    <frame tileid="87" duration="150"/>
    <frame tileid="91" duration="150"/>
    <frame tileid="95" duration="150"/>
    <frame tileid="99" duration="150"/>
    <frame tileid="103" duration="150"/>
    <frame tileid="107" duration="150"/>
    <frame tileid="111" duration="150"/>
    <frame tileid="115" duration="150"/>
    <frame tileid="119" duration="150"/>
   </animation>
  </tile>
  <tile id="120">
   <animation>
    <frame tileid="120" duration="150"/>
    <frame tileid="124" duration="150"/>
    <frame tileid="128" duration="150"/>
    <frame tileid="132" duration="150"/>
    <frame tileid="136" duration="150"/>
    <frame tileid="140" duration="150"/>
    <frame tileid="144" duration="150"/>
    <frame tileid="148" duration="150"/>
    <frame tileid="152" duration="150"/>
    <frame tileid="156" duration="150"/>
   </animation>
  </tile>
  <tile id="121">
   <animation>
    <frame tileid="121" duration="150"/>
    <frame tileid="125" duration="150"/>
    <frame tileid="129" duration="150"/>
    <frame tileid="133" duration="150"/>
    <frame tileid="137" duration="150"/>
    <frame tileid="141" duration="150"/>
    <frame tileid="145" duration="150"/>
    <frame tileid="149" duration="150"/>
    <frame tileid="153" duration="150"/>
    <frame tileid="157" duration="150"/>
   </animation>
  </tile>
  <tile id="122">
   <animation>
    <frame tileid="122" duration="150"/>
    <frame tileid="126" duration="150"/>
    <frame tileid="130" duration="150"/>
    <frame tileid="134" duration="150"/>
    <frame tileid="138" duration="150"/>
    <frame tileid="142" duration="150"/>
    <frame tileid="146" duration="150"/>
    <frame tileid="150" duration="150"/>
    <frame tileid="154" duration="150"/>
    <frame tileid="158" duration="150"/>
   </animation>
  </tile>
  <tile id="123">
   <animation>
    <frame tileid="123" duration="150"/>
    <frame tileid="127" duration="150"/>
    <frame tileid="131" duration="150"/>
    <frame tileid="135" duration="150"/>
    <frame tileid="139" duration="150"/>
    <frame tileid="143" duration="150"/>
    <frame tileid="147" duration="150"/>
    <frame tileid="151" duration="150"/>
    <frame tileid="155" duration="150"/>
    <frame tileid="159" duration="150"/>
   </animation>
  </tile>
 </tileset>
 <tileset firstgid="6339" name="Shadow_attack_Slime1" tilewidth="16" tileheight="16" tilecount="100" columns="20">
  <image source="Shadow_attack_Slime1.png" width="320" height="80"/>
  <tile id="0">
   <animation>
    <frame tileid="0" duration="150"/>
    <frame tileid="2" duration="150"/>
    <frame tileid="4" duration="150"/>
    <frame tileid="6" duration="150"/>
    <frame tileid="8" duration="150"/>
    <frame tileid="10" duration="150"/>
    <frame tileid="12" duration="150"/>
    <frame tileid="14" duration="150"/>
    <frame tileid="16" duration="150"/>
    <frame tileid="18" duration="150"/>
   </animation>
  </tile>
  <tile id="1">
   <animation>
    <frame tileid="1" duration="150"/>
    <frame tileid="3" duration="150"/>
    <frame tileid="5" duration="150"/>
    <frame tileid="7" duration="150"/>
    <frame tileid="9" duration="150"/>
    <frame tileid="11" duration="150"/>
    <frame tileid="13" duration="150"/>
    <frame tileid="15" duration="150"/>
    <frame tileid="17" duration="150"/>
    <frame tileid="19" duration="150"/>
   </animation>
  </tile>
  <tile id="20">
   <animation>
    <frame tileid="20" duration="150"/>
    <frame tileid="22" duration="150"/>
    <frame tileid="24" duration="150"/>
    <frame tileid="26" duration="150"/>
    <frame tileid="28" duration="150"/>
    <frame tileid="30" duration="150"/>
    <frame tileid="32" duration="150"/>
    <frame tileid="34" duration="150"/>
    <frame tileid="36" duration="150"/>
    <frame tileid="38" duration="150"/>
   </animation>
  </tile>
  <tile id="21">
   <animation>
    <frame tileid="21" duration="150"/>
    <frame tileid="23" duration="150"/>
    <frame tileid="25" duration="150"/>
    <frame tileid="27" duration="150"/>
    <frame tileid="29" duration="150"/>
    <frame tileid="31" duration="150"/>
    <frame tileid="33" duration="150"/>
    <frame tileid="35" duration="150"/>
    <frame tileid="37" duration="150"/>
    <frame tileid="39" duration="150"/>
   </animation>
  </tile>
  <tile id="40">
   <animation>
    <frame tileid="40" duration="150"/>
    <frame tileid="42" duration="150"/>
    <frame tileid="44" duration="150"/>
    <frame tileid="46" duration="150"/>
    <frame tileid="48" duration="150"/>
    <frame tileid="50" duration="150"/>
    <frame tileid="52" duration="150"/>
    <frame tileid="54" duration="150"/>
    <frame tileid="56" duration="150"/>
    <frame tileid="58" duration="150"/>
   </animation>
  </tile>
  <tile id="41">
   <animation>
    <frame tileid="41" duration="150"/>
    <frame tileid="43" duration="150"/>
    <frame tileid="45" duration="150"/>
    <frame tileid="47" duration="150"/>
    <frame tileid="49" duration="150"/>
    <frame tileid="51" duration="150"/>
    <frame tileid="53" duration="150"/>
    <frame tileid="55" duration="150"/>
    <frame tileid="57" duration="150"/>
    <frame tileid="59" duration="150"/>
   </animation>
  </tile>
  <tile id="60">
   <animation>
    <frame tileid="60" duration="150"/>
    <frame tileid="62" duration="150"/>
    <frame tileid="64" duration="150"/>
    <frame tileid="66" duration="150"/>
    <frame tileid="68" duration="150"/>
    <frame tileid="70" duration="150"/>
    <frame tileid="72" duration="150"/>
    <frame tileid="74" duration="150"/>
    <frame tileid="76" duration="150"/>
    <frame tileid="78" duration="150"/>
   </animation>
  </tile>
  <tile id="61">
   <animation>
    <frame tileid="61" duration="150"/>
    <frame tileid="63" duration="150"/>
    <frame tileid="65" duration="150"/>
    <frame tileid="67" duration="150"/>
    <frame tileid="69" duration="150"/>
    <frame tileid="71" duration="150"/>
    <frame tileid="73" duration="150"/>
    <frame tileid="75" duration="150"/>
    <frame tileid="77" duration="150"/>
    <frame tileid="79" duration="150"/>
   </animation>
  </tile>
  <tile id="80">
   <animation>
    <frame tileid="80" duration="150"/>
    <frame tileid="82" duration="150"/>
    <frame tileid="84" duration="150"/>
    <frame tileid="86" duration="150"/>
    <frame tileid="88" duration="150"/>
    <frame tileid="90" duration="150"/>
    <frame tileid="92" duration="150"/>
    <frame tileid="94" duration="150"/>
    <frame tileid="96" duration="150"/>
    <frame tileid="98" duration="150"/>
   </animation>
  </tile>
  <tile id="81">
   <animation>
    <frame tileid="81" duration="150"/>
    <frame tileid="83" duration="150"/>
    <frame tileid="85" duration="150"/>
    <frame tileid="87" duration="150"/>
    <frame tileid="89" duration="150"/>
    <frame tileid="91" duration="150"/>
    <frame tileid="93" duration="150"/>
    <frame tileid="95" duration="150"/>
    <frame tileid="97" duration="150"/>
    <frame tileid="99" duration="150"/>
   </animation>
  </tile>
 </tileset>
 <tileset firstgid="6439" name="Slime1_Walk_full" tilewidth="16" tileheight="16" tilecount="512" columns="32">
  <image source="Slime1_Walk_without_shadow.png" width="512" height="256"/>
  <tile id="0">
   <animation>
    <frame tileid="0" duration="150"/>
    <frame tileid="4" duration="150"/>
    <frame tileid="8" duration="150"/>
    <frame tileid="12" duration="150"/>
    <frame tileid="16" duration="150"/>
    <frame tileid="20" duration="150"/>
    <frame tileid="24" duration="150"/>
    <frame tileid="28" duration="150"/>
   </animation>
  </tile>
  <tile id="1">
   <animation>
    <frame tileid="1" duration="150"/>
    <frame tileid="5" duration="150"/>
    <frame tileid="9" duration="150"/>
    <frame tileid="13" duration="150"/>
    <frame tileid="17" duration="150"/>
    <frame tileid="21" duration="150"/>
    <frame tileid="25" duration="150"/>
    <frame tileid="29" duration="150"/>
   </animation>
  </tile>
  <tile id="2">
   <animation>
    <frame tileid="2" duration="150"/>
    <frame tileid="6" duration="150"/>
    <frame tileid="10" duration="150"/>
    <frame tileid="14" duration="150"/>
    <frame tileid="18" duration="150"/>
    <frame tileid="22" duration="150"/>
    <frame tileid="26" duration="150"/>
    <frame tileid="30" duration="150"/>
   </animation>
  </tile>
  <tile id="3">
   <animation>
    <frame tileid="3" duration="150"/>
    <frame tileid="7" duration="150"/>
    <frame tileid="11" duration="150"/>
    <frame tileid="15" duration="150"/>
    <frame tileid="19" duration="150"/>
    <frame tileid="23" duration="150"/>
    <frame tileid="27" duration="150"/>
    <frame tileid="31" duration="150"/>
   </animation>
  </tile>
  <tile id="32">
   <animation>
    <frame tileid="32" duration="150"/>
    <frame tileid="36" duration="150"/>
    <frame tileid="40" duration="150"/>
    <frame tileid="44" duration="150"/>
    <frame tileid="48" duration="150"/>
    <frame tileid="52" duration="150"/>
    <frame tileid="56" duration="150"/>
    <frame tileid="60" duration="150"/>
   </animation>
  </tile>
  <tile id="33">
   <animation>
    <frame tileid="33" duration="150"/>
    <frame tileid="37" duration="150"/>
    <frame tileid="41" duration="150"/>
    <frame tileid="45" duration="150"/>
    <frame tileid="49" duration="150"/>
    <frame tileid="53" duration="150"/>
    <frame tileid="57" duration="150"/>
    <frame tileid="61" duration="150"/>
   </animation>
  </tile>
  <tile id="34">
   <animation>
    <frame tileid="34" duration="150"/>
    <frame tileid="38" duration="150"/>
    <frame tileid="42" duration="150"/>
    <frame tileid="46" duration="150"/>
    <frame tileid="50" duration="150"/>
    <frame tileid="54" duration="150"/>
    <frame tileid="58" duration="150"/>
    <frame tileid="62" duration="150"/>
   </animation>
  </tile>
  <tile id="35">
   <animation>
    <frame tileid="35" duration="150"/>
    <frame tileid="39" duration="150"/>
    <frame tileid="43" duration="150"/>
    <frame tileid="47" duration="150"/>
    <frame tileid="51" duration="150"/>
    <frame tileid="55" duration="150"/>
    <frame tileid="59" duration="150"/>
    <frame tileid="63" duration="150"/>
   </animation>
  </tile>
  <tile id="64">
   <animation>
    <frame tileid="64" duration="150"/>
    <frame tileid="68" duration="150"/>
    <frame tileid="72" duration="150"/>
    <frame tileid="76" duration="150"/>
    <frame tileid="80" duration="150"/>
    <frame tileid="84" duration="150"/>
    <frame tileid="88" duration="150"/>
    <frame tileid="92" duration="150"/>
   </animation>
  </tile>
  <tile id="65">
   <animation>
    <frame tileid="65" duration="150"/>
    <frame tileid="69" duration="150"/>
    <frame tileid="73" duration="150"/>
    <frame tileid="77" duration="150"/>
    <frame tileid="81" duration="150"/>
    <frame tileid="85" duration="150"/>
    <frame tileid="89" duration="150"/>
    <frame tileid="93" duration="150"/>
   </animation>
  </tile>
  <tile id="66">
   <animation>
    <frame tileid="66" duration="150"/>
    <frame tileid="70" duration="150"/>
    <frame tileid="74" duration="150"/>
    <frame tileid="78" duration="150"/>
    <frame tileid="82" duration="150"/>
    <frame tileid="86" duration="150"/>
    <frame tileid="90" duration="150"/>
    <frame tileid="94" duration="150"/>
   </animation>
  </tile>
  <tile id="67">
   <animation>
    <frame tileid="67" duration="150"/>
    <frame tileid="71" duration="150"/>
    <frame tileid="75" duration="150"/>
    <frame tileid="79" duration="150"/>
    <frame tileid="83" duration="150"/>
    <frame tileid="87" duration="150"/>
    <frame tileid="91" duration="150"/>
    <frame tileid="95" duration="150"/>
   </animation>
  </tile>
  <tile id="96">
   <animation>
    <frame tileid="96" duration="150"/>
    <frame tileid="100" duration="150"/>
    <frame tileid="104" duration="150"/>
    <frame tileid="108" duration="150"/>
    <frame tileid="112" duration="150"/>
    <frame tileid="116" duration="150"/>
    <frame tileid="120" duration="150"/>
    <frame tileid="124" duration="150"/>
   </animation>
  </tile>
  <tile id="97">
   <animation>
    <frame tileid="97" duration="150"/>
    <frame tileid="101" duration="150"/>
    <frame tileid="105" duration="150"/>
    <frame tileid="109" duration="150"/>
    <frame tileid="113" duration="150"/>
    <frame tileid="117" duration="150"/>
    <frame tileid="121" duration="150"/>
    <frame tileid="125" duration="150"/>
   </animation>
  </tile>
  <tile id="98">
   <animation>
    <frame tileid="98" duration="150"/>
    <frame tileid="102" duration="150"/>
    <frame tileid="106" duration="150"/>
    <frame tileid="110" duration="150"/>
    <frame tileid="114" duration="150"/>
    <frame tileid="118" duration="150"/>
    <frame tileid="122" duration="150"/>
    <frame tileid="126" duration="150"/>
   </animation>
  </tile>
  <tile id="99">
   <animation>
    <frame tileid="99" duration="150"/>
    <frame tileid="103" duration="150"/>
    <frame tileid="107" duration="150"/>
    <frame tileid="111" duration="150"/>
    <frame tileid="115" duration="150"/>
    <frame tileid="119" duration="150"/>
    <frame tileid="123" duration="150"/>
    <frame tileid="127" duration="150"/>
   </animation>
  </tile>
  <tile id="128">
   <animation>
    <frame tileid="128" duration="150"/>
    <frame tileid="132" duration="150"/>
    <frame tileid="136" duration="150"/>
    <frame tileid="140" duration="150"/>
    <frame tileid="144" duration="150"/>
    <frame tileid="148" duration="150"/>
    <frame tileid="152" duration="150"/>
    <frame tileid="156" duration="150"/>
   </animation>
  </tile>
  <tile id="129">
   <animation>
    <frame tileid="129" duration="150"/>
    <frame tileid="133" duration="150"/>
    <frame tileid="137" duration="150"/>
    <frame tileid="141" duration="150"/>
    <frame tileid="145" duration="150"/>
    <frame tileid="149" duration="150"/>
    <frame tileid="153" duration="150"/>
    <frame tileid="157" duration="150"/>
   </animation>
  </tile>
  <tile id="130">
   <animation>
    <frame tileid="130" duration="150"/>
    <frame tileid="134" duration="150"/>
    <frame tileid="138" duration="150"/>
    <frame tileid="142" duration="150"/>
    <frame tileid="146" duration="150"/>
    <frame tileid="150" duration="150"/>
    <frame tileid="154" duration="150"/>
    <frame tileid="158" duration="150"/>
   </animation>
  </tile>
  <tile id="131">
   <animation>
    <frame tileid="131" duration="150"/>
    <frame tileid="135" duration="150"/>
    <frame tileid="139" duration="150"/>
    <frame tileid="143" duration="150"/>
    <frame tileid="147" duration="150"/>
    <frame tileid="151" duration="150"/>
    <frame tileid="155" duration="150"/>
    <frame tileid="159" duration="150"/>
   </animation>
  </tile>
  <tile id="160">
   <animation>
    <frame tileid="160" duration="150"/>
    <frame tileid="164" duration="150"/>
    <frame tileid="168" duration="150"/>
    <frame tileid="172" duration="150"/>
    <frame tileid="176" duration="150"/>
    <frame tileid="180" duration="150"/>
    <frame tileid="184" duration="150"/>
    <frame tileid="188" duration="150"/>
   </animation>
  </tile>
  <tile id="161">
   <animation>
    <frame tileid="161" duration="150"/>
    <frame tileid="165" duration="150"/>
    <frame tileid="169" duration="150"/>
    <frame tileid="173" duration="150"/>
    <frame tileid="177" duration="150"/>
    <frame tileid="181" duration="150"/>
    <frame tileid="185" duration="150"/>
    <frame tileid="189" duration="150"/>
   </animation>
  </tile>
  <tile id="162">
   <animation>
    <frame tileid="162" duration="150"/>
    <frame tileid="166" duration="150"/>
    <frame tileid="170" duration="150"/>
    <frame tileid="174" duration="150"/>
    <frame tileid="178" duration="150"/>
    <frame tileid="182" duration="150"/>
    <frame tileid="186" duration="150"/>
    <frame tileid="190" duration="150"/>
   </animation>
  </tile>
  <tile id="163">
   <animation>
    <frame tileid="163" duration="150"/>
    <frame tileid="167" duration="150"/>
    <frame tileid="171" duration="150"/>
    <frame tileid="175" duration="150"/>
    <frame tileid="179" duration="150"/>
    <frame tileid="183" duration="150"/>
    <frame tileid="187" duration="150"/>
    <frame tileid="191" duration="150"/>
   </animation>
  </tile>
  <tile id="192">
   <animation>
    <frame tileid="192" duration="150"/>
    <frame tileid="196" duration="150"/>
    <frame tileid="200" duration="150"/>
    <frame tileid="204" duration="150"/>
    <frame tileid="208" duration="150"/>
    <frame tileid="212" duration="150"/>
    <frame tileid="216" duration="150"/>
    <frame tileid="220" duration="150"/>
   </animation>
  </tile>
  <tile id="193">
   <animation>
    <frame tileid="193" duration="150"/>
    <frame tileid="197" duration="150"/>
    <frame tileid="201" duration="150"/>
    <frame tileid="205" duration="150"/>
    <frame tileid="209" duration="150"/>
    <frame tileid="213" duration="150"/>
    <frame tileid="217" duration="150"/>
    <frame tileid="221" duration="150"/>
   </animation>
  </tile>
  <tile id="194">
   <animation>
    <frame tileid="194" duration="150"/>
    <frame tileid="198" duration="150"/>
    <frame tileid="202" duration="150"/>
    <frame tileid="206" duration="150"/>
    <frame tileid="210" duration="150"/>
    <frame tileid="214" duration="150"/>
    <frame tileid="218" duration="150"/>
    <frame tileid="222" duration="150"/>
   </animation>
  </tile>
  <tile id="195">
   <animation>
    <frame tileid="195" duration="150"/>
    <frame tileid="199" duration="150"/>
    <frame tileid="203" duration="150"/>
    <frame tileid="207" duration="150"/>
    <frame tileid="211" duration="150"/>
    <frame tileid="215" duration="150"/>
    <frame tileid="219" duration="150"/>
    <frame tileid="223" duration="150"/>
   </animation>
  </tile>
  <tile id="224">
   <animation>
    <frame tileid="224" duration="150"/>
    <frame tileid="228" duration="150"/>
    <frame tileid="232" duration="150"/>
    <frame tileid="236" duration="150"/>
    <frame tileid="240" duration="150"/>
    <frame tileid="244" duration="150"/>
    <frame tileid="248" duration="150"/>
    <frame tileid="252" duration="150"/>
   </animation>
  </tile>
  <tile id="225">
   <animation>
    <frame tileid="225" duration="150"/>
    <frame tileid="229" duration="150"/>
    <frame tileid="233" duration="150"/>
    <frame tileid="237" duration="150"/>
    <frame tileid="241" duration="150"/>
    <frame tileid="245" duration="150"/>
    <frame tileid="249" duration="150"/>
    <frame tileid="253" duration="150"/>
   </animation>
  </tile>
  <tile id="226">
   <animation>
    <frame tileid="226" duration="150"/>
    <frame tileid="230" duration="150"/>
    <frame tileid="234" duration="150"/>
    <frame tileid="238" duration="150"/>
    <frame tileid="242" duration="150"/>
    <frame tileid="246" duration="150"/>
    <frame tileid="250" duration="150"/>
    <frame tileid="254" duration="150"/>
   </animation>
  </tile>
  <tile id="227">
   <animation>
    <frame tileid="227" duration="150"/>
    <frame tileid="231" duration="150"/>
    <frame tileid="235" duration="150"/>
    <frame tileid="239" duration="150"/>
    <frame tileid="243" duration="150"/>
    <frame tileid="247" duration="150"/>
    <frame tileid="251" duration="150"/>
    <frame tileid="255" duration="150"/>
   </animation>
  </tile>
  <tile id="256">
   <animation>
    <frame tileid="256" duration="150"/>
    <frame tileid="260" duration="150"/>
    <frame tileid="264" duration="150"/>
    <frame tileid="268" duration="150"/>
    <frame tileid="272" duration="150"/>
    <frame tileid="276" duration="150"/>
    <frame tileid="280" duration="150"/>
    <frame tileid="284" duration="150"/>
   </animation>
  </tile>
  <tile id="257">
   <animation>
    <frame tileid="257" duration="150"/>
    <frame tileid="261" duration="150"/>
    <frame tileid="265" duration="150"/>
    <frame tileid="269" duration="150"/>
    <frame tileid="273" duration="150"/>
    <frame tileid="277" duration="150"/>
    <frame tileid="281" duration="150"/>
    <frame tileid="285" duration="150"/>
   </animation>
  </tile>
  <tile id="258">
   <animation>
    <frame tileid="258" duration="150"/>
    <frame tileid="262" duration="150"/>
    <frame tileid="266" duration="150"/>
    <frame tileid="270" duration="150"/>
    <frame tileid="274" duration="150"/>
    <frame tileid="278" duration="150"/>
    <frame tileid="282" duration="150"/>
    <frame tileid="286" duration="150"/>
   </animation>
  </tile>
  <tile id="259">
   <animation>
    <frame tileid="259" duration="150"/>
    <frame tileid="263" duration="150"/>
    <frame tileid="267" duration="150"/>
    <frame tileid="271" duration="150"/>
    <frame tileid="275" duration="150"/>
    <frame tileid="279" duration="150"/>
    <frame tileid="283" duration="150"/>
    <frame tileid="287" duration="150"/>
   </animation>
  </tile>
  <tile id="288">
   <animation>
    <frame tileid="288" duration="150"/>
    <frame tileid="292" duration="150"/>
    <frame tileid="296" duration="150"/>
    <frame tileid="300" duration="150"/>
    <frame tileid="304" duration="150"/>
    <frame tileid="308" duration="150"/>
    <frame tileid="312" duration="150"/>
    <frame tileid="316" duration="150"/>
   </animation>
  </tile>
  <tile id="289">
   <animation>
    <frame tileid="289" duration="150"/>
    <frame tileid="293" duration="150"/>
    <frame tileid="297" duration="150"/>
    <frame tileid="301" duration="150"/>
    <frame tileid="305" duration="150"/>
    <frame tileid="309" duration="150"/>
    <frame tileid="313" duration="150"/>
    <frame tileid="317" duration="150"/>
   </animation>
  </tile>
  <tile id="290">
   <animation>
    <frame tileid="290" duration="150"/>
    <frame tileid="294" duration="150"/>
    <frame tileid="298" duration="150"/>
    <frame tileid="302" duration="150"/>
    <frame tileid="306" duration="150"/>
    <frame tileid="310" duration="150"/>
    <frame tileid="314" duration="150"/>
    <frame tileid="318" duration="150"/>
   </animation>
  </tile>
  <tile id="291">
   <animation>
    <frame tileid="291" duration="150"/>
    <frame tileid="295" duration="150"/>
    <frame tileid="299" duration="150"/>
    <frame tileid="303" duration="150"/>
    <frame tileid="307" duration="150"/>
    <frame tileid="311" duration="150"/>
    <frame tileid="315" duration="150"/>
    <frame tileid="319" duration="150"/>
   </animation>
  </tile>
  <tile id="320">
   <animation>
    <frame tileid="320" duration="150"/>
    <frame tileid="324" duration="150"/>
    <frame tileid="328" duration="150"/>
    <frame tileid="332" duration="150"/>
    <frame tileid="336" duration="150"/>
    <frame tileid="340" duration="150"/>
    <frame tileid="344" duration="150"/>
    <frame tileid="348" duration="150"/>
   </animation>
  </tile>
  <tile id="321">
   <animation>
    <frame tileid="321" duration="150"/>
    <frame tileid="325" duration="150"/>
    <frame tileid="329" duration="150"/>
    <frame tileid="333" duration="150"/>
    <frame tileid="337" duration="150"/>
    <frame tileid="341" duration="150"/>
    <frame tileid="345" duration="150"/>
    <frame tileid="349" duration="150"/>
   </animation>
  </tile>
  <tile id="322">
   <animation>
    <frame tileid="322" duration="150"/>
    <frame tileid="326" duration="150"/>
    <frame tileid="330" duration="150"/>
    <frame tileid="334" duration="150"/>
    <frame tileid="338" duration="150"/>
    <frame tileid="342" duration="150"/>
    <frame tileid="346" duration="150"/>
    <frame tileid="350" duration="150"/>
   </animation>
  </tile>
  <tile id="323">
   <animation>
    <frame tileid="323" duration="150"/>
    <frame tileid="327" duration="150"/>
    <frame tileid="331" duration="150"/>
    <frame tileid="335" duration="150"/>
    <frame tileid="339" duration="150"/>
    <frame tileid="343" duration="150"/>
    <frame tileid="347" duration="150"/>
    <frame tileid="351" duration="150"/>
   </animation>
  </tile>
  <tile id="352">
   <animation>
    <frame tileid="352" duration="150"/>
    <frame tileid="356" duration="150"/>
    <frame tileid="360" duration="150"/>
    <frame tileid="364" duration="150"/>
    <frame tileid="368" duration="150"/>
    <frame tileid="372" duration="150"/>
    <frame tileid="376" duration="150"/>
    <frame tileid="380" duration="150"/>
   </animation>
  </tile>
  <tile id="353">
   <animation>
    <frame tileid="353" duration="150"/>
    <frame tileid="357" duration="150"/>
    <frame tileid="361" duration="150"/>
    <frame tileid="365" duration="150"/>
    <frame tileid="369" duration="150"/>
    <frame tileid="373" duration="150"/>
    <frame tileid="377" duration="150"/>
    <frame tileid="381" duration="150"/>
   </animation>
  </tile>
  <tile id="354">
   <animation>
    <frame tileid="354" duration="150"/>
    <frame tileid="358" duration="150"/>
    <frame tileid="362" duration="150"/>
    <frame tileid="366" duration="150"/>
    <frame tileid="370" duration="150"/>
    <frame tileid="374" duration="150"/>
    <frame tileid="378" duration="150"/>
    <frame tileid="382" duration="150"/>
   </animation>
  </tile>
  <tile id="355">
   <animation>
    <frame tileid="355" duration="150"/>
    <frame tileid="359" duration="150"/>
    <frame tileid="363" duration="150"/>
    <frame tileid="367" duration="150"/>
    <frame tileid="371" duration="150"/>
    <frame tileid="375" duration="150"/>
    <frame tileid="379" duration="150"/>
    <frame tileid="383" duration="150"/>
   </animation>
  </tile>
  <tile id="384">
   <animation>
    <frame tileid="384" duration="150"/>
    <frame tileid="388" duration="150"/>
    <frame tileid="392" duration="150"/>
    <frame tileid="396" duration="150"/>
    <frame tileid="400" duration="150"/>
    <frame tileid="404" duration="150"/>
    <frame tileid="408" duration="150"/>
    <frame tileid="412" duration="150"/>
   </animation>
  </tile>
  <tile id="385">
   <animation>
    <frame tileid="385" duration="150"/>
    <frame tileid="389" duration="150"/>
    <frame tileid="393" duration="150"/>
    <frame tileid="397" duration="150"/>
    <frame tileid="401" duration="150"/>
    <frame tileid="405" duration="150"/>
    <frame tileid="409" duration="150"/>
    <frame tileid="413" duration="150"/>
   </animation>
  </tile>
  <tile id="386">
   <animation>
    <frame tileid="386" duration="150"/>
    <frame tileid="390" duration="150"/>
    <frame tileid="394" duration="150"/>
    <frame tileid="398" duration="150"/>
    <frame tileid="402" duration="150"/>
    <frame tileid="406" duration="150"/>
    <frame tileid="410" duration="150"/>
    <frame tileid="414" duration="150"/>
   </animation>
  </tile>
  <tile id="387">
   <animation>
    <frame tileid="387" duration="150"/>
    <frame tileid="391" duration="150"/>
    <frame tileid="395" duration="150"/>
    <frame tileid="399" duration="150"/>
    <frame tileid="403" duration="150"/>
    <frame tileid="407" duration="150"/>
    <frame tileid="411" duration="150"/>
    <frame tileid="415" duration="150"/>
   </animation>
  </tile>
  <tile id="416">
   <animation>
    <frame tileid="416" duration="150"/>
    <frame tileid="420" duration="150"/>
    <frame tileid="424" duration="150"/>
    <frame tileid="428" duration="150"/>
    <frame tileid="432" duration="150"/>
    <frame tileid="436" duration="150"/>
    <frame tileid="440" duration="150"/>
    <frame tileid="444" duration="150"/>
   </animation>
  </tile>
  <tile id="417">
   <animation>
    <frame tileid="417" duration="150"/>
    <frame tileid="421" duration="150"/>
    <frame tileid="425" duration="150"/>
    <frame tileid="429" duration="150"/>
    <frame tileid="433" duration="150"/>
    <frame tileid="437" duration="150"/>
    <frame tileid="441" duration="150"/>
    <frame tileid="445" duration="150"/>
   </animation>
  </tile>
  <tile id="418">
   <animation>
    <frame tileid="418" duration="150"/>
    <frame tileid="422" duration="150"/>
    <frame tileid="426" duration="150"/>
    <frame tileid="430" duration="150"/>
    <frame tileid="434" duration="150"/>
    <frame tileid="438" duration="150"/>
    <frame tileid="442" duration="150"/>
    <frame tileid="446" duration="150"/>
   </animation>
  </tile>
  <tile id="419">
   <animation>
    <frame tileid="419" duration="150"/>
    <frame tileid="423" duration="150"/>
    <frame tileid="427" duration="150"/>
    <frame tileid="431" duration="150"/>
    <frame tileid="435" duration="150"/>
    <frame tileid="439" duration="150"/>
    <frame tileid="443" duration="150"/>
    <frame tileid="447" duration="150"/>
   </animation>
  </tile>
  <tile id="448">
   <animation>
    <frame tileid="448" duration="150"/>
    <frame tileid="452" duration="150"/>
    <frame tileid="456" duration="150"/>
    <frame tileid="460" duration="150"/>
    <frame tileid="464" duration="150"/>
    <frame tileid="468" duration="150"/>
    <frame tileid="472" duration="150"/>
    <frame tileid="476" duration="150"/>
   </animation>
  </tile>
  <tile id="449">
   <animation>
    <frame tileid="449" duration="150"/>
    <frame tileid="453" duration="150"/>
    <frame tileid="457" duration="150"/>
    <frame tileid="461" duration="150"/>
    <frame tileid="465" duration="150"/>
    <frame tileid="469" duration="150"/>
    <frame tileid="473" duration="150"/>
    <frame tileid="477" duration="150"/>
   </animation>
  </tile>
  <tile id="450">
   <animation>
    <frame tileid="450" duration="150"/>
    <frame tileid="454" duration="150"/>
    <frame tileid="458" duration="150"/>
    <frame tileid="462" duration="150"/>
    <frame tileid="466" duration="150"/>
    <frame tileid="470" duration="150"/>
    <frame tileid="474" duration="150"/>
    <frame tileid="478" duration="150"/>
   </animation>
  </tile>
  <tile id="451">
   <animation>
    <frame tileid="451" duration="150"/>
    <frame tileid="455" duration="150"/>
    <frame tileid="459" duration="150"/>
    <frame tileid="463" duration="150"/>
    <frame tileid="467" duration="150"/>
    <frame tileid="471" duration="150"/>
    <frame tileid="475" duration="150"/>
    <frame tileid="479" duration="150"/>
   </animation>
  </tile>
  <tile id="480">
   <animation>
    <frame tileid="480" duration="150"/>
    <frame tileid="484" duration="150"/>
    <frame tileid="488" duration="150"/>
    <frame tileid="492" duration="150"/>
    <frame tileid="496" duration="150"/>
    <frame tileid="500" duration="150"/>
    <frame tileid="504" duration="150"/>
    <frame tileid="508" duration="150"/>
   </animation>
  </tile>
  <tile id="481">
   <animation>
    <frame tileid="481" duration="150"/>
    <frame tileid="485" duration="150"/>
    <frame tileid="489" duration="150"/>
    <frame tileid="493" duration="150"/>
    <frame tileid="497" duration="150"/>
    <frame tileid="501" duration="150"/>
    <frame tileid="505" duration="150"/>
    <frame tileid="509" duration="150"/>
   </animation>
  </tile>
  <tile id="482">
   <animation>
    <frame tileid="482" duration="150"/>
    <frame tileid="486" duration="150"/>
    <frame tileid="490" duration="150"/>
    <frame tileid="494" duration="150"/>
    <frame tileid="498" duration="150"/>
    <frame tileid="502" duration="150"/>
    <frame tileid="506" duration="150"/>
    <frame tileid="510" duration="150"/>
   </animation>
  </tile>
  <tile id="483">
   <animation>
    <frame tileid="483" duration="150"/>
    <frame tileid="487" duration="150"/>
    <frame tileid="491" duration="150"/>
    <frame tileid="495" duration="150"/>
    <frame tileid="499" duration="150"/>
    <frame tileid="503" duration="150"/>
    <frame tileid="507" duration="150"/>
    <frame tileid="511" duration="150"/>
   </animation>
  </tile>
 </tileset>
 <tileset firstgid="6951" name="Slime1_Hurt_full" tilewidth="16" tileheight="16" tilecount="320" columns="20">
  <image source="Slime1_Hurt_without_shadow.png" width="320" height="256"/>
  <tile id="0">
   <animation>
    <frame tileid="0" duration="150"/>
    <frame tileid="4" duration="150"/>
    <frame tileid="8" duration="150"/>
    <frame tileid="12" duration="150"/>
    <frame tileid="16" duration="150"/>
   </animation>
  </tile>
  <tile id="1">
   <animation>
    <frame tileid="1" duration="150"/>
    <frame tileid="5" duration="150"/>
    <frame tileid="9" duration="150"/>
    <frame tileid="13" duration="150"/>
    <frame tileid="17" duration="150"/>
   </animation>
  </tile>
  <tile id="2">
   <animation>
    <frame tileid="2" duration="150"/>
    <frame tileid="6" duration="150"/>
    <frame tileid="10" duration="150"/>
    <frame tileid="14" duration="150"/>
    <frame tileid="18" duration="150"/>
   </animation>
  </tile>
  <tile id="3">
   <animation>
    <frame tileid="3" duration="150"/>
    <frame tileid="7" duration="150"/>
    <frame tileid="11" duration="150"/>
    <frame tileid="15" duration="150"/>
    <frame tileid="19" duration="150"/>
   </animation>
  </tile>
  <tile id="20">
   <animation>
    <frame tileid="20" duration="150"/>
    <frame tileid="24" duration="150"/>
    <frame tileid="28" duration="150"/>
    <frame tileid="32" duration="150"/>
    <frame tileid="36" duration="150"/>
   </animation>
  </tile>
  <tile id="21">
   <animation>
    <frame tileid="21" duration="150"/>
    <frame tileid="25" duration="150"/>
    <frame tileid="29" duration="150"/>
    <frame tileid="33" duration="150"/>
    <frame tileid="37" duration="150"/>
   </animation>
  </tile>
  <tile id="22">
   <animation>
    <frame tileid="22" duration="150"/>
    <frame tileid="26" duration="150"/>
    <frame tileid="30" duration="150"/>
    <frame tileid="34" duration="150"/>
    <frame tileid="38" duration="150"/>
   </animation>
  </tile>
  <tile id="23">
   <animation>
    <frame tileid="23" duration="150"/>
    <frame tileid="27" duration="150"/>
    <frame tileid="31" duration="150"/>
    <frame tileid="35" duration="150"/>
    <frame tileid="39" duration="150"/>
   </animation>
  </tile>
  <tile id="40">
   <animation>
    <frame tileid="40" duration="150"/>
    <frame tileid="44" duration="150"/>
    <frame tileid="48" duration="150"/>
    <frame tileid="52" duration="150"/>
    <frame tileid="56" duration="150"/>
   </animation>
  </tile>
  <tile id="41">
   <animation>
    <frame tileid="41" duration="150"/>
    <frame tileid="45" duration="150"/>
    <frame tileid="49" duration="150"/>
    <frame tileid="53" duration="150"/>
    <frame tileid="57" duration="150"/>
   </animation>
  </tile>
  <tile id="42">
   <animation>
    <frame tileid="42" duration="150"/>
    <frame tileid="46" duration="150"/>
    <frame tileid="50" duration="150"/>
    <frame tileid="54" duration="150"/>
    <frame tileid="58" duration="150"/>
   </animation>
  </tile>
  <tile id="43">
   <animation>
    <frame tileid="43" duration="150"/>
    <frame tileid="47" duration="150"/>
    <frame tileid="51" duration="150"/>
    <frame tileid="55" duration="150"/>
    <frame tileid="59" duration="150"/>
   </animation>
  </tile>
  <tile id="60">
   <animation>
    <frame tileid="60" duration="150"/>
    <frame tileid="64" duration="150"/>
    <frame tileid="68" duration="150"/>
    <frame tileid="72" duration="150"/>
    <frame tileid="76" duration="150"/>
   </animation>
  </tile>
  <tile id="61">
   <animation>
    <frame tileid="61" duration="150"/>
    <frame tileid="65" duration="150"/>
    <frame tileid="69" duration="150"/>
    <frame tileid="73" duration="150"/>
    <frame tileid="77" duration="150"/>
   </animation>
  </tile>
  <tile id="62">
   <animation>
    <frame tileid="62" duration="150"/>
    <frame tileid="66" duration="150"/>
    <frame tileid="70" duration="150"/>
    <frame tileid="74" duration="150"/>
    <frame tileid="78" duration="150"/>
   </animation>
  </tile>
  <tile id="63">
   <animation>
    <frame tileid="63" duration="150"/>
    <frame tileid="67" duration="150"/>
    <frame tileid="71" duration="150"/>
    <frame tileid="75" duration="150"/>
    <frame tileid="79" duration="150"/>
   </animation>
  </tile>
  <tile id="80">
   <animation>
    <frame tileid="80" duration="150"/>
    <frame tileid="84" duration="150"/>
    <frame tileid="88" duration="150"/>
    <frame tileid="92" duration="150"/>
    <frame tileid="96" duration="150"/>
   </animation>
  </tile>
  <tile id="81">
   <animation>
    <frame tileid="81" duration="150"/>
    <frame tileid="85" duration="150"/>
    <frame tileid="89" duration="150"/>
    <frame tileid="93" duration="150"/>
    <frame tileid="97" duration="150"/>
   </animation>
  </tile>
  <tile id="82">
   <animation>
    <frame tileid="82" duration="150"/>
    <frame tileid="86" duration="150"/>
    <frame tileid="90" duration="150"/>
    <frame tileid="94" duration="150"/>
    <frame tileid="98" duration="150"/>
   </animation>
  </tile>
  <tile id="83">
   <animation>
    <frame tileid="83" duration="150"/>
    <frame tileid="87" duration="150"/>
    <frame tileid="91" duration="150"/>
    <frame tileid="95" duration="150"/>
    <frame tileid="99" duration="150"/>
   </animation>
  </tile>
  <tile id="100">
   <animation>
    <frame tileid="100" duration="150"/>
    <frame tileid="104" duration="150"/>
    <frame tileid="108" duration="150"/>
    <frame tileid="112" duration="150"/>
    <frame tileid="116" duration="150"/>
   </animation>
  </tile>
  <tile id="101">
   <animation>
    <frame tileid="101" duration="150"/>
    <frame tileid="105" duration="150"/>
    <frame tileid="109" duration="150"/>
    <frame tileid="113" duration="150"/>
    <frame tileid="117" duration="150"/>
   </animation>
  </tile>
  <tile id="102">
   <animation>
    <frame tileid="102" duration="150"/>
    <frame tileid="106" duration="150"/>
    <frame tileid="110" duration="150"/>
    <frame tileid="114" duration="150"/>
    <frame tileid="118" duration="150"/>
   </animation>
  </tile>
  <tile id="103">
   <animation>
    <frame tileid="103" duration="150"/>
    <frame tileid="107" duration="150"/>
    <frame tileid="111" duration="150"/>
    <frame tileid="115" duration="150"/>
    <frame tileid="119" duration="150"/>
   </animation>
  </tile>
  <tile id="120">
   <animation>
    <frame tileid="120" duration="150"/>
    <frame tileid="124" duration="150"/>
    <frame tileid="128" duration="150"/>
    <frame tileid="132" duration="150"/>
    <frame tileid="136" duration="150"/>
   </animation>
  </tile>
  <tile id="121">
   <animation>
    <frame tileid="121" duration="150"/>
    <frame tileid="125" duration="150"/>
    <frame tileid="129" duration="150"/>
    <frame tileid="133" duration="150"/>
    <frame tileid="137" duration="150"/>
   </animation>
  </tile>
  <tile id="122">
   <animation>
    <frame tileid="122" duration="150"/>
    <frame tileid="126" duration="150"/>
    <frame tileid="130" duration="150"/>
    <frame tileid="134" duration="150"/>
    <frame tileid="138" duration="150"/>
   </animation>
  </tile>
  <tile id="123">
   <animation>
    <frame tileid="123" duration="150"/>
    <frame tileid="127" duration="150"/>
    <frame tileid="131" duration="150"/>
    <frame tileid="135" duration="150"/>
    <frame tileid="139" duration="150"/>
   </animation>
  </tile>
  <tile id="140">
   <animation>
    <frame tileid="140" duration="150"/>
    <frame tileid="144" duration="150"/>
    <frame tileid="148" duration="150"/>
    <frame tileid="152" duration="150"/>
    <frame tileid="156" duration="150"/>
   </animation>
  </tile>
  <tile id="141">
   <animation>
    <frame tileid="141" duration="150"/>
    <frame tileid="145" duration="150"/>
    <frame tileid="149" duration="150"/>
    <frame tileid="153" duration="150"/>
    <frame tileid="157" duration="150"/>
   </animation>
  </tile>
  <tile id="142">
   <animation>
    <frame tileid="142" duration="150"/>
    <frame tileid="146" duration="150"/>
    <frame tileid="150" duration="150"/>
    <frame tileid="154" duration="150"/>
    <frame tileid="158" duration="150"/>
   </animation>
  </tile>
  <tile id="143">
   <animation>
    <frame tileid="143" duration="150"/>
    <frame tileid="147" duration="150"/>
    <frame tileid="151" duration="150"/>
    <frame tileid="155" duration="150"/>
    <frame tileid="159" duration="150"/>
   </animation>
  </tile>
  <tile id="160">
   <animation>
    <frame tileid="160" duration="150"/>
    <frame tileid="164" duration="150"/>
    <frame tileid="168" duration="150"/>
    <frame tileid="172" duration="150"/>
    <frame tileid="176" duration="150"/>
   </animation>
  </tile>
  <tile id="161">
   <animation>
    <frame tileid="161" duration="150"/>
    <frame tileid="165" duration="150"/>
    <frame tileid="169" duration="150"/>
    <frame tileid="173" duration="150"/>
    <frame tileid="177" duration="150"/>
   </animation>
  </tile>
  <tile id="162">
   <animation>
    <frame tileid="162" duration="150"/>
    <frame tileid="166" duration="150"/>
    <frame tileid="170" duration="150"/>
    <frame tileid="174" duration="150"/>
    <frame tileid="178" duration="150"/>
   </animation>
  </tile>
  <tile id="163">
   <animation>
    <frame tileid="163" duration="150"/>
    <frame tileid="167" duration="150"/>
    <frame tileid="171" duration="150"/>
    <frame tileid="175" duration="150"/>
    <frame tileid="179" duration="150"/>
   </animation>
  </tile>
  <tile id="180">
   <animation>
    <frame tileid="180" duration="150"/>
    <frame tileid="184" duration="150"/>
    <frame tileid="188" duration="150"/>
    <frame tileid="192" duration="150"/>
    <frame tileid="196" duration="150"/>
   </animation>
  </tile>
  <tile id="181">
   <animation>
    <frame tileid="181" duration="150"/>
    <frame tileid="185" duration="150"/>
    <frame tileid="189" duration="150"/>
    <frame tileid="193" duration="150"/>
    <frame tileid="197" duration="150"/>
   </animation>
  </tile>
  <tile id="182">
   <animation>
    <frame tileid="182" duration="150"/>
    <frame tileid="186" duration="150"/>
    <frame tileid="190" duration="150"/>
    <frame tileid="194" duration="150"/>
    <frame tileid="198" duration="150"/>
   </animation>
  </tile>
  <tile id="183">
   <animation>
    <frame tileid="183" duration="150"/>
    <frame tileid="187" duration="150"/>
    <frame tileid="191" duration="150"/>
    <frame tileid="195" duration="150"/>
    <frame tileid="199" duration="150"/>
   </animation>
  </tile>
  <tile id="200">
   <animation>
    <frame tileid="200" duration="150"/>
    <frame tileid="204" duration="150"/>
    <frame tileid="208" duration="150"/>
    <frame tileid="212" duration="150"/>
    <frame tileid="216" duration="150"/>
   </animation>
  </tile>
  <tile id="201">
   <animation>
    <frame tileid="201" duration="150"/>
    <frame tileid="205" duration="150"/>
    <frame tileid="209" duration="150"/>
    <frame tileid="213" duration="150"/>
    <frame tileid="217" duration="150"/>
   </animation>
  </tile>
  <tile id="202">
   <animation>
    <frame tileid="202" duration="150"/>
    <frame tileid="206" duration="150"/>
    <frame tileid="210" duration="150"/>
    <frame tileid="214" duration="150"/>
    <frame tileid="218" duration="150"/>
   </animation>
  </tile>
  <tile id="203">
   <animation>
    <frame tileid="203" duration="150"/>
    <frame tileid="207" duration="150"/>
    <frame tileid="211" duration="150"/>
    <frame tileid="215" duration="150"/>
    <frame tileid="219" duration="150"/>
   </animation>
  </tile>
  <tile id="220">
   <animation>
    <frame tileid="220" duration="150"/>
    <frame tileid="224" duration="150"/>
    <frame tileid="228" duration="150"/>
    <frame tileid="232" duration="150"/>
    <frame tileid="236" duration="150"/>
   </animation>
  </tile>
  <tile id="221">
   <animation>
    <frame tileid="221" duration="150"/>
    <frame tileid="225" duration="150"/>
    <frame tileid="229" duration="150"/>
    <frame tileid="233" duration="150"/>
    <frame tileid="237" duration="150"/>
   </animation>
  </tile>
  <tile id="222">
   <animation>
    <frame tileid="222" duration="150"/>
    <frame tileid="226" duration="150"/>
    <frame tileid="230" duration="150"/>
    <frame tileid="234" duration="150"/>
    <frame tileid="238" duration="150"/>
   </animation>
  </tile>
  <tile id="223">
   <animation>
    <frame tileid="223" duration="150"/>
    <frame tileid="227" duration="150"/>
    <frame tileid="231" duration="150"/>
    <frame tileid="235" duration="150"/>
    <frame tileid="239" duration="150"/>
   </animation>
  </tile>
  <tile id="240">
   <animation>
    <frame tileid="240" duration="150"/>
    <frame tileid="244" duration="150"/>
    <frame tileid="248" duration="150"/>
    <frame tileid="252" duration="150"/>
    <frame tileid="256" duration="150"/>
   </animation>
  </tile>
  <tile id="241">
   <animation>
    <frame tileid="241" duration="150"/>
    <frame tileid="245" duration="150"/>
    <frame tileid="249" duration="150"/>
    <frame tileid="253" duration="150"/>
    <frame tileid="257" duration="150"/>
   </animation>
  </tile>
  <tile id="242">
   <animation>
    <frame tileid="242" duration="150"/>
    <frame tileid="246" duration="150"/>
    <frame tileid="250" duration="150"/>
    <frame tileid="254" duration="150"/>
    <frame tileid="258" duration="150"/>
   </animation>
  </tile>
  <tile id="243">
   <animation>
    <frame tileid="243" duration="150"/>
    <frame tileid="247" duration="150"/>
    <frame tileid="251" duration="150"/>
    <frame tileid="255" duration="150"/>
    <frame tileid="259" duration="150"/>
   </animation>
  </tile>
  <tile id="260">
   <animation>
    <frame tileid="260" duration="150"/>
    <frame tileid="264" duration="150"/>
    <frame tileid="268" duration="150"/>
    <frame tileid="272" duration="150"/>
    <frame tileid="276" duration="150"/>
   </animation>
  </tile>
  <tile id="261">
   <animation>
    <frame tileid="261" duration="150"/>
    <frame tileid="265" duration="150"/>
    <frame tileid="269" duration="150"/>
    <frame tileid="273" duration="150"/>
    <frame tileid="277" duration="150"/>
   </animation>
  </tile>
  <tile id="262">
   <animation>
    <frame tileid="262" duration="150"/>
    <frame tileid="266" duration="150"/>
    <frame tileid="270" duration="150"/>
    <frame tileid="274" duration="150"/>
    <frame tileid="278" duration="150"/>
   </animation>
  </tile>
  <tile id="263">
   <animation>
    <frame tileid="263" duration="150"/>
    <frame tileid="267" duration="150"/>
    <frame tileid="271" duration="150"/>
    <frame tileid="275" duration="150"/>
    <frame tileid="279" duration="150"/>
   </animation>
  </tile>
  <tile id="280">
   <animation>
    <frame tileid="280" duration="150"/>
    <frame tileid="284" duration="150"/>
    <frame tileid="288" duration="150"/>
    <frame tileid="292" duration="150"/>
    <frame tileid="296" duration="150"/>
   </animation>
  </tile>
  <tile id="281">
   <animation>
    <frame tileid="281" duration="150"/>
    <frame tileid="285" duration="150"/>
    <frame tileid="289" duration="150"/>
    <frame tileid="293" duration="150"/>
    <frame tileid="297" duration="150"/>
   </animation>
  </tile>
  <tile id="282">
   <animation>
    <frame tileid="282" duration="150"/>
    <frame tileid="286" duration="150"/>
    <frame tileid="290" duration="150"/>
    <frame tileid="294" duration="150"/>
    <frame tileid="298" duration="150"/>
   </animation>
  </tile>
  <tile id="283">
   <animation>
    <frame tileid="283" duration="150"/>
    <frame tileid="287" duration="150"/>
    <frame tileid="291" duration="150"/>
    <frame tileid="295" duration="150"/>
    <frame tileid="299" duration="150"/>
   </animation>
  </tile>
  <tile id="300">
   <animation>
    <frame tileid="300" duration="150"/>
    <frame tileid="304" duration="150"/>
    <frame tileid="308" duration="150"/>
    <frame tileid="312" duration="150"/>
    <frame tileid="316" duration="150"/>
   </animation>
  </tile>
  <tile id="301">
   <animation>
    <frame tileid="301" duration="150"/>
    <frame tileid="305" duration="150"/>
    <frame tileid="309" duration="150"/>
    <frame tileid="313" duration="150"/>
    <frame tileid="317" duration="150"/>
   </animation>
  </tile>
  <tile id="302">
   <animation>
    <frame tileid="302" duration="150"/>
    <frame tileid="306" duration="150"/>
    <frame tileid="310" duration="150"/>
    <frame tileid="314" duration="150"/>
    <frame tileid="318" duration="150"/>
   </animation>
  </tile>
  <tile id="303">
   <animation>
    <frame tileid="303" duration="150"/>
    <frame tileid="307" duration="150"/>
    <frame tileid="311" duration="150"/>
    <frame tileid="315" duration="150"/>
    <frame tileid="319" duration="150"/>
   </animation>
  </tile>
 </tileset>
 <tileset firstgid="7271" name="Slime1_Idle_full" tilewidth="16" tileheight="16" tilecount="384" columns="24">
  <image source="Slime1_Idle_without_shadow.png" width="384" height="256"/>
  <tile id="0">
   <animation>
    <frame tileid="0" duration="150"/>
    <frame tileid="4" duration="150"/>
    <frame tileid="8" duration="150"/>
    <frame tileid="12" duration="150"/>
    <frame tileid="16" duration="150"/>
    <frame tileid="20" duration="150"/>
   </animation>
  </tile>
  <tile id="1">
   <animation>
    <frame tileid="1" duration="150"/>
    <frame tileid="5" duration="150"/>
    <frame tileid="9" duration="150"/>
    <frame tileid="13" duration="150"/>
    <frame tileid="17" duration="150"/>
    <frame tileid="21" duration="150"/>
   </animation>
  </tile>
  <tile id="2">
   <animation>
    <frame tileid="2" duration="150"/>
    <frame tileid="6" duration="150"/>
    <frame tileid="10" duration="150"/>
    <frame tileid="14" duration="150"/>
    <frame tileid="18" duration="150"/>
    <frame tileid="22" duration="150"/>
   </animation>
  </tile>
  <tile id="3">
   <animation>
    <frame tileid="3" duration="150"/>
    <frame tileid="7" duration="150"/>
    <frame tileid="11" duration="150"/>
    <frame tileid="15" duration="150"/>
    <frame tileid="19" duration="150"/>
    <frame tileid="23" duration="150"/>
   </animation>
  </tile>
  <tile id="24">
   <animation>
    <frame tileid="24" duration="150"/>
    <frame tileid="28" duration="150"/>
    <frame tileid="32" duration="150"/>
    <frame tileid="36" duration="150"/>
    <frame tileid="40" duration="150"/>
    <frame tileid="44" duration="150"/>
   </animation>
  </tile>
  <tile id="25">
   <animation>
    <frame tileid="25" duration="150"/>
    <frame tileid="29" duration="150"/>
    <frame tileid="33" duration="150"/>
    <frame tileid="37" duration="150"/>
    <frame tileid="41" duration="150"/>
    <frame tileid="45" duration="150"/>
   </animation>
  </tile>
  <tile id="26">
   <animation>
    <frame tileid="26" duration="150"/>
    <frame tileid="30" duration="150"/>
    <frame tileid="34" duration="150"/>
    <frame tileid="38" duration="150"/>
    <frame tileid="42" duration="150"/>
    <frame tileid="46" duration="150"/>
   </animation>
  </tile>
  <tile id="27">
   <animation>
    <frame tileid="27" duration="150"/>
    <frame tileid="31" duration="150"/>
    <frame tileid="35" duration="150"/>
    <frame tileid="39" duration="150"/>
    <frame tileid="43" duration="150"/>
    <frame tileid="47" duration="150"/>
   </animation>
  </tile>
  <tile id="48">
   <animation>
    <frame tileid="48" duration="150"/>
    <frame tileid="52" duration="150"/>
    <frame tileid="56" duration="150"/>
    <frame tileid="60" duration="150"/>
    <frame tileid="64" duration="150"/>
    <frame tileid="68" duration="150"/>
   </animation>
  </tile>
  <tile id="49">
   <animation>
    <frame tileid="49" duration="150"/>
    <frame tileid="53" duration="150"/>
    <frame tileid="57" duration="150"/>
    <frame tileid="61" duration="150"/>
    <frame tileid="65" duration="150"/>
    <frame tileid="69" duration="150"/>
   </animation>
  </tile>
  <tile id="50">
   <animation>
    <frame tileid="50" duration="150"/>
    <frame tileid="54" duration="150"/>
    <frame tileid="58" duration="150"/>
    <frame tileid="62" duration="150"/>
    <frame tileid="66" duration="150"/>
    <frame tileid="70" duration="150"/>
   </animation>
  </tile>
  <tile id="51">
   <animation>
    <frame tileid="51" duration="150"/>
    <frame tileid="55" duration="150"/>
    <frame tileid="59" duration="150"/>
    <frame tileid="63" duration="150"/>
    <frame tileid="67" duration="150"/>
    <frame tileid="71" duration="150"/>
   </animation>
  </tile>
  <tile id="72">
   <animation>
    <frame tileid="72" duration="150"/>
    <frame tileid="76" duration="150"/>
    <frame tileid="80" duration="150"/>
    <frame tileid="84" duration="150"/>
    <frame tileid="88" duration="150"/>
    <frame tileid="92" duration="150"/>
   </animation>
  </tile>
  <tile id="73">
   <animation>
    <frame tileid="73" duration="150"/>
    <frame tileid="77" duration="150"/>
    <frame tileid="81" duration="150"/>
    <frame tileid="85" duration="150"/>
    <frame tileid="89" duration="150"/>
    <frame tileid="93" duration="150"/>
   </animation>
  </tile>
  <tile id="74">
   <animation>
    <frame tileid="74" duration="150"/>
    <frame tileid="78" duration="150"/>
    <frame tileid="82" duration="150"/>
    <frame tileid="86" duration="150"/>
    <frame tileid="90" duration="150"/>
    <frame tileid="94" duration="150"/>
   </animation>
  </tile>
  <tile id="75">
   <animation>
    <frame tileid="75" duration="150"/>
    <frame tileid="79" duration="150"/>
    <frame tileid="83" duration="150"/>
    <frame tileid="87" duration="150"/>
    <frame tileid="91" duration="150"/>
    <frame tileid="95" duration="150"/>
   </animation>
  </tile>
  <tile id="96">
   <animation>
    <frame tileid="96" duration="150"/>
    <frame tileid="100" duration="150"/>
    <frame tileid="104" duration="150"/>
    <frame tileid="108" duration="150"/>
    <frame tileid="112" duration="150"/>
    <frame tileid="116" duration="150"/>
   </animation>
  </tile>
  <tile id="97">
   <animation>
    <frame tileid="97" duration="150"/>
    <frame tileid="101" duration="150"/>
    <frame tileid="105" duration="150"/>
    <frame tileid="109" duration="150"/>
    <frame tileid="113" duration="150"/>
    <frame tileid="117" duration="150"/>
   </animation>
  </tile>
  <tile id="98">
   <animation>
    <frame tileid="98" duration="150"/>
    <frame tileid="102" duration="150"/>
    <frame tileid="106" duration="150"/>
    <frame tileid="110" duration="150"/>
    <frame tileid="114" duration="150"/>
    <frame tileid="118" duration="150"/>
   </animation>
  </tile>
  <tile id="99">
   <animation>
    <frame tileid="99" duration="150"/>
    <frame tileid="103" duration="150"/>
    <frame tileid="107" duration="150"/>
    <frame tileid="111" duration="150"/>
    <frame tileid="115" duration="150"/>
    <frame tileid="119" duration="150"/>
   </animation>
  </tile>
  <tile id="120">
   <animation>
    <frame tileid="120" duration="150"/>
    <frame tileid="124" duration="150"/>
    <frame tileid="128" duration="150"/>
    <frame tileid="132" duration="150"/>
    <frame tileid="136" duration="150"/>
    <frame tileid="140" duration="150"/>
   </animation>
  </tile>
  <tile id="121">
   <animation>
    <frame tileid="121" duration="150"/>
    <frame tileid="125" duration="150"/>
    <frame tileid="129" duration="150"/>
    <frame tileid="133" duration="150"/>
    <frame tileid="137" duration="150"/>
    <frame tileid="141" duration="150"/>
   </animation>
  </tile>
  <tile id="122">
   <animation>
    <frame tileid="122" duration="150"/>
    <frame tileid="126" duration="150"/>
    <frame tileid="130" duration="150"/>
    <frame tileid="134" duration="150"/>
    <frame tileid="138" duration="150"/>
    <frame tileid="142" duration="150"/>
   </animation>
  </tile>
  <tile id="123">
   <animation>
    <frame tileid="123" duration="150"/>
    <frame tileid="127" duration="150"/>
    <frame tileid="131" duration="150"/>
    <frame tileid="135" duration="150"/>
    <frame tileid="139" duration="150"/>
    <frame tileid="143" duration="150"/>
   </animation>
  </tile>
  <tile id="144">
   <animation>
    <frame tileid="144" duration="150"/>
    <frame tileid="148" duration="150"/>
    <frame tileid="152" duration="150"/>
    <frame tileid="156" duration="150"/>
    <frame tileid="160" duration="150"/>
    <frame tileid="164" duration="150"/>
   </animation>
  </tile>
  <tile id="145">
   <animation>
    <frame tileid="145" duration="150"/>
    <frame tileid="149" duration="150"/>
    <frame tileid="153" duration="150"/>
    <frame tileid="157" duration="150"/>
    <frame tileid="161" duration="150"/>
    <frame tileid="165" duration="150"/>
   </animation>
  </tile>
  <tile id="146">
   <animation>
    <frame tileid="146" duration="150"/>
    <frame tileid="150" duration="150"/>
    <frame tileid="154" duration="150"/>
    <frame tileid="158" duration="150"/>
    <frame tileid="162" duration="150"/>
    <frame tileid="166" duration="150"/>
   </animation>
  </tile>
  <tile id="147">
   <animation>
    <frame tileid="147" duration="150"/>
    <frame tileid="151" duration="150"/>
    <frame tileid="155" duration="150"/>
    <frame tileid="159" duration="150"/>
    <frame tileid="163" duration="150"/>
    <frame tileid="167" duration="150"/>
   </animation>
  </tile>
  <tile id="168">
   <animation>
    <frame tileid="168" duration="150"/>
    <frame tileid="172" duration="150"/>
    <frame tileid="176" duration="150"/>
    <frame tileid="180" duration="150"/>
    <frame tileid="184" duration="150"/>
    <frame tileid="188" duration="150"/>
   </animation>
  </tile>
  <tile id="169">
   <animation>
    <frame tileid="169" duration="150"/>
    <frame tileid="173" duration="150"/>
    <frame tileid="177" duration="150"/>
    <frame tileid="181" duration="150"/>
    <frame tileid="185" duration="150"/>
    <frame tileid="189" duration="150"/>
   </animation>
  </tile>
  <tile id="170">
   <animation>
    <frame tileid="170" duration="150"/>
    <frame tileid="174" duration="150"/>
    <frame tileid="178" duration="150"/>
    <frame tileid="182" duration="150"/>
    <frame tileid="186" duration="150"/>
    <frame tileid="190" duration="150"/>
   </animation>
  </tile>
  <tile id="171">
   <animation>
    <frame tileid="171" duration="150"/>
    <frame tileid="175" duration="150"/>
    <frame tileid="179" duration="150"/>
    <frame tileid="183" duration="150"/>
    <frame tileid="187" duration="150"/>
    <frame tileid="191" duration="150"/>
   </animation>
  </tile>
  <tile id="192">
   <animation>
    <frame tileid="192" duration="150"/>
    <frame tileid="196" duration="150"/>
    <frame tileid="200" duration="150"/>
    <frame tileid="204" duration="150"/>
    <frame tileid="208" duration="150"/>
    <frame tileid="212" duration="150"/>
   </animation>
  </tile>
  <tile id="193">
   <animation>
    <frame tileid="193" duration="150"/>
    <frame tileid="197" duration="150"/>
    <frame tileid="201" duration="150"/>
    <frame tileid="205" duration="150"/>
    <frame tileid="209" duration="150"/>
    <frame tileid="213" duration="150"/>
   </animation>
  </tile>
  <tile id="194">
   <animation>
    <frame tileid="194" duration="150"/>
    <frame tileid="198" duration="150"/>
    <frame tileid="202" duration="150"/>
    <frame tileid="206" duration="150"/>
    <frame tileid="210" duration="150"/>
    <frame tileid="214" duration="150"/>
   </animation>
  </tile>
  <tile id="195">
   <animation>
    <frame tileid="195" duration="150"/>
    <frame tileid="199" duration="150"/>
    <frame tileid="203" duration="150"/>
    <frame tileid="207" duration="150"/>
    <frame tileid="211" duration="150"/>
    <frame tileid="215" duration="150"/>
   </animation>
  </tile>
  <tile id="216">
   <animation>
    <frame tileid="216" duration="150"/>
    <frame tileid="220" duration="150"/>
    <frame tileid="224" duration="150"/>
    <frame tileid="228" duration="150"/>
    <frame tileid="232" duration="150"/>
    <frame tileid="236" duration="150"/>
   </animation>
  </tile>
  <tile id="217">
   <animation>
    <frame tileid="217" duration="150"/>
    <frame tileid="221" duration="150"/>
    <frame tileid="225" duration="150"/>
    <frame tileid="229" duration="150"/>
    <frame tileid="233" duration="150"/>
    <frame tileid="237" duration="150"/>
   </animation>
  </tile>
  <tile id="218">
   <animation>
    <frame tileid="218" duration="150"/>
    <frame tileid="222" duration="150"/>
    <frame tileid="226" duration="150"/>
    <frame tileid="230" duration="150"/>
    <frame tileid="234" duration="150"/>
    <frame tileid="238" duration="150"/>
   </animation>
  </tile>
  <tile id="219">
   <animation>
    <frame tileid="219" duration="150"/>
    <frame tileid="223" duration="150"/>
    <frame tileid="227" duration="150"/>
    <frame tileid="231" duration="150"/>
    <frame tileid="235" duration="150"/>
    <frame tileid="239" duration="150"/>
   </animation>
  </tile>
  <tile id="240">
   <animation>
    <frame tileid="240" duration="150"/>
    <frame tileid="244" duration="150"/>
    <frame tileid="248" duration="150"/>
    <frame tileid="252" duration="150"/>
    <frame tileid="256" duration="150"/>
    <frame tileid="260" duration="150"/>
   </animation>
  </tile>
  <tile id="241">
   <animation>
    <frame tileid="241" duration="150"/>
    <frame tileid="245" duration="150"/>
    <frame tileid="249" duration="150"/>
    <frame tileid="253" duration="150"/>
    <frame tileid="257" duration="150"/>
    <frame tileid="261" duration="150"/>
   </animation>
  </tile>
  <tile id="242">
   <animation>
    <frame tileid="242" duration="150"/>
    <frame tileid="246" duration="150"/>
    <frame tileid="250" duration="150"/>
    <frame tileid="254" duration="150"/>
    <frame tileid="258" duration="150"/>
    <frame tileid="262" duration="150"/>
   </animation>
  </tile>
  <tile id="243">
   <animation>
    <frame tileid="243" duration="150"/>
    <frame tileid="247" duration="150"/>
    <frame tileid="251" duration="150"/>
    <frame tileid="255" duration="150"/>
    <frame tileid="259" duration="150"/>
    <frame tileid="263" duration="150"/>
   </animation>
  </tile>
  <tile id="264">
   <animation>
    <frame tileid="264" duration="150"/>
    <frame tileid="268" duration="150"/>
    <frame tileid="272" duration="150"/>
    <frame tileid="276" duration="150"/>
    <frame tileid="280" duration="150"/>
    <frame tileid="284" duration="150"/>
   </animation>
  </tile>
  <tile id="265">
   <animation>
    <frame tileid="265" duration="150"/>
    <frame tileid="269" duration="150"/>
    <frame tileid="273" duration="150"/>
    <frame tileid="277" duration="150"/>
    <frame tileid="281" duration="150"/>
    <frame tileid="285" duration="150"/>
   </animation>
  </tile>
  <tile id="266">
   <animation>
    <frame tileid="266" duration="150"/>
    <frame tileid="270" duration="150"/>
    <frame tileid="274" duration="150"/>
    <frame tileid="278" duration="150"/>
    <frame tileid="282" duration="150"/>
    <frame tileid="286" duration="150"/>
   </animation>
  </tile>
  <tile id="267">
   <animation>
    <frame tileid="267" duration="150"/>
    <frame tileid="271" duration="150"/>
    <frame tileid="275" duration="150"/>
    <frame tileid="279" duration="150"/>
    <frame tileid="283" duration="150"/>
    <frame tileid="287" duration="150"/>
   </animation>
  </tile>
  <tile id="288">
   <animation>
    <frame tileid="288" duration="150"/>
    <frame tileid="292" duration="150"/>
    <frame tileid="296" duration="150"/>
    <frame tileid="300" duration="150"/>
    <frame tileid="304" duration="150"/>
    <frame tileid="308" duration="150"/>
   </animation>
  </tile>
  <tile id="289">
   <animation>
    <frame tileid="289" duration="150"/>
    <frame tileid="293" duration="150"/>
    <frame tileid="297" duration="150"/>
    <frame tileid="301" duration="150"/>
    <frame tileid="305" duration="150"/>
    <frame tileid="309" duration="150"/>
   </animation>
  </tile>
  <tile id="290">
   <animation>
    <frame tileid="290" duration="150"/>
    <frame tileid="294" duration="150"/>
    <frame tileid="298" duration="150"/>
    <frame tileid="302" duration="150"/>
    <frame tileid="306" duration="150"/>
    <frame tileid="310" duration="150"/>
   </animation>
  </tile>
  <tile id="291">
   <animation>
    <frame tileid="291" duration="150"/>
    <frame tileid="295" duration="150"/>
    <frame tileid="299" duration="150"/>
    <frame tileid="303" duration="150"/>
    <frame tileid="307" duration="150"/>
    <frame tileid="311" duration="150"/>
   </animation>
  </tile>
  <tile id="312">
   <animation>
    <frame tileid="312" duration="150"/>
    <frame tileid="316" duration="150"/>
    <frame tileid="320" duration="150"/>
    <frame tileid="324" duration="150"/>
    <frame tileid="328" duration="150"/>
    <frame tileid="332" duration="150"/>
   </animation>
  </tile>
  <tile id="313">
   <animation>
    <frame tileid="313" duration="150"/>
    <frame tileid="317" duration="150"/>
    <frame tileid="321" duration="150"/>
    <frame tileid="325" duration="150"/>
    <frame tileid="329" duration="150"/>
    <frame tileid="333" duration="150"/>
   </animation>
  </tile>
  <tile id="314">
   <animation>
    <frame tileid="314" duration="150"/>
    <frame tileid="318" duration="150"/>
    <frame tileid="322" duration="150"/>
    <frame tileid="326" duration="150"/>
    <frame tileid="330" duration="150"/>
    <frame tileid="334" duration="150"/>
   </animation>
  </tile>
  <tile id="315">
   <animation>
    <frame tileid="315" duration="150"/>
    <frame tileid="319" duration="150"/>
    <frame tileid="323" duration="150"/>
    <frame tileid="327" duration="150"/>
    <frame tileid="331" duration="150"/>
    <frame tileid="335" duration="150"/>
   </animation>
  </tile>
  <tile id="336">
   <animation>
    <frame tileid="336" duration="150"/>
    <frame tileid="340" duration="150"/>
    <frame tileid="344" duration="150"/>
    <frame tileid="348" duration="150"/>
    <frame tileid="352" duration="150"/>
    <frame tileid="356" duration="150"/>
   </animation>
  </tile>
  <tile id="337">
   <animation>
    <frame tileid="337" duration="150"/>
    <frame tileid="341" duration="150"/>
    <frame tileid="345" duration="150"/>
    <frame tileid="349" duration="150"/>
    <frame tileid="353" duration="150"/>
    <frame tileid="357" duration="150"/>
   </animation>
  </tile>
  <tile id="338">
   <animation>
    <frame tileid="338" duration="150"/>
    <frame tileid="342" duration="150"/>
    <frame tileid="346" duration="150"/>
    <frame tileid="350" duration="150"/>
    <frame tileid="354" duration="150"/>
    <frame tileid="358" duration="150"/>
   </animation>
  </tile>
  <tile id="339">
   <animation>
    <frame tileid="339" duration="150"/>
    <frame tileid="343" duration="150"/>
    <frame tileid="347" duration="150"/>
    <frame tileid="351" duration="150"/>
    <frame tileid="355" duration="150"/>
    <frame tileid="359" duration="150"/>
   </animation>
  </tile>
  <tile id="360">
   <animation>
    <frame tileid="360" duration="150"/>
    <frame tileid="364" duration="150"/>
    <frame tileid="368" duration="150"/>
    <frame tileid="372" duration="150"/>
    <frame tileid="376" duration="150"/>
    <frame tileid="380" duration="150"/>
   </animation>
  </tile>
  <tile id="361">
   <animation>
    <frame tileid="361" duration="150"/>
    <frame tileid="365" duration="150"/>
    <frame tileid="369" duration="150"/>
    <frame tileid="373" duration="150"/>
    <frame tileid="377" duration="150"/>
    <frame tileid="381" duration="150"/>
   </animation>
  </tile>
  <tile id="362">
   <animation>
    <frame tileid="362" duration="150"/>
    <frame tileid="366" duration="150"/>
    <frame tileid="370" duration="150"/>
    <frame tileid="374" duration="150"/>
    <frame tileid="378" duration="150"/>
    <frame tileid="382" duration="150"/>
   </animation>
  </tile>
  <tile id="363">
   <animation>
    <frame tileid="363" duration="150"/>
    <frame tileid="367" duration="150"/>
    <frame tileid="371" duration="150"/>
    <frame tileid="375" duration="150"/>
    <frame tileid="379" duration="150"/>
    <frame tileid="383" duration="150"/>
   </animation>
  </tile>
 </tileset>
 <tileset firstgid="7655" name="Slime1_Death_full" tilewidth="16" tileheight="16" tilecount="640" columns="40">
  <image source="Slime1_Death_without_shadow.png" width="640" height="256"/>
  <tile id="0">
   <animation>
    <frame tileid="0" duration="150"/>
    <frame tileid="4" duration="150"/>
    <frame tileid="8" duration="150"/>
    <frame tileid="12" duration="150"/>
    <frame tileid="16" duration="150"/>
    <frame tileid="20" duration="150"/>
    <frame tileid="24" duration="150"/>
    <frame tileid="28" duration="150"/>
    <frame tileid="32" duration="150"/>
    <frame tileid="36" duration="150"/>
   </animation>
  </tile>
  <tile id="1">
   <animation>
    <frame tileid="1" duration="150"/>
    <frame tileid="5" duration="150"/>
    <frame tileid="9" duration="150"/>
    <frame tileid="13" duration="150"/>
    <frame tileid="17" duration="150"/>
    <frame tileid="21" duration="150"/>
    <frame tileid="25" duration="150"/>
    <frame tileid="29" duration="150"/>
    <frame tileid="33" duration="150"/>
    <frame tileid="37" duration="150"/>
   </animation>
  </tile>
  <tile id="2">
   <animation>
    <frame tileid="2" duration="150"/>
    <frame tileid="6" duration="150"/>
    <frame tileid="10" duration="150"/>
    <frame tileid="14" duration="150"/>
    <frame tileid="18" duration="150"/>
    <frame tileid="22" duration="150"/>
    <frame tileid="26" duration="150"/>
    <frame tileid="30" duration="150"/>
    <frame tileid="34" duration="150"/>
    <frame tileid="38" duration="150"/>
   </animation>
  </tile>
  <tile id="3">
   <animation>
    <frame tileid="3" duration="150"/>
    <frame tileid="7" duration="150"/>
    <frame tileid="11" duration="150"/>
    <frame tileid="15" duration="150"/>
    <frame tileid="19" duration="150"/>
    <frame tileid="23" duration="150"/>
    <frame tileid="27" duration="150"/>
    <frame tileid="31" duration="150"/>
    <frame tileid="35" duration="150"/>
    <frame tileid="39" duration="150"/>
   </animation>
  </tile>
  <tile id="40">
   <animation>
    <frame tileid="40" duration="150"/>
    <frame tileid="44" duration="150"/>
    <frame tileid="48" duration="150"/>
    <frame tileid="52" duration="150"/>
    <frame tileid="56" duration="150"/>
    <frame tileid="60" duration="150"/>
    <frame tileid="64" duration="150"/>
    <frame tileid="68" duration="150"/>
    <frame tileid="72" duration="150"/>
    <frame tileid="76" duration="150"/>
   </animation>
  </tile>
  <tile id="41">
   <animation>
    <frame tileid="41" duration="150"/>
    <frame tileid="45" duration="150"/>
    <frame tileid="49" duration="150"/>
    <frame tileid="53" duration="150"/>
    <frame tileid="57" duration="150"/>
    <frame tileid="61" duration="150"/>
    <frame tileid="65" duration="150"/>
    <frame tileid="69" duration="150"/>
    <frame tileid="73" duration="150"/>
    <frame tileid="77" duration="150"/>
   </animation>
  </tile>
  <tile id="42">
   <animation>
    <frame tileid="42" duration="150"/>
    <frame tileid="46" duration="150"/>
    <frame tileid="50" duration="150"/>
    <frame tileid="54" duration="150"/>
    <frame tileid="58" duration="150"/>
    <frame tileid="62" duration="150"/>
    <frame tileid="66" duration="150"/>
    <frame tileid="70" duration="150"/>
    <frame tileid="74" duration="150"/>
    <frame tileid="78" duration="150"/>
   </animation>
  </tile>
  <tile id="43">
   <animation>
    <frame tileid="43" duration="150"/>
    <frame tileid="47" duration="150"/>
    <frame tileid="51" duration="150"/>
    <frame tileid="55" duration="150"/>
    <frame tileid="59" duration="150"/>
    <frame tileid="63" duration="150"/>
    <frame tileid="67" duration="150"/>
    <frame tileid="71" duration="150"/>
    <frame tileid="75" duration="150"/>
    <frame tileid="79" duration="150"/>
   </animation>
  </tile>
  <tile id="80">
   <animation>
    <frame tileid="80" duration="150"/>
    <frame tileid="84" duration="150"/>
    <frame tileid="88" duration="150"/>
    <frame tileid="92" duration="150"/>
    <frame tileid="96" duration="150"/>
    <frame tileid="100" duration="150"/>
    <frame tileid="104" duration="150"/>
    <frame tileid="108" duration="150"/>
    <frame tileid="112" duration="150"/>
    <frame tileid="116" duration="150"/>
   </animation>
  </tile>
  <tile id="81">
   <animation>
    <frame tileid="81" duration="150"/>
    <frame tileid="85" duration="150"/>
    <frame tileid="89" duration="150"/>
    <frame tileid="93" duration="150"/>
    <frame tileid="97" duration="150"/>
    <frame tileid="101" duration="150"/>
    <frame tileid="105" duration="150"/>
    <frame tileid="109" duration="150"/>
    <frame tileid="113" duration="150"/>
    <frame tileid="117" duration="150"/>
   </animation>
  </tile>
  <tile id="82">
   <animation>
    <frame tileid="82" duration="150"/>
    <frame tileid="86" duration="150"/>
    <frame tileid="90" duration="150"/>
    <frame tileid="94" duration="150"/>
    <frame tileid="98" duration="150"/>
    <frame tileid="102" duration="150"/>
    <frame tileid="106" duration="150"/>
    <frame tileid="110" duration="150"/>
    <frame tileid="114" duration="150"/>
    <frame tileid="118" duration="150"/>
   </animation>
  </tile>
  <tile id="83">
   <animation>
    <frame tileid="83" duration="150"/>
    <frame tileid="87" duration="150"/>
    <frame tileid="91" duration="150"/>
    <frame tileid="95" duration="150"/>
    <frame tileid="99" duration="150"/>
    <frame tileid="103" duration="150"/>
    <frame tileid="107" duration="150"/>
    <frame tileid="111" duration="150"/>
    <frame tileid="115" duration="150"/>
    <frame tileid="119" duration="150"/>
   </animation>
  </tile>
  <tile id="120">
   <animation>
    <frame tileid="120" duration="150"/>
    <frame tileid="124" duration="150"/>
    <frame tileid="128" duration="150"/>
    <frame tileid="132" duration="150"/>
    <frame tileid="136" duration="150"/>
    <frame tileid="140" duration="150"/>
    <frame tileid="144" duration="150"/>
    <frame tileid="148" duration="150"/>
    <frame tileid="152" duration="150"/>
    <frame tileid="156" duration="150"/>
   </animation>
  </tile>
  <tile id="121">
   <animation>
    <frame tileid="121" duration="150"/>
    <frame tileid="125" duration="150"/>
    <frame tileid="129" duration="150"/>
    <frame tileid="133" duration="150"/>
    <frame tileid="137" duration="150"/>
    <frame tileid="141" duration="150"/>
    <frame tileid="145" duration="150"/>
    <frame tileid="149" duration="150"/>
    <frame tileid="153" duration="150"/>
    <frame tileid="157" duration="150"/>
   </animation>
  </tile>
  <tile id="122">
   <animation>
    <frame tileid="122" duration="150"/>
    <frame tileid="126" duration="150"/>
    <frame tileid="130" duration="150"/>
    <frame tileid="134" duration="150"/>
    <frame tileid="138" duration="150"/>
    <frame tileid="142" duration="150"/>
    <frame tileid="146" duration="150"/>
    <frame tileid="150" duration="150"/>
    <frame tileid="154" duration="150"/>
    <frame tileid="158" duration="150"/>
   </animation>
  </tile>
  <tile id="123">
   <animation>
    <frame tileid="123" duration="150"/>
    <frame tileid="127" duration="150"/>
    <frame tileid="131" duration="150"/>
    <frame tileid="135" duration="150"/>
    <frame tileid="139" duration="150"/>
    <frame tileid="143" duration="150"/>
    <frame tileid="147" duration="150"/>
    <frame tileid="151" duration="150"/>
    <frame tileid="155" duration="150"/>
    <frame tileid="159" duration="150"/>
   </animation>
  </tile>
  <tile id="160">
   <animation>
    <frame tileid="160" duration="150"/>
    <frame tileid="164" duration="150"/>
    <frame tileid="168" duration="150"/>
    <frame tileid="172" duration="150"/>
    <frame tileid="176" duration="150"/>
    <frame tileid="180" duration="150"/>
    <frame tileid="184" duration="150"/>
    <frame tileid="188" duration="150"/>
    <frame tileid="192" duration="150"/>
    <frame tileid="196" duration="150"/>
   </animation>
  </tile>
  <tile id="161">
   <animation>
    <frame tileid="161" duration="150"/>
    <frame tileid="165" duration="150"/>
    <frame tileid="169" duration="150"/>
    <frame tileid="173" duration="150"/>
    <frame tileid="177" duration="150"/>
    <frame tileid="181" duration="150"/>
    <frame tileid="185" duration="150"/>
    <frame tileid="189" duration="150"/>
    <frame tileid="193" duration="150"/>
    <frame tileid="197" duration="150"/>
   </animation>
  </tile>
  <tile id="162">
   <animation>
    <frame tileid="162" duration="150"/>
    <frame tileid="166" duration="150"/>
    <frame tileid="170" duration="150"/>
    <frame tileid="174" duration="150"/>
    <frame tileid="178" duration="150"/>
    <frame tileid="182" duration="150"/>
    <frame tileid="186" duration="150"/>
    <frame tileid="190" duration="150"/>
    <frame tileid="194" duration="150"/>
    <frame tileid="198" duration="150"/>
   </animation>
  </tile>
  <tile id="163">
   <animation>
    <frame tileid="163" duration="150"/>
    <frame tileid="167" duration="150"/>
    <frame tileid="171" duration="150"/>
    <frame tileid="175" duration="150"/>
    <frame tileid="179" duration="150"/>
    <frame tileid="183" duration="150"/>
    <frame tileid="187" duration="150"/>
    <frame tileid="191" duration="150"/>
    <frame tileid="195" duration="150"/>
    <frame tileid="199" duration="150"/>
   </animation>
  </tile>
  <tile id="200">
   <animation>
    <frame tileid="200" duration="150"/>
    <frame tileid="204" duration="150"/>
    <frame tileid="208" duration="150"/>
    <frame tileid="212" duration="150"/>
    <frame tileid="216" duration="150"/>
    <frame tileid="220" duration="150"/>
    <frame tileid="224" duration="150"/>
    <frame tileid="228" duration="150"/>
    <frame tileid="232" duration="150"/>
    <frame tileid="236" duration="150"/>
   </animation>
  </tile>
  <tile id="201">
   <animation>
    <frame tileid="201" duration="150"/>
    <frame tileid="205" duration="150"/>
    <frame tileid="209" duration="150"/>
    <frame tileid="213" duration="150"/>
    <frame tileid="217" duration="150"/>
    <frame tileid="221" duration="150"/>
    <frame tileid="225" duration="150"/>
    <frame tileid="229" duration="150"/>
    <frame tileid="233" duration="150"/>
    <frame tileid="237" duration="150"/>
   </animation>
  </tile>
  <tile id="202">
   <animation>
    <frame tileid="202" duration="150"/>
    <frame tileid="206" duration="150"/>
    <frame tileid="210" duration="150"/>
    <frame tileid="214" duration="150"/>
    <frame tileid="218" duration="150"/>
    <frame tileid="222" duration="150"/>
    <frame tileid="226" duration="150"/>
    <frame tileid="230" duration="150"/>
    <frame tileid="234" duration="150"/>
    <frame tileid="238" duration="150"/>
   </animation>
  </tile>
  <tile id="203">
   <animation>
    <frame tileid="203" duration="150"/>
    <frame tileid="207" duration="150"/>
    <frame tileid="211" duration="150"/>
    <frame tileid="215" duration="150"/>
    <frame tileid="219" duration="150"/>
    <frame tileid="223" duration="150"/>
    <frame tileid="227" duration="150"/>
    <frame tileid="231" duration="150"/>
    <frame tileid="235" duration="150"/>
    <frame tileid="239" duration="150"/>
   </animation>
  </tile>
  <tile id="240">
   <animation>
    <frame tileid="240" duration="150"/>
    <frame tileid="244" duration="150"/>
    <frame tileid="248" duration="150"/>
    <frame tileid="252" duration="150"/>
    <frame tileid="256" duration="150"/>
    <frame tileid="260" duration="150"/>
    <frame tileid="264" duration="150"/>
    <frame tileid="268" duration="150"/>
    <frame tileid="272" duration="150"/>
    <frame tileid="276" duration="150"/>
   </animation>
  </tile>
  <tile id="241">
   <animation>
    <frame tileid="241" duration="150"/>
    <frame tileid="245" duration="150"/>
    <frame tileid="249" duration="150"/>
    <frame tileid="253" duration="150"/>
    <frame tileid="257" duration="150"/>
    <frame tileid="261" duration="150"/>
    <frame tileid="265" duration="150"/>
    <frame tileid="269" duration="150"/>
    <frame tileid="273" duration="150"/>
    <frame tileid="277" duration="150"/>
   </animation>
  </tile>
  <tile id="242">
   <animation>
    <frame tileid="242" duration="150"/>
    <frame tileid="246" duration="150"/>
    <frame tileid="250" duration="150"/>
    <frame tileid="254" duration="150"/>
    <frame tileid="258" duration="150"/>
    <frame tileid="262" duration="150"/>
    <frame tileid="266" duration="150"/>
    <frame tileid="270" duration="150"/>
    <frame tileid="274" duration="150"/>
    <frame tileid="278" duration="150"/>
   </animation>
  </tile>
  <tile id="243">
   <animation>
    <frame tileid="243" duration="150"/>
    <frame tileid="247" duration="150"/>
    <frame tileid="251" duration="150"/>
    <frame tileid="255" duration="150"/>
    <frame tileid="259" duration="150"/>
    <frame tileid="263" duration="150"/>
    <frame tileid="267" duration="150"/>
    <frame tileid="271" duration="150"/>
    <frame tileid="275" duration="150"/>
    <frame tileid="279" duration="150"/>
   </animation>
  </tile>
  <tile id="280">
   <animation>
    <frame tileid="280" duration="150"/>
    <frame tileid="284" duration="150"/>
    <frame tileid="288" duration="150"/>
    <frame tileid="292" duration="150"/>
    <frame tileid="296" duration="150"/>
    <frame tileid="300" duration="150"/>
    <frame tileid="304" duration="150"/>
    <frame tileid="308" duration="150"/>
    <frame tileid="312" duration="150"/>
    <frame tileid="316" duration="150"/>
   </animation>
  </tile>
  <tile id="281">
   <animation>
    <frame tileid="281" duration="150"/>
    <frame tileid="285" duration="150"/>
    <frame tileid="289" duration="150"/>
    <frame tileid="293" duration="150"/>
    <frame tileid="297" duration="150"/>
    <frame tileid="301" duration="150"/>
    <frame tileid="305" duration="150"/>
    <frame tileid="309" duration="150"/>
    <frame tileid="313" duration="150"/>
    <frame tileid="317" duration="150"/>
   </animation>
  </tile>
  <tile id="282">
   <animation>
    <frame tileid="282" duration="150"/>
    <frame tileid="286" duration="150"/>
    <frame tileid="290" duration="150"/>
    <frame tileid="294" duration="150"/>
    <frame tileid="298" duration="150"/>
    <frame tileid="302" duration="150"/>
    <frame tileid="306" duration="150"/>
    <frame tileid="310" duration="150"/>
    <frame tileid="314" duration="150"/>
    <frame tileid="318" duration="150"/>
   </animation>
  </tile>
  <tile id="283">
   <animation>
    <frame tileid="283" duration="150"/>
    <frame tileid="287" duration="150"/>
    <frame tileid="291" duration="150"/>
    <frame tileid="295" duration="150"/>
    <frame tileid="299" duration="150"/>
    <frame tileid="303" duration="150"/>
    <frame tileid="307" duration="150"/>
    <frame tileid="311" duration="150"/>
    <frame tileid="315" duration="150"/>
    <frame tileid="319" duration="150"/>
   </animation>
  </tile>
  <tile id="320">
   <animation>
    <frame tileid="320" duration="150"/>
    <frame tileid="324" duration="150"/>
    <frame tileid="328" duration="150"/>
    <frame tileid="332" duration="150"/>
    <frame tileid="336" duration="150"/>
    <frame tileid="340" duration="150"/>
    <frame tileid="344" duration="150"/>
    <frame tileid="348" duration="150"/>
    <frame tileid="352" duration="150"/>
    <frame tileid="356" duration="150"/>
   </animation>
  </tile>
  <tile id="321">
   <animation>
    <frame tileid="321" duration="150"/>
    <frame tileid="325" duration="150"/>
    <frame tileid="329" duration="150"/>
    <frame tileid="333" duration="150"/>
    <frame tileid="337" duration="150"/>
    <frame tileid="341" duration="150"/>
    <frame tileid="345" duration="150"/>
    <frame tileid="349" duration="150"/>
    <frame tileid="353" duration="150"/>
    <frame tileid="357" duration="150"/>
   </animation>
  </tile>
  <tile id="322">
   <animation>
    <frame tileid="322" duration="150"/>
    <frame tileid="326" duration="150"/>
    <frame tileid="330" duration="150"/>
    <frame tileid="334" duration="150"/>
    <frame tileid="338" duration="150"/>
    <frame tileid="342" duration="150"/>
    <frame tileid="346" duration="150"/>
    <frame tileid="350" duration="150"/>
    <frame tileid="354" duration="150"/>
    <frame tileid="358" duration="150"/>
   </animation>
  </tile>
  <tile id="323">
   <animation>
    <frame tileid="323" duration="150"/>
    <frame tileid="327" duration="150"/>
    <frame tileid="331" duration="150"/>
    <frame tileid="335" duration="150"/>
    <frame tileid="339" duration="150"/>
    <frame tileid="343" duration="150"/>
    <frame tileid="347" duration="150"/>
    <frame tileid="351" duration="150"/>
    <frame tileid="355" duration="150"/>
    <frame tileid="359" duration="150"/>
   </animation>
  </tile>
  <tile id="360">
   <animation>
    <frame tileid="360" duration="150"/>
    <frame tileid="364" duration="150"/>
    <frame tileid="368" duration="150"/>
    <frame tileid="372" duration="150"/>
    <frame tileid="376" duration="150"/>
    <frame tileid="380" duration="150"/>
    <frame tileid="384" duration="150"/>
    <frame tileid="388" duration="150"/>
    <frame tileid="392" duration="150"/>
    <frame tileid="396" duration="150"/>
   </animation>
  </tile>
  <tile id="361">
   <animation>
    <frame tileid="361" duration="150"/>
    <frame tileid="365" duration="150"/>
    <frame tileid="369" duration="150"/>
    <frame tileid="373" duration="150"/>
    <frame tileid="377" duration="150"/>
    <frame tileid="381" duration="150"/>
    <frame tileid="385" duration="150"/>
    <frame tileid="389" duration="150"/>
    <frame tileid="393" duration="150"/>
    <frame tileid="397" duration="150"/>
   </animation>
  </tile>
  <tile id="362">
   <animation>
    <frame tileid="362" duration="150"/>
    <frame tileid="366" duration="150"/>
    <frame tileid="370" duration="150"/>
    <frame tileid="374" duration="150"/>
    <frame tileid="378" duration="150"/>
    <frame tileid="382" duration="150"/>
    <frame tileid="386" duration="150"/>
    <frame tileid="390" duration="150"/>
    <frame tileid="394" duration="150"/>
    <frame tileid="398" duration="150"/>
   </animation>
  </tile>
  <tile id="363">
   <animation>
    <frame tileid="363" duration="150"/>
    <frame tileid="367" duration="150"/>
    <frame tileid="371" duration="150"/>
    <frame tileid="375" duration="150"/>
    <frame tileid="379" duration="150"/>
    <frame tileid="383" duration="150"/>
    <frame tileid="387" duration="150"/>
    <frame tileid="391" duration="150"/>
    <frame tileid="395" duration="150"/>
    <frame tileid="399" duration="150"/>
   </animation>
  </tile>
  <tile id="400">
   <animation>
    <frame tileid="400" duration="150"/>
    <frame tileid="404" duration="150"/>
    <frame tileid="408" duration="150"/>
    <frame tileid="412" duration="150"/>
    <frame tileid="416" duration="150"/>
    <frame tileid="420" duration="150"/>
    <frame tileid="424" duration="150"/>
    <frame tileid="428" duration="150"/>
    <frame tileid="432" duration="150"/>
    <frame tileid="436" duration="150"/>
   </animation>
  </tile>
  <tile id="401">
   <animation>
    <frame tileid="401" duration="150"/>
    <frame tileid="405" duration="150"/>
    <frame tileid="409" duration="150"/>
    <frame tileid="413" duration="150"/>
    <frame tileid="417" duration="150"/>
    <frame tileid="421" duration="150"/>
    <frame tileid="425" duration="150"/>
    <frame tileid="429" duration="150"/>
    <frame tileid="433" duration="150"/>
    <frame tileid="437" duration="150"/>
   </animation>
  </tile>
  <tile id="402">
   <animation>
    <frame tileid="402" duration="150"/>
    <frame tileid="406" duration="150"/>
    <frame tileid="410" duration="150"/>
    <frame tileid="414" duration="150"/>
    <frame tileid="418" duration="150"/>
    <frame tileid="422" duration="150"/>
    <frame tileid="426" duration="150"/>
    <frame tileid="430" duration="150"/>
    <frame tileid="434" duration="150"/>
    <frame tileid="438" duration="150"/>
   </animation>
  </tile>
  <tile id="403">
   <animation>
    <frame tileid="403" duration="150"/>
    <frame tileid="407" duration="150"/>
    <frame tileid="411" duration="150"/>
    <frame tileid="415" duration="150"/>
    <frame tileid="419" duration="150"/>
    <frame tileid="423" duration="150"/>
    <frame tileid="427" duration="150"/>
    <frame tileid="431" duration="150"/>
    <frame tileid="435" duration="150"/>
    <frame tileid="439" duration="150"/>
   </animation>
  </tile>
  <tile id="440">
   <animation>
    <frame tileid="440" duration="150"/>
    <frame tileid="444" duration="150"/>
    <frame tileid="448" duration="150"/>
    <frame tileid="452" duration="150"/>
    <frame tileid="456" duration="150"/>
    <frame tileid="460" duration="150"/>
    <frame tileid="464" duration="150"/>
    <frame tileid="468" duration="150"/>
    <frame tileid="472" duration="150"/>
    <frame tileid="476" duration="150"/>
   </animation>
  </tile>
  <tile id="441">
   <animation>
    <frame tileid="441" duration="150"/>
    <frame tileid="445" duration="150"/>
    <frame tileid="449" duration="150"/>
    <frame tileid="453" duration="150"/>
    <frame tileid="457" duration="150"/>
    <frame tileid="461" duration="150"/>
    <frame tileid="465" duration="150"/>
    <frame tileid="469" duration="150"/>
    <frame tileid="473" duration="150"/>
    <frame tileid="477" duration="150"/>
   </animation>
  </tile>
  <tile id="442">
   <animation>
    <frame tileid="442" duration="150"/>
    <frame tileid="446" duration="150"/>
    <frame tileid="450" duration="150"/>
    <frame tileid="454" duration="150"/>
    <frame tileid="458" duration="150"/>
    <frame tileid="462" duration="150"/>
    <frame tileid="466" duration="150"/>
    <frame tileid="470" duration="150"/>
    <frame tileid="474" duration="150"/>
    <frame tileid="478" duration="150"/>
   </animation>
  </tile>
  <tile id="443">
   <animation>
    <frame tileid="443" duration="150"/>
    <frame tileid="447" duration="150"/>
    <frame tileid="451" duration="150"/>
    <frame tileid="455" duration="150"/>
    <frame tileid="459" duration="150"/>
    <frame tileid="463" duration="150"/>
    <frame tileid="467" duration="150"/>
    <frame tileid="471" duration="150"/>
    <frame tileid="475" duration="150"/>
    <frame tileid="479" duration="150"/>
   </animation>
  </tile>
  <tile id="480">
   <animation>
    <frame tileid="480" duration="150"/>
    <frame tileid="484" duration="150"/>
    <frame tileid="488" duration="150"/>
    <frame tileid="492" duration="150"/>
    <frame tileid="496" duration="150"/>
    <frame tileid="500" duration="150"/>
    <frame tileid="504" duration="150"/>
    <frame tileid="508" duration="150"/>
    <frame tileid="512" duration="150"/>
    <frame tileid="516" duration="150"/>
   </animation>
  </tile>
  <tile id="481">
   <animation>
    <frame tileid="481" duration="150"/>
    <frame tileid="485" duration="150"/>
    <frame tileid="489" duration="150"/>
    <frame tileid="493" duration="150"/>
    <frame tileid="497" duration="150"/>
    <frame tileid="501" duration="150"/>
    <frame tileid="505" duration="150"/>
    <frame tileid="509" duration="150"/>
    <frame tileid="513" duration="150"/>
    <frame tileid="517" duration="150"/>
   </animation>
  </tile>
  <tile id="482">
   <animation>
    <frame tileid="482" duration="150"/>
    <frame tileid="486" duration="150"/>
    <frame tileid="490" duration="150"/>
    <frame tileid="494" duration="150"/>
    <frame tileid="498" duration="150"/>
    <frame tileid="502" duration="150"/>
    <frame tileid="506" duration="150"/>
    <frame tileid="510" duration="150"/>
    <frame tileid="514" duration="150"/>
    <frame tileid="518" duration="150"/>
   </animation>
  </tile>
  <tile id="483">
   <animation>
    <frame tileid="483" duration="150"/>
    <frame tileid="487" duration="150"/>
    <frame tileid="491" duration="150"/>
    <frame tileid="495" duration="150"/>
    <frame tileid="499" duration="150"/>
    <frame tileid="503" duration="150"/>
    <frame tileid="507" duration="150"/>
    <frame tileid="511" duration="150"/>
    <frame tileid="515" duration="150"/>
    <frame tileid="519" duration="150"/>
   </animation>
  </tile>
  <tile id="520">
   <animation>
    <frame tileid="520" duration="150"/>
    <frame tileid="524" duration="150"/>
    <frame tileid="528" duration="150"/>
    <frame tileid="532" duration="150"/>
    <frame tileid="536" duration="150"/>
    <frame tileid="540" duration="150"/>
    <frame tileid="544" duration="150"/>
    <frame tileid="548" duration="150"/>
    <frame tileid="552" duration="150"/>
    <frame tileid="556" duration="150"/>
   </animation>
  </tile>
  <tile id="521">
   <animation>
    <frame tileid="521" duration="150"/>
    <frame tileid="525" duration="150"/>
    <frame tileid="529" duration="150"/>
    <frame tileid="533" duration="150"/>
    <frame tileid="537" duration="150"/>
    <frame tileid="541" duration="150"/>
    <frame tileid="545" duration="150"/>
    <frame tileid="549" duration="150"/>
    <frame tileid="553" duration="150"/>
    <frame tileid="557" duration="150"/>
   </animation>
  </tile>
  <tile id="522">
   <animation>
    <frame tileid="522" duration="150"/>
    <frame tileid="526" duration="150"/>
    <frame tileid="530" duration="150"/>
    <frame tileid="534" duration="150"/>
    <frame tileid="538" duration="150"/>
    <frame tileid="542" duration="150"/>
    <frame tileid="546" duration="150"/>
    <frame tileid="550" duration="150"/>
    <frame tileid="554" duration="150"/>
    <frame tileid="558" duration="150"/>
   </animation>
  </tile>
  <tile id="523">
   <animation>
    <frame tileid="523" duration="150"/>
    <frame tileid="527" duration="150"/>
    <frame tileid="531" duration="150"/>
    <frame tileid="535" duration="150"/>
    <frame tileid="539" duration="150"/>
    <frame tileid="543" duration="150"/>
    <frame tileid="547" duration="150"/>
    <frame tileid="551" duration="150"/>
    <frame tileid="555" duration="150"/>
    <frame tileid="559" duration="150"/>
   </animation>
  </tile>
  <tile id="560">
   <animation>
    <frame tileid="560" duration="150"/>
    <frame tileid="564" duration="150"/>
    <frame tileid="568" duration="150"/>
    <frame tileid="572" duration="150"/>
    <frame tileid="576" duration="150"/>
    <frame tileid="580" duration="150"/>
    <frame tileid="584" duration="150"/>
    <frame tileid="588" duration="150"/>
    <frame tileid="592" duration="150"/>
    <frame tileid="596" duration="150"/>
   </animation>
  </tile>
  <tile id="561">
   <animation>
    <frame tileid="561" duration="150"/>
    <frame tileid="565" duration="150"/>
    <frame tileid="569" duration="150"/>
    <frame tileid="573" duration="150"/>
    <frame tileid="577" duration="150"/>
    <frame tileid="581" duration="150"/>
    <frame tileid="585" duration="150"/>
    <frame tileid="589" duration="150"/>
    <frame tileid="593" duration="150"/>
    <frame tileid="597" duration="150"/>
   </animation>
  </tile>
  <tile id="562">
   <animation>
    <frame tileid="562" duration="150"/>
    <frame tileid="566" duration="150"/>
    <frame tileid="570" duration="150"/>
    <frame tileid="574" duration="150"/>
    <frame tileid="578" duration="150"/>
    <frame tileid="582" duration="150"/>
    <frame tileid="586" duration="150"/>
    <frame tileid="590" duration="150"/>
    <frame tileid="594" duration="150"/>
    <frame tileid="598" duration="150"/>
   </animation>
  </tile>
  <tile id="563">
   <animation>
    <frame tileid="563" duration="150"/>
    <frame tileid="567" duration="150"/>
    <frame tileid="571" duration="150"/>
    <frame tileid="575" duration="150"/>
    <frame tileid="579" duration="150"/>
    <frame tileid="583" duration="150"/>
    <frame tileid="587" duration="150"/>
    <frame tileid="591" duration="150"/>
    <frame tileid="595" duration="150"/>
    <frame tileid="599" duration="150"/>
   </animation>
  </tile>
  <tile id="600">
   <animation>
    <frame tileid="600" duration="150"/>
    <frame tileid="604" duration="150"/>
    <frame tileid="608" duration="150"/>
    <frame tileid="612" duration="150"/>
    <frame tileid="616" duration="150"/>
    <frame tileid="620" duration="150"/>
    <frame tileid="624" duration="150"/>
    <frame tileid="628" duration="150"/>
    <frame tileid="632" duration="150"/>
    <frame tileid="636" duration="150"/>
   </animation>
  </tile>
  <tile id="601">
   <animation>
    <frame tileid="601" duration="150"/>
    <frame tileid="605" duration="150"/>
    <frame tileid="609" duration="150"/>
    <frame tileid="613" duration="150"/>
    <frame tileid="617" duration="150"/>
    <frame tileid="621" duration="150"/>
    <frame tileid="625" duration="150"/>
    <frame tileid="629" duration="150"/>
    <frame tileid="633" duration="150"/>
    <frame tileid="637" duration="150"/>
   </animation>
  </tile>
  <tile id="602">
   <animation>
    <frame tileid="602" duration="150"/>
    <frame tileid="606" duration="150"/>
    <frame tileid="610" duration="150"/>
    <frame tileid="614" duration="150"/>
    <frame tileid="618" duration="150"/>
    <frame tileid="622" duration="150"/>
    <frame tileid="626" duration="150"/>
    <frame tileid="630" duration="150"/>
    <frame tileid="634" duration="150"/>
    <frame tileid="638" duration="150"/>
   </animation>
  </tile>
  <tile id="603">
   <animation>
    <frame tileid="603" duration="150"/>
    <frame tileid="607" duration="150"/>
    <frame tileid="611" duration="150"/>
    <frame tileid="615" duration="150"/>
    <frame tileid="619" duration="150"/>
    <frame tileid="623" duration="150"/>
    <frame tileid="627" duration="150"/>
    <frame tileid="631" duration="150"/>
    <frame tileid="635" duration="150"/>
    <frame tileid="639" duration="150"/>
   </animation>
  </tile>
 </tileset>
 <tileset firstgid="8295" name="Slime1_Attack_full" tilewidth="16" tileheight="16" tilecount="640" columns="40">
  <image source="Slime1_Attack_without_shadow.png" width="640" height="256"/>
  <tile id="0">
   <animation>
    <frame tileid="0" duration="150"/>
    <frame tileid="4" duration="150"/>
    <frame tileid="8" duration="150"/>
    <frame tileid="12" duration="150"/>
    <frame tileid="16" duration="150"/>
    <frame tileid="20" duration="150"/>
    <frame tileid="24" duration="150"/>
    <frame tileid="28" duration="150"/>
    <frame tileid="32" duration="150"/>
    <frame tileid="36" duration="150"/>
   </animation>
  </tile>
  <tile id="1">
   <animation>
    <frame tileid="1" duration="150"/>
    <frame tileid="5" duration="150"/>
    <frame tileid="9" duration="150"/>
    <frame tileid="13" duration="150"/>
    <frame tileid="17" duration="150"/>
    <frame tileid="21" duration="150"/>
    <frame tileid="25" duration="150"/>
    <frame tileid="29" duration="150"/>
    <frame tileid="33" duration="150"/>
    <frame tileid="37" duration="150"/>
   </animation>
  </tile>
  <tile id="2">
   <animation>
    <frame tileid="2" duration="150"/>
    <frame tileid="6" duration="150"/>
    <frame tileid="10" duration="150"/>
    <frame tileid="14" duration="150"/>
    <frame tileid="18" duration="150"/>
    <frame tileid="22" duration="150"/>
    <frame tileid="26" duration="150"/>
    <frame tileid="30" duration="150"/>
    <frame tileid="34" duration="150"/>
    <frame tileid="38" duration="150"/>
   </animation>
  </tile>
  <tile id="3">
   <animation>
    <frame tileid="3" duration="150"/>
    <frame tileid="7" duration="150"/>
    <frame tileid="11" duration="150"/>
    <frame tileid="15" duration="150"/>
    <frame tileid="19" duration="150"/>
    <frame tileid="23" duration="150"/>
    <frame tileid="27" duration="150"/>
    <frame tileid="31" duration="150"/>
    <frame tileid="35" duration="150"/>
    <frame tileid="39" duration="150"/>
   </animation>
  </tile>
  <tile id="40">
   <animation>
    <frame tileid="40" duration="150"/>
    <frame tileid="44" duration="150"/>
    <frame tileid="48" duration="150"/>
    <frame tileid="52" duration="150"/>
    <frame tileid="56" duration="150"/>
    <frame tileid="60" duration="150"/>
    <frame tileid="64" duration="150"/>
    <frame tileid="68" duration="150"/>
    <frame tileid="72" duration="150"/>
    <frame tileid="76" duration="150"/>
   </animation>
  </tile>
  <tile id="41">
   <animation>
    <frame tileid="41" duration="150"/>
    <frame tileid="45" duration="150"/>
    <frame tileid="49" duration="150"/>
    <frame tileid="53" duration="150"/>
    <frame tileid="57" duration="150"/>
    <frame tileid="61" duration="150"/>
    <frame tileid="65" duration="150"/>
    <frame tileid="69" duration="150"/>
    <frame tileid="73" duration="150"/>
    <frame tileid="77" duration="150"/>
   </animation>
  </tile>
  <tile id="42">
   <animation>
    <frame tileid="42" duration="150"/>
    <frame tileid="46" duration="150"/>
    <frame tileid="50" duration="150"/>
    <frame tileid="54" duration="150"/>
    <frame tileid="58" duration="150"/>
    <frame tileid="62" duration="150"/>
    <frame tileid="66" duration="150"/>
    <frame tileid="70" duration="150"/>
    <frame tileid="74" duration="150"/>
    <frame tileid="78" duration="150"/>
   </animation>
  </tile>
  <tile id="43">
   <animation>
    <frame tileid="43" duration="150"/>
    <frame tileid="47" duration="150"/>
    <frame tileid="51" duration="150"/>
    <frame tileid="55" duration="150"/>
    <frame tileid="59" duration="150"/>
    <frame tileid="63" duration="150"/>
    <frame tileid="67" duration="150"/>
    <frame tileid="71" duration="150"/>
    <frame tileid="75" duration="150"/>
    <frame tileid="79" duration="150"/>
   </animation>
  </tile>
  <tile id="80">
   <animation>
    <frame tileid="80" duration="150"/>
    <frame tileid="84" duration="150"/>
    <frame tileid="88" duration="150"/>
    <frame tileid="92" duration="150"/>
    <frame tileid="96" duration="150"/>
    <frame tileid="100" duration="150"/>
    <frame tileid="104" duration="150"/>
    <frame tileid="108" duration="150"/>
    <frame tileid="112" duration="150"/>
    <frame tileid="116" duration="150"/>
   </animation>
  </tile>
  <tile id="81">
   <animation>
    <frame tileid="81" duration="150"/>
    <frame tileid="85" duration="150"/>
    <frame tileid="89" duration="150"/>
    <frame tileid="93" duration="150"/>
    <frame tileid="97" duration="150"/>
    <frame tileid="101" duration="150"/>
    <frame tileid="105" duration="150"/>
    <frame tileid="109" duration="150"/>
    <frame tileid="113" duration="150"/>
    <frame tileid="117" duration="150"/>
   </animation>
  </tile>
  <tile id="82">
   <animation>
    <frame tileid="82" duration="150"/>
    <frame tileid="86" duration="150"/>
    <frame tileid="90" duration="150"/>
    <frame tileid="94" duration="150"/>
    <frame tileid="98" duration="150"/>
    <frame tileid="102" duration="150"/>
    <frame tileid="106" duration="150"/>
    <frame tileid="110" duration="150"/>
    <frame tileid="114" duration="150"/>
    <frame tileid="118" duration="150"/>
   </animation>
  </tile>
  <tile id="83">
   <animation>
    <frame tileid="83" duration="150"/>
    <frame tileid="87" duration="150"/>
    <frame tileid="91" duration="150"/>
    <frame tileid="95" duration="150"/>
    <frame tileid="99" duration="150"/>
    <frame tileid="103" duration="150"/>
    <frame tileid="107" duration="150"/>
    <frame tileid="111" duration="150"/>
    <frame tileid="115" duration="150"/>
    <frame tileid="119" duration="150"/>
   </animation>
  </tile>
  <tile id="120">
   <animation>
    <frame tileid="120" duration="150"/>
    <frame tileid="124" duration="150"/>
    <frame tileid="128" duration="150"/>
    <frame tileid="132" duration="150"/>
    <frame tileid="136" duration="150"/>
    <frame tileid="140" duration="150"/>
    <frame tileid="144" duration="150"/>
    <frame tileid="148" duration="150"/>
    <frame tileid="152" duration="150"/>
    <frame tileid="156" duration="150"/>
   </animation>
  </tile>
  <tile id="121">
   <animation>
    <frame tileid="121" duration="150"/>
    <frame tileid="125" duration="150"/>
    <frame tileid="129" duration="150"/>
    <frame tileid="133" duration="150"/>
    <frame tileid="137" duration="150"/>
    <frame tileid="141" duration="150"/>
    <frame tileid="145" duration="150"/>
    <frame tileid="149" duration="150"/>
    <frame tileid="153" duration="150"/>
    <frame tileid="157" duration="150"/>
   </animation>
  </tile>
  <tile id="122">
   <animation>
    <frame tileid="122" duration="150"/>
    <frame tileid="126" duration="150"/>
    <frame tileid="130" duration="150"/>
    <frame tileid="134" duration="150"/>
    <frame tileid="138" duration="150"/>
    <frame tileid="142" duration="150"/>
    <frame tileid="146" duration="150"/>
    <frame tileid="150" duration="150"/>
    <frame tileid="154" duration="150"/>
    <frame tileid="158" duration="150"/>
   </animation>
  </tile>
  <tile id="123">
   <animation>
    <frame tileid="123" duration="150"/>
    <frame tileid="127" duration="150"/>
    <frame tileid="131" duration="150"/>
    <frame tileid="135" duration="150"/>
    <frame tileid="139" duration="150"/>
    <frame tileid="143" duration="150"/>
    <frame tileid="147" duration="150"/>
    <frame tileid="151" duration="150"/>
    <frame tileid="155" duration="150"/>
    <frame tileid="159" duration="150"/>
   </animation>
  </tile>
  <tile id="160">
   <animation>
    <frame tileid="160" duration="150"/>
    <frame tileid="164" duration="150"/>
    <frame tileid="168" duration="150"/>
    <frame tileid="172" duration="150"/>
    <frame tileid="176" duration="150"/>
    <frame tileid="180" duration="150"/>
    <frame tileid="184" duration="150"/>
    <frame tileid="188" duration="150"/>
    <frame tileid="192" duration="150"/>
    <frame tileid="196" duration="150"/>
   </animation>
  </tile>
  <tile id="161">
   <animation>
    <frame tileid="161" duration="150"/>
    <frame tileid="165" duration="150"/>
    <frame tileid="169" duration="150"/>
    <frame tileid="173" duration="150"/>
    <frame tileid="177" duration="150"/>
    <frame tileid="181" duration="150"/>
    <frame tileid="185" duration="150"/>
    <frame tileid="189" duration="150"/>
    <frame tileid="193" duration="150"/>
    <frame tileid="197" duration="150"/>
   </animation>
  </tile>
  <tile id="162">
   <animation>
    <frame tileid="162" duration="150"/>
    <frame tileid="166" duration="150"/>
    <frame tileid="170" duration="150"/>
    <frame tileid="174" duration="150"/>
    <frame tileid="178" duration="150"/>
    <frame tileid="182" duration="150"/>
    <frame tileid="186" duration="150"/>
    <frame tileid="190" duration="150"/>
    <frame tileid="194" duration="150"/>
    <frame tileid="198" duration="150"/>
   </animation>
  </tile>
  <tile id="163">
   <animation>
    <frame tileid="163" duration="150"/>
    <frame tileid="167" duration="150"/>
    <frame tileid="171" duration="150"/>
    <frame tileid="175" duration="150"/>
    <frame tileid="179" duration="150"/>
    <frame tileid="183" duration="150"/>
    <frame tileid="187" duration="150"/>
    <frame tileid="191" duration="150"/>
    <frame tileid="195" duration="150"/>
    <frame tileid="199" duration="150"/>
   </animation>
  </tile>
  <tile id="200">
   <animation>
    <frame tileid="200" duration="150"/>
    <frame tileid="204" duration="150"/>
    <frame tileid="208" duration="150"/>
    <frame tileid="212" duration="150"/>
    <frame tileid="216" duration="150"/>
    <frame tileid="220" duration="150"/>
    <frame tileid="224" duration="150"/>
    <frame tileid="228" duration="150"/>
    <frame tileid="232" duration="150"/>
    <frame tileid="236" duration="150"/>
   </animation>
  </tile>
  <tile id="201">
   <animation>
    <frame tileid="201" duration="150"/>
    <frame tileid="205" duration="150"/>
    <frame tileid="209" duration="150"/>
    <frame tileid="213" duration="150"/>
    <frame tileid="217" duration="150"/>
    <frame tileid="221" duration="150"/>
    <frame tileid="225" duration="150"/>
    <frame tileid="229" duration="150"/>
    <frame tileid="233" duration="150"/>
    <frame tileid="237" duration="150"/>
   </animation>
  </tile>
  <tile id="202">
   <animation>
    <frame tileid="202" duration="150"/>
    <frame tileid="206" duration="150"/>
    <frame tileid="210" duration="150"/>
    <frame tileid="214" duration="150"/>
    <frame tileid="218" duration="150"/>
    <frame tileid="222" duration="150"/>
    <frame tileid="226" duration="150"/>
    <frame tileid="230" duration="150"/>
    <frame tileid="234" duration="150"/>
    <frame tileid="238" duration="150"/>
   </animation>
  </tile>
  <tile id="203">
   <animation>
    <frame tileid="203" duration="150"/>
    <frame tileid="207" duration="150"/>
    <frame tileid="211" duration="150"/>
    <frame tileid="215" duration="150"/>
    <frame tileid="219" duration="150"/>
    <frame tileid="223" duration="150"/>
    <frame tileid="227" duration="150"/>
    <frame tileid="231" duration="150"/>
    <frame tileid="235" duration="150"/>
    <frame tileid="239" duration="150"/>
   </animation>
  </tile>
  <tile id="240">
   <animation>
    <frame tileid="240" duration="150"/>
    <frame tileid="244" duration="150"/>
    <frame tileid="248" duration="150"/>
    <frame tileid="252" duration="150"/>
    <frame tileid="256" duration="150"/>
    <frame tileid="260" duration="150"/>
    <frame tileid="264" duration="150"/>
    <frame tileid="268" duration="150"/>
    <frame tileid="272" duration="150"/>
    <frame tileid="276" duration="150"/>
   </animation>
  </tile>
  <tile id="241">
   <animation>
    <frame tileid="241" duration="150"/>
    <frame tileid="245" duration="150"/>
    <frame tileid="249" duration="150"/>
    <frame tileid="253" duration="150"/>
    <frame tileid="257" duration="150"/>
    <frame tileid="261" duration="150"/>
    <frame tileid="265" duration="150"/>
    <frame tileid="269" duration="150"/>
    <frame tileid="273" duration="150"/>
    <frame tileid="277" duration="150"/>
   </animation>
  </tile>
  <tile id="242">
   <animation>
    <frame tileid="242" duration="150"/>
    <frame tileid="246" duration="150"/>
    <frame tileid="250" duration="150"/>
    <frame tileid="254" duration="150"/>
    <frame tileid="258" duration="150"/>
    <frame tileid="262" duration="150"/>
    <frame tileid="266" duration="150"/>
    <frame tileid="270" duration="150"/>
    <frame tileid="274" duration="150"/>
    <frame tileid="278" duration="150"/>
   </animation>
  </tile>
  <tile id="243">
   <animation>
    <frame tileid="243" duration="150"/>
    <frame tileid="247" duration="150"/>
    <frame tileid="251" duration="150"/>
    <frame tileid="255" duration="150"/>
    <frame tileid="259" duration="150"/>
    <frame tileid="263" duration="150"/>
    <frame tileid="267" duration="150"/>
    <frame tileid="271" duration="150"/>
    <frame tileid="275" duration="150"/>
    <frame tileid="279" duration="150"/>
   </animation>
  </tile>
  <tile id="280">
   <animation>
    <frame tileid="280" duration="150"/>
    <frame tileid="284" duration="150"/>
    <frame tileid="288" duration="150"/>
    <frame tileid="292" duration="150"/>
    <frame tileid="296" duration="150"/>
    <frame tileid="300" duration="150"/>
    <frame tileid="304" duration="150"/>
    <frame tileid="308" duration="150"/>
    <frame tileid="312" duration="150"/>
    <frame tileid="316" duration="150"/>
   </animation>
  </tile>
  <tile id="281">
   <animation>
    <frame tileid="281" duration="150"/>
    <frame tileid="285" duration="150"/>
    <frame tileid="289" duration="150"/>
    <frame tileid="293" duration="150"/>
    <frame tileid="297" duration="150"/>
    <frame tileid="301" duration="150"/>
    <frame tileid="305" duration="150"/>
    <frame tileid="309" duration="150"/>
    <frame tileid="313" duration="150"/>
    <frame tileid="317" duration="150"/>
   </animation>
  </tile>
  <tile id="282">
   <animation>
    <frame tileid="282" duration="150"/>
    <frame tileid="286" duration="150"/>
    <frame tileid="290" duration="150"/>
    <frame tileid="294" duration="150"/>
    <frame tileid="298" duration="150"/>
    <frame tileid="302" duration="150"/>
    <frame tileid="306" duration="150"/>
    <frame tileid="310" duration="150"/>
    <frame tileid="314" duration="150"/>
    <frame tileid="318" duration="150"/>
   </animation>
  </tile>
  <tile id="283">
   <animation>
    <frame tileid="283" duration="150"/>
    <frame tileid="287" duration="150"/>
    <frame tileid="291" duration="150"/>
    <frame tileid="295" duration="150"/>
    <frame tileid="299" duration="150"/>
    <frame tileid="303" duration="150"/>
    <frame tileid="307" duration="150"/>
    <frame tileid="311" duration="150"/>
    <frame tileid="315" duration="150"/>
    <frame tileid="319" duration="150"/>
   </animation>
  </tile>
  <tile id="320">
   <animation>
    <frame tileid="320" duration="150"/>
    <frame tileid="324" duration="150"/>
    <frame tileid="328" duration="150"/>
    <frame tileid="332" duration="150"/>
    <frame tileid="336" duration="150"/>
    <frame tileid="340" duration="150"/>
    <frame tileid="344" duration="150"/>
    <frame tileid="348" duration="150"/>
    <frame tileid="352" duration="150"/>
    <frame tileid="357" duration="150"/>
   </animation>
  </tile>
  <tile id="321">
   <animation>
    <frame tileid="321" duration="150"/>
    <frame tileid="325" duration="150"/>
    <frame tileid="329" duration="150"/>
    <frame tileid="333" duration="150"/>
    <frame tileid="337" duration="150"/>
    <frame tileid="341" duration="150"/>
    <frame tileid="345" duration="150"/>
    <frame tileid="349" duration="150"/>
    <frame tileid="353" duration="150"/>
    <frame tileid="357" duration="150"/>
   </animation>
  </tile>
  <tile id="322">
   <animation>
    <frame tileid="322" duration="150"/>
    <frame tileid="326" duration="150"/>
    <frame tileid="330" duration="150"/>
    <frame tileid="334" duration="150"/>
    <frame tileid="338" duration="150"/>
    <frame tileid="342" duration="150"/>
    <frame tileid="346" duration="150"/>
    <frame tileid="350" duration="150"/>
    <frame tileid="354" duration="150"/>
    <frame tileid="358" duration="150"/>
   </animation>
  </tile>
  <tile id="323">
   <animation>
    <frame tileid="323" duration="150"/>
    <frame tileid="327" duration="150"/>
    <frame tileid="331" duration="150"/>
    <frame tileid="335" duration="150"/>
    <frame tileid="339" duration="150"/>
    <frame tileid="343" duration="150"/>
    <frame tileid="347" duration="150"/>
    <frame tileid="351" duration="150"/>
    <frame tileid="355" duration="150"/>
    <frame tileid="359" duration="150"/>
   </animation>
  </tile>
  <tile id="360">
   <animation>
    <frame tileid="360" duration="150"/>
    <frame tileid="364" duration="150"/>
    <frame tileid="368" duration="150"/>
    <frame tileid="372" duration="150"/>
    <frame tileid="376" duration="150"/>
    <frame tileid="380" duration="150"/>
    <frame tileid="384" duration="150"/>
    <frame tileid="388" duration="150"/>
    <frame tileid="392" duration="150"/>
    <frame tileid="396" duration="150"/>
   </animation>
  </tile>
  <tile id="361">
   <animation>
    <frame tileid="361" duration="150"/>
    <frame tileid="365" duration="150"/>
    <frame tileid="369" duration="150"/>
    <frame tileid="373" duration="150"/>
    <frame tileid="377" duration="150"/>
    <frame tileid="381" duration="150"/>
    <frame tileid="385" duration="150"/>
    <frame tileid="389" duration="150"/>
    <frame tileid="393" duration="150"/>
    <frame tileid="397" duration="150"/>
   </animation>
  </tile>
  <tile id="362">
   <animation>
    <frame tileid="362" duration="150"/>
    <frame tileid="366" duration="150"/>
    <frame tileid="370" duration="150"/>
    <frame tileid="374" duration="150"/>
    <frame tileid="378" duration="150"/>
    <frame tileid="382" duration="150"/>
    <frame tileid="386" duration="150"/>
    <frame tileid="390" duration="150"/>
    <frame tileid="394" duration="150"/>
    <frame tileid="398" duration="150"/>
   </animation>
  </tile>
  <tile id="363">
   <animation>
    <frame tileid="363" duration="150"/>
    <frame tileid="367" duration="150"/>
    <frame tileid="371" duration="150"/>
    <frame tileid="375" duration="150"/>
    <frame tileid="379" duration="150"/>
    <frame tileid="383" duration="150"/>
    <frame tileid="387" duration="150"/>
    <frame tileid="391" duration="150"/>
    <frame tileid="395" duration="150"/>
    <frame tileid="399" duration="150"/>
   </animation>
  </tile>
  <tile id="400">
   <animation>
    <frame tileid="400" duration="150"/>
    <frame tileid="404" duration="150"/>
    <frame tileid="408" duration="150"/>
    <frame tileid="412" duration="150"/>
    <frame tileid="416" duration="150"/>
    <frame tileid="420" duration="150"/>
    <frame tileid="424" duration="150"/>
    <frame tileid="428" duration="150"/>
    <frame tileid="432" duration="150"/>
    <frame tileid="436" duration="150"/>
   </animation>
  </tile>
  <tile id="401">
   <animation>
    <frame tileid="401" duration="150"/>
    <frame tileid="405" duration="150"/>
    <frame tileid="409" duration="150"/>
    <frame tileid="413" duration="150"/>
    <frame tileid="417" duration="150"/>
    <frame tileid="421" duration="150"/>
    <frame tileid="425" duration="150"/>
    <frame tileid="429" duration="150"/>
    <frame tileid="433" duration="150"/>
    <frame tileid="437" duration="150"/>
   </animation>
  </tile>
  <tile id="402">
   <animation>
    <frame tileid="402" duration="150"/>
    <frame tileid="406" duration="150"/>
    <frame tileid="410" duration="150"/>
    <frame tileid="414" duration="150"/>
    <frame tileid="418" duration="150"/>
    <frame tileid="422" duration="150"/>
    <frame tileid="426" duration="150"/>
    <frame tileid="430" duration="150"/>
    <frame tileid="434" duration="150"/>
    <frame tileid="438" duration="150"/>
   </animation>
  </tile>
  <tile id="403">
   <animation>
    <frame tileid="403" duration="150"/>
    <frame tileid="407" duration="150"/>
    <frame tileid="411" duration="150"/>
    <frame tileid="415" duration="150"/>
    <frame tileid="419" duration="150"/>
    <frame tileid="423" duration="150"/>
    <frame tileid="427" duration="150"/>
    <frame tileid="431" duration="150"/>
    <frame tileid="435" duration="150"/>
    <frame tileid="439" duration="150"/>
   </animation>
  </tile>
  <tile id="440">
   <animation>
    <frame tileid="440" duration="150"/>
    <frame tileid="444" duration="150"/>
    <frame tileid="448" duration="150"/>
    <frame tileid="452" duration="150"/>
    <frame tileid="456" duration="150"/>
    <frame tileid="460" duration="150"/>
    <frame tileid="464" duration="150"/>
    <frame tileid="468" duration="150"/>
    <frame tileid="472" duration="150"/>
    <frame tileid="476" duration="150"/>
   </animation>
  </tile>
  <tile id="441">
   <animation>
    <frame tileid="441" duration="150"/>
    <frame tileid="445" duration="150"/>
    <frame tileid="449" duration="150"/>
    <frame tileid="453" duration="150"/>
    <frame tileid="457" duration="150"/>
    <frame tileid="461" duration="150"/>
    <frame tileid="465" duration="150"/>
    <frame tileid="469" duration="150"/>
    <frame tileid="473" duration="150"/>
    <frame tileid="477" duration="150"/>
   </animation>
  </tile>
  <tile id="442">
   <animation>
    <frame tileid="442" duration="150"/>
    <frame tileid="446" duration="150"/>
    <frame tileid="450" duration="150"/>
    <frame tileid="454" duration="150"/>
    <frame tileid="458" duration="150"/>
    <frame tileid="462" duration="150"/>
    <frame tileid="466" duration="150"/>
    <frame tileid="470" duration="150"/>
    <frame tileid="474" duration="150"/>
    <frame tileid="478" duration="150"/>
   </animation>
  </tile>
  <tile id="443">
   <animation>
    <frame tileid="443" duration="150"/>
    <frame tileid="447" duration="150"/>
    <frame tileid="451" duration="150"/>
    <frame tileid="455" duration="150"/>
    <frame tileid="459" duration="150"/>
    <frame tileid="463" duration="150"/>
    <frame tileid="467" duration="150"/>
    <frame tileid="471" duration="150"/>
    <frame tileid="475" duration="150"/>
    <frame tileid="479" duration="150"/>
   </animation>
  </tile>
  <tile id="480">
   <animation>
    <frame tileid="480" duration="150"/>
    <frame tileid="484" duration="150"/>
    <frame tileid="488" duration="150"/>
    <frame tileid="492" duration="150"/>
    <frame tileid="496" duration="150"/>
    <frame tileid="500" duration="150"/>
    <frame tileid="504" duration="150"/>
    <frame tileid="508" duration="150"/>
    <frame tileid="512" duration="150"/>
    <frame tileid="516" duration="150"/>
   </animation>
  </tile>
  <tile id="481">
   <animation>
    <frame tileid="481" duration="150"/>
    <frame tileid="485" duration="150"/>
    <frame tileid="489" duration="150"/>
    <frame tileid="493" duration="150"/>
    <frame tileid="497" duration="150"/>
    <frame tileid="501" duration="150"/>
    <frame tileid="505" duration="150"/>
    <frame tileid="509" duration="150"/>
    <frame tileid="513" duration="150"/>
    <frame tileid="517" duration="150"/>
   </animation>
  </tile>
  <tile id="482">
   <animation>
    <frame tileid="482" duration="150"/>
    <frame tileid="486" duration="150"/>
    <frame tileid="490" duration="150"/>
    <frame tileid="494" duration="150"/>
    <frame tileid="498" duration="150"/>
    <frame tileid="502" duration="150"/>
    <frame tileid="506" duration="150"/>
    <frame tileid="510" duration="150"/>
    <frame tileid="514" duration="150"/>
    <frame tileid="518" duration="150"/>
   </animation>
  </tile>
  <tile id="483">
   <animation>
    <frame tileid="483" duration="150"/>
    <frame tileid="487" duration="150"/>
    <frame tileid="491" duration="150"/>
    <frame tileid="495" duration="150"/>
    <frame tileid="499" duration="150"/>
    <frame tileid="503" duration="150"/>
    <frame tileid="507" duration="150"/>
    <frame tileid="511" duration="150"/>
    <frame tileid="515" duration="150"/>
    <frame tileid="519" duration="150"/>
   </animation>
  </tile>
  <tile id="520">
   <animation>
    <frame tileid="520" duration="150"/>
    <frame tileid="524" duration="150"/>
    <frame tileid="528" duration="150"/>
    <frame tileid="532" duration="150"/>
    <frame tileid="536" duration="150"/>
    <frame tileid="540" duration="150"/>
    <frame tileid="544" duration="150"/>
    <frame tileid="548" duration="150"/>
    <frame tileid="552" duration="150"/>
    <frame tileid="556" duration="150"/>
   </animation>
  </tile>
  <tile id="521">
   <animation>
    <frame tileid="521" duration="150"/>
    <frame tileid="525" duration="150"/>
    <frame tileid="529" duration="150"/>
    <frame tileid="533" duration="150"/>
    <frame tileid="537" duration="150"/>
    <frame tileid="541" duration="150"/>
    <frame tileid="545" duration="150"/>
    <frame tileid="549" duration="150"/>
    <frame tileid="553" duration="150"/>
    <frame tileid="557" duration="150"/>
   </animation>
  </tile>
  <tile id="522">
   <animation>
    <frame tileid="522" duration="150"/>
    <frame tileid="526" duration="150"/>
    <frame tileid="530" duration="150"/>
    <frame tileid="534" duration="150"/>
    <frame tileid="538" duration="150"/>
    <frame tileid="542" duration="150"/>
    <frame tileid="546" duration="150"/>
    <frame tileid="550" duration="150"/>
    <frame tileid="554" duration="150"/>
    <frame tileid="558" duration="150"/>
   </animation>
  </tile>
  <tile id="523">
   <animation>
    <frame tileid="523" duration="150"/>
    <frame tileid="527" duration="150"/>
    <frame tileid="531" duration="150"/>
    <frame tileid="535" duration="150"/>
    <frame tileid="539" duration="150"/>
    <frame tileid="543" duration="150"/>
    <frame tileid="547" duration="150"/>
    <frame tileid="551" duration="150"/>
    <frame tileid="555" duration="150"/>
    <frame tileid="559" duration="150"/>
   </animation>
  </tile>
  <tile id="560">
   <animation>
    <frame tileid="560" duration="150"/>
    <frame tileid="564" duration="150"/>
    <frame tileid="568" duration="150"/>
    <frame tileid="572" duration="150"/>
    <frame tileid="576" duration="150"/>
    <frame tileid="580" duration="150"/>
    <frame tileid="584" duration="150"/>
    <frame tileid="588" duration="150"/>
    <frame tileid="592" duration="150"/>
    <frame tileid="596" duration="150"/>
   </animation>
  </tile>
  <tile id="561">
   <animation>
    <frame tileid="561" duration="150"/>
    <frame tileid="565" duration="150"/>
    <frame tileid="569" duration="150"/>
    <frame tileid="573" duration="150"/>
    <frame tileid="577" duration="150"/>
    <frame tileid="581" duration="150"/>
    <frame tileid="585" duration="150"/>
    <frame tileid="589" duration="150"/>
    <frame tileid="593" duration="150"/>
    <frame tileid="597" duration="150"/>
   </animation>
  </tile>
  <tile id="562">
   <animation>
    <frame tileid="562" duration="150"/>
    <frame tileid="566" duration="150"/>
    <frame tileid="570" duration="150"/>
    <frame tileid="574" duration="150"/>
    <frame tileid="578" duration="150"/>
    <frame tileid="582" duration="150"/>
    <frame tileid="586" duration="150"/>
    <frame tileid="590" duration="150"/>
    <frame tileid="594" duration="150"/>
    <frame tileid="598" duration="150"/>
   </animation>
  </tile>
  <tile id="563">
   <animation>
    <frame tileid="563" duration="150"/>
    <frame tileid="567" duration="150"/>
    <frame tileid="571" duration="150"/>
    <frame tileid="575" duration="150"/>
    <frame tileid="579" duration="150"/>
    <frame tileid="583" duration="150"/>
    <frame tileid="587" duration="150"/>
    <frame tileid="591" duration="150"/>
    <frame tileid="595" duration="150"/>
    <frame tileid="599" duration="150"/>
   </animation>
  </tile>
  <tile id="600">
   <animation>
    <frame tileid="600" duration="150"/>
    <frame tileid="604" duration="150"/>
    <frame tileid="608" duration="150"/>
    <frame tileid="612" duration="150"/>
    <frame tileid="616" duration="150"/>
    <frame tileid="620" duration="150"/>
    <frame tileid="624" duration="150"/>
    <frame tileid="628" duration="150"/>
    <frame tileid="632" duration="150"/>
    <frame tileid="636" duration="150"/>
   </animation>
  </tile>
  <tile id="601">
   <animation>
    <frame tileid="601" duration="150"/>
    <frame tileid="605" duration="150"/>
    <frame tileid="609" duration="150"/>
    <frame tileid="613" duration="150"/>
    <frame tileid="617" duration="150"/>
    <frame tileid="621" duration="150"/>
    <frame tileid="625" duration="150"/>
    <frame tileid="629" duration="150"/>
    <frame tileid="633" duration="150"/>
    <frame tileid="637" duration="150"/>
   </animation>
  </tile>
  <tile id="602">
   <animation>
    <frame tileid="602" duration="150"/>
    <frame tileid="606" duration="150"/>
    <frame tileid="610" duration="150"/>
    <frame tileid="614" duration="150"/>
    <frame tileid="618" duration="150"/>
    <frame tileid="622" duration="150"/>
    <frame tileid="626" duration="150"/>
    <frame tileid="630" duration="150"/>
    <frame tileid="634" duration="150"/>
    <frame tileid="638" duration="150"/>
   </animation>
  </tile>
  <tile id="603">
   <animation>
    <frame tileid="603" duration="150"/>
    <frame tileid="607" duration="150"/>
    <frame tileid="611" duration="150"/>
    <frame tileid="615" duration="150"/>
    <frame tileid="619" duration="150"/>
    <frame tileid="623" duration="150"/>
    <frame tileid="627" duration="150"/>
    <frame tileid="631" duration="150"/>
    <frame tileid="635" duration="150"/>
    <frame tileid="639" duration="150"/>
   </animation>
  </tile>
 </tileset>
 <tileset firstgid="8935" name="Slime1_Run_full" tilewidth="16" tileheight="16" tilecount="512" columns="32">
  <image source="Slime1_Run_without_shadow.png" width="512" height="256"/>
  <tile id="0">
   <animation>
    <frame tileid="0" duration="150"/>
    <frame tileid="4" duration="150"/>
    <frame tileid="8" duration="150"/>
    <frame tileid="12" duration="150"/>
    <frame tileid="16" duration="150"/>
    <frame tileid="20" duration="150"/>
    <frame tileid="24" duration="150"/>
    <frame tileid="28" duration="150"/>
   </animation>
  </tile>
  <tile id="1">
   <animation>
    <frame tileid="1" duration="150"/>
    <frame tileid="5" duration="150"/>
    <frame tileid="9" duration="150"/>
    <frame tileid="13" duration="150"/>
    <frame tileid="17" duration="150"/>
    <frame tileid="21" duration="150"/>
    <frame tileid="25" duration="150"/>
    <frame tileid="29" duration="150"/>
   </animation>
  </tile>
  <tile id="2">
   <animation>
    <frame tileid="2" duration="150"/>
    <frame tileid="6" duration="150"/>
    <frame tileid="10" duration="150"/>
    <frame tileid="14" duration="150"/>
    <frame tileid="18" duration="150"/>
    <frame tileid="22" duration="150"/>
    <frame tileid="26" duration="150"/>
    <frame tileid="30" duration="150"/>
   </animation>
  </tile>
  <tile id="3">
   <animation>
    <frame tileid="3" duration="150"/>
    <frame tileid="7" duration="150"/>
    <frame tileid="11" duration="150"/>
    <frame tileid="15" duration="150"/>
    <frame tileid="19" duration="150"/>
    <frame tileid="23" duration="150"/>
    <frame tileid="27" duration="150"/>
    <frame tileid="31" duration="150"/>
   </animation>
  </tile>
  <tile id="32">
   <animation>
    <frame tileid="32" duration="150"/>
    <frame tileid="36" duration="150"/>
    <frame tileid="40" duration="150"/>
    <frame tileid="44" duration="150"/>
    <frame tileid="48" duration="150"/>
    <frame tileid="52" duration="150"/>
    <frame tileid="56" duration="150"/>
    <frame tileid="60" duration="150"/>
   </animation>
  </tile>
  <tile id="33">
   <animation>
    <frame tileid="33" duration="150"/>
    <frame tileid="37" duration="150"/>
    <frame tileid="41" duration="150"/>
    <frame tileid="45" duration="150"/>
    <frame tileid="49" duration="150"/>
    <frame tileid="53" duration="150"/>
    <frame tileid="57" duration="150"/>
    <frame tileid="61" duration="150"/>
   </animation>
  </tile>
  <tile id="34">
   <animation>
    <frame tileid="34" duration="150"/>
    <frame tileid="38" duration="150"/>
    <frame tileid="42" duration="150"/>
    <frame tileid="46" duration="150"/>
    <frame tileid="50" duration="150"/>
    <frame tileid="54" duration="150"/>
    <frame tileid="58" duration="150"/>
    <frame tileid="62" duration="150"/>
   </animation>
  </tile>
  <tile id="35">
   <animation>
    <frame tileid="35" duration="150"/>
    <frame tileid="39" duration="150"/>
    <frame tileid="43" duration="150"/>
    <frame tileid="47" duration="150"/>
    <frame tileid="51" duration="150"/>
    <frame tileid="55" duration="150"/>
    <frame tileid="59" duration="150"/>
    <frame tileid="63" duration="150"/>
   </animation>
  </tile>
  <tile id="64">
   <animation>
    <frame tileid="64" duration="150"/>
    <frame tileid="68" duration="150"/>
    <frame tileid="72" duration="150"/>
    <frame tileid="76" duration="150"/>
    <frame tileid="80" duration="150"/>
    <frame tileid="84" duration="150"/>
    <frame tileid="88" duration="150"/>
    <frame tileid="92" duration="150"/>
   </animation>
  </tile>
  <tile id="65">
   <animation>
    <frame tileid="65" duration="150"/>
    <frame tileid="69" duration="150"/>
    <frame tileid="73" duration="150"/>
    <frame tileid="77" duration="150"/>
    <frame tileid="81" duration="150"/>
    <frame tileid="85" duration="150"/>
    <frame tileid="89" duration="150"/>
    <frame tileid="93" duration="150"/>
   </animation>
  </tile>
  <tile id="66">
   <animation>
    <frame tileid="66" duration="150"/>
    <frame tileid="70" duration="150"/>
    <frame tileid="74" duration="150"/>
    <frame tileid="78" duration="150"/>
    <frame tileid="82" duration="150"/>
    <frame tileid="86" duration="150"/>
    <frame tileid="90" duration="150"/>
    <frame tileid="94" duration="150"/>
   </animation>
  </tile>
  <tile id="67">
   <animation>
    <frame tileid="67" duration="150"/>
    <frame tileid="71" duration="150"/>
    <frame tileid="75" duration="150"/>
    <frame tileid="79" duration="150"/>
    <frame tileid="83" duration="150"/>
    <frame tileid="87" duration="150"/>
    <frame tileid="91" duration="150"/>
    <frame tileid="95" duration="150"/>
   </animation>
  </tile>
  <tile id="96">
   <animation>
    <frame tileid="96" duration="150"/>
    <frame tileid="100" duration="150"/>
    <frame tileid="104" duration="150"/>
    <frame tileid="108" duration="150"/>
    <frame tileid="112" duration="150"/>
    <frame tileid="116" duration="150"/>
    <frame tileid="120" duration="150"/>
    <frame tileid="124" duration="150"/>
   </animation>
  </tile>
  <tile id="97">
   <animation>
    <frame tileid="97" duration="150"/>
    <frame tileid="101" duration="150"/>
    <frame tileid="105" duration="150"/>
    <frame tileid="109" duration="150"/>
    <frame tileid="113" duration="150"/>
    <frame tileid="117" duration="150"/>
    <frame tileid="121" duration="150"/>
    <frame tileid="125" duration="150"/>
   </animation>
  </tile>
  <tile id="98">
   <animation>
    <frame tileid="98" duration="150"/>
    <frame tileid="102" duration="150"/>
    <frame tileid="106" duration="150"/>
    <frame tileid="110" duration="150"/>
    <frame tileid="114" duration="150"/>
    <frame tileid="118" duration="150"/>
    <frame tileid="122" duration="150"/>
    <frame tileid="126" duration="150"/>
   </animation>
  </tile>
  <tile id="99">
   <animation>
    <frame tileid="99" duration="150"/>
    <frame tileid="103" duration="150"/>
    <frame tileid="107" duration="150"/>
    <frame tileid="111" duration="150"/>
    <frame tileid="115" duration="150"/>
    <frame tileid="119" duration="150"/>
    <frame tileid="123" duration="150"/>
    <frame tileid="127" duration="150"/>
   </animation>
  </tile>
  <tile id="128">
   <animation>
    <frame tileid="128" duration="150"/>
    <frame tileid="132" duration="150"/>
    <frame tileid="136" duration="150"/>
    <frame tileid="140" duration="150"/>
    <frame tileid="144" duration="150"/>
    <frame tileid="148" duration="150"/>
    <frame tileid="152" duration="150"/>
    <frame tileid="156" duration="150"/>
   </animation>
  </tile>
  <tile id="129">
   <animation>
    <frame tileid="129" duration="150"/>
    <frame tileid="133" duration="150"/>
    <frame tileid="137" duration="150"/>
    <frame tileid="141" duration="150"/>
    <frame tileid="145" duration="150"/>
    <frame tileid="149" duration="150"/>
    <frame tileid="153" duration="150"/>
    <frame tileid="157" duration="150"/>
   </animation>
  </tile>
  <tile id="130">
   <animation>
    <frame tileid="130" duration="150"/>
    <frame tileid="134" duration="150"/>
    <frame tileid="138" duration="150"/>
    <frame tileid="142" duration="150"/>
    <frame tileid="146" duration="150"/>
    <frame tileid="150" duration="150"/>
    <frame tileid="154" duration="150"/>
    <frame tileid="158" duration="150"/>
   </animation>
  </tile>
  <tile id="131">
   <animation>
    <frame tileid="131" duration="150"/>
    <frame tileid="135" duration="150"/>
    <frame tileid="139" duration="150"/>
    <frame tileid="143" duration="150"/>
    <frame tileid="147" duration="150"/>
    <frame tileid="151" duration="150"/>
    <frame tileid="155" duration="150"/>
    <frame tileid="159" duration="150"/>
   </animation>
  </tile>
  <tile id="160">
   <animation>
    <frame tileid="160" duration="150"/>
    <frame tileid="164" duration="150"/>
    <frame tileid="168" duration="150"/>
    <frame tileid="172" duration="150"/>
    <frame tileid="176" duration="150"/>
    <frame tileid="180" duration="150"/>
    <frame tileid="184" duration="150"/>
    <frame tileid="188" duration="150"/>
   </animation>
  </tile>
  <tile id="161">
   <animation>
    <frame tileid="161" duration="150"/>
    <frame tileid="165" duration="150"/>
    <frame tileid="169" duration="150"/>
    <frame tileid="173" duration="150"/>
    <frame tileid="177" duration="150"/>
    <frame tileid="181" duration="150"/>
    <frame tileid="185" duration="150"/>
    <frame tileid="189" duration="150"/>
   </animation>
  </tile>
  <tile id="162">
   <animation>
    <frame tileid="162" duration="150"/>
    <frame tileid="166" duration="150"/>
    <frame tileid="170" duration="150"/>
    <frame tileid="174" duration="150"/>
    <frame tileid="178" duration="150"/>
    <frame tileid="182" duration="150"/>
    <frame tileid="186" duration="150"/>
    <frame tileid="190" duration="150"/>
   </animation>
  </tile>
  <tile id="163">
   <animation>
    <frame tileid="163" duration="150"/>
    <frame tileid="167" duration="150"/>
    <frame tileid="171" duration="150"/>
    <frame tileid="175" duration="150"/>
    <frame tileid="179" duration="150"/>
    <frame tileid="183" duration="150"/>
    <frame tileid="187" duration="150"/>
    <frame tileid="191" duration="150"/>
   </animation>
  </tile>
  <tile id="192">
   <animation>
    <frame tileid="192" duration="150"/>
    <frame tileid="196" duration="150"/>
    <frame tileid="200" duration="150"/>
    <frame tileid="204" duration="150"/>
    <frame tileid="208" duration="150"/>
    <frame tileid="212" duration="150"/>
    <frame tileid="216" duration="150"/>
    <frame tileid="220" duration="150"/>
   </animation>
  </tile>
  <tile id="193">
   <animation>
    <frame tileid="193" duration="150"/>
    <frame tileid="197" duration="150"/>
    <frame tileid="201" duration="150"/>
    <frame tileid="205" duration="150"/>
    <frame tileid="209" duration="150"/>
    <frame tileid="213" duration="150"/>
    <frame tileid="217" duration="150"/>
    <frame tileid="221" duration="150"/>
   </animation>
  </tile>
  <tile id="194">
   <animation>
    <frame tileid="194" duration="150"/>
    <frame tileid="198" duration="150"/>
    <frame tileid="202" duration="150"/>
    <frame tileid="206" duration="150"/>
    <frame tileid="210" duration="150"/>
    <frame tileid="214" duration="150"/>
    <frame tileid="218" duration="150"/>
    <frame tileid="222" duration="150"/>
   </animation>
  </tile>
  <tile id="195">
   <animation>
    <frame tileid="195" duration="150"/>
    <frame tileid="199" duration="150"/>
    <frame tileid="203" duration="150"/>
    <frame tileid="207" duration="150"/>
    <frame tileid="211" duration="150"/>
    <frame tileid="215" duration="150"/>
    <frame tileid="219" duration="150"/>
    <frame tileid="223" duration="150"/>
   </animation>
  </tile>
  <tile id="224">
   <animation>
    <frame tileid="224" duration="150"/>
    <frame tileid="228" duration="150"/>
    <frame tileid="232" duration="150"/>
    <frame tileid="236" duration="150"/>
    <frame tileid="240" duration="150"/>
    <frame tileid="244" duration="150"/>
    <frame tileid="248" duration="150"/>
    <frame tileid="252" duration="150"/>
   </animation>
  </tile>
  <tile id="225">
   <animation>
    <frame tileid="225" duration="150"/>
    <frame tileid="229" duration="150"/>
    <frame tileid="233" duration="150"/>
    <frame tileid="237" duration="150"/>
    <frame tileid="241" duration="150"/>
    <frame tileid="245" duration="150"/>
    <frame tileid="249" duration="150"/>
    <frame tileid="253" duration="150"/>
   </animation>
  </tile>
  <tile id="226">
   <animation>
    <frame tileid="226" duration="150"/>
    <frame tileid="230" duration="150"/>
    <frame tileid="234" duration="150"/>
    <frame tileid="238" duration="150"/>
    <frame tileid="242" duration="150"/>
    <frame tileid="246" duration="150"/>
    <frame tileid="250" duration="150"/>
    <frame tileid="254" duration="150"/>
   </animation>
  </tile>
  <tile id="227">
   <animation>
    <frame tileid="227" duration="150"/>
    <frame tileid="231" duration="150"/>
    <frame tileid="235" duration="150"/>
    <frame tileid="239" duration="150"/>
    <frame tileid="243" duration="150"/>
    <frame tileid="247" duration="150"/>
    <frame tileid="251" duration="150"/>
    <frame tileid="255" duration="150"/>
   </animation>
  </tile>
  <tile id="256">
   <animation>
    <frame tileid="256" duration="150"/>
    <frame tileid="260" duration="150"/>
    <frame tileid="264" duration="150"/>
    <frame tileid="268" duration="150"/>
    <frame tileid="272" duration="150"/>
    <frame tileid="276" duration="150"/>
    <frame tileid="280" duration="150"/>
    <frame tileid="284" duration="150"/>
   </animation>
  </tile>
  <tile id="257">
   <animation>
    <frame tileid="257" duration="150"/>
    <frame tileid="261" duration="150"/>
    <frame tileid="265" duration="150"/>
    <frame tileid="269" duration="150"/>
    <frame tileid="273" duration="150"/>
    <frame tileid="277" duration="150"/>
    <frame tileid="281" duration="150"/>
    <frame tileid="285" duration="150"/>
   </animation>
  </tile>
  <tile id="258">
   <animation>
    <frame tileid="258" duration="150"/>
    <frame tileid="262" duration="150"/>
    <frame tileid="266" duration="150"/>
    <frame tileid="270" duration="150"/>
    <frame tileid="274" duration="150"/>
    <frame tileid="278" duration="150"/>
    <frame tileid="282" duration="150"/>
    <frame tileid="286" duration="150"/>
   </animation>
  </tile>
  <tile id="259">
   <animation>
    <frame tileid="259" duration="150"/>
    <frame tileid="263" duration="150"/>
    <frame tileid="267" duration="150"/>
    <frame tileid="271" duration="150"/>
    <frame tileid="275" duration="150"/>
    <frame tileid="279" duration="150"/>
    <frame tileid="283" duration="150"/>
    <frame tileid="287" duration="150"/>
   </animation>
  </tile>
  <tile id="288">
   <animation>
    <frame tileid="288" duration="150"/>
    <frame tileid="292" duration="150"/>
    <frame tileid="296" duration="150"/>
    <frame tileid="300" duration="150"/>
    <frame tileid="304" duration="150"/>
    <frame tileid="308" duration="150"/>
    <frame tileid="312" duration="150"/>
    <frame tileid="316" duration="150"/>
   </animation>
  </tile>
  <tile id="289">
   <animation>
    <frame tileid="289" duration="150"/>
    <frame tileid="293" duration="150"/>
    <frame tileid="297" duration="150"/>
    <frame tileid="301" duration="150"/>
    <frame tileid="305" duration="150"/>
    <frame tileid="309" duration="150"/>
    <frame tileid="313" duration="150"/>
    <frame tileid="317" duration="150"/>
   </animation>
  </tile>
  <tile id="290">
   <animation>
    <frame tileid="290" duration="150"/>
    <frame tileid="294" duration="150"/>
    <frame tileid="298" duration="150"/>
    <frame tileid="302" duration="150"/>
    <frame tileid="306" duration="150"/>
    <frame tileid="310" duration="150"/>
    <frame tileid="314" duration="150"/>
    <frame tileid="318" duration="150"/>
   </animation>
  </tile>
  <tile id="291">
   <animation>
    <frame tileid="291" duration="150"/>
    <frame tileid="295" duration="150"/>
    <frame tileid="299" duration="150"/>
    <frame tileid="303" duration="150"/>
    <frame tileid="307" duration="150"/>
    <frame tileid="311" duration="150"/>
    <frame tileid="315" duration="150"/>
    <frame tileid="319" duration="150"/>
   </animation>
  </tile>
  <tile id="320">
   <animation>
    <frame tileid="320" duration="150"/>
    <frame tileid="324" duration="150"/>
    <frame tileid="328" duration="150"/>
    <frame tileid="332" duration="150"/>
    <frame tileid="336" duration="150"/>
    <frame tileid="340" duration="150"/>
    <frame tileid="344" duration="150"/>
    <frame tileid="348" duration="150"/>
   </animation>
  </tile>
  <tile id="321">
   <animation>
    <frame tileid="321" duration="150"/>
    <frame tileid="325" duration="150"/>
    <frame tileid="329" duration="150"/>
    <frame tileid="333" duration="150"/>
    <frame tileid="337" duration="150"/>
    <frame tileid="341" duration="150"/>
    <frame tileid="345" duration="150"/>
    <frame tileid="349" duration="150"/>
   </animation>
  </tile>
  <tile id="322">
   <animation>
    <frame tileid="322" duration="150"/>
    <frame tileid="326" duration="150"/>
    <frame tileid="330" duration="150"/>
    <frame tileid="334" duration="150"/>
    <frame tileid="338" duration="150"/>
    <frame tileid="342" duration="150"/>
    <frame tileid="346" duration="150"/>
    <frame tileid="350" duration="150"/>
   </animation>
  </tile>
  <tile id="323">
   <animation>
    <frame tileid="323" duration="150"/>
    <frame tileid="327" duration="150"/>
    <frame tileid="331" duration="150"/>
    <frame tileid="335" duration="150"/>
    <frame tileid="339" duration="150"/>
    <frame tileid="343" duration="150"/>
    <frame tileid="347" duration="150"/>
    <frame tileid="351" duration="150"/>
   </animation>
  </tile>
  <tile id="352">
   <animation>
    <frame tileid="352" duration="150"/>
    <frame tileid="356" duration="150"/>
    <frame tileid="360" duration="150"/>
    <frame tileid="364" duration="150"/>
    <frame tileid="368" duration="150"/>
    <frame tileid="372" duration="150"/>
    <frame tileid="376" duration="150"/>
    <frame tileid="380" duration="150"/>
   </animation>
  </tile>
  <tile id="353">
   <animation>
    <frame tileid="353" duration="150"/>
    <frame tileid="357" duration="150"/>
    <frame tileid="361" duration="150"/>
    <frame tileid="365" duration="150"/>
    <frame tileid="369" duration="150"/>
    <frame tileid="373" duration="150"/>
    <frame tileid="377" duration="150"/>
    <frame tileid="381" duration="150"/>
   </animation>
  </tile>
  <tile id="354">
   <animation>
    <frame tileid="354" duration="150"/>
    <frame tileid="358" duration="150"/>
    <frame tileid="362" duration="150"/>
    <frame tileid="366" duration="150"/>
    <frame tileid="370" duration="150"/>
    <frame tileid="374" duration="150"/>
    <frame tileid="378" duration="150"/>
    <frame tileid="382" duration="150"/>
   </animation>
  </tile>
  <tile id="355">
   <animation>
    <frame tileid="355" duration="150"/>
    <frame tileid="359" duration="150"/>
    <frame tileid="363" duration="150"/>
    <frame tileid="367" duration="150"/>
    <frame tileid="371" duration="150"/>
    <frame tileid="375" duration="150"/>
    <frame tileid="379" duration="150"/>
    <frame tileid="383" duration="150"/>
   </animation>
  </tile>
  <tile id="384">
   <animation>
    <frame tileid="384" duration="150"/>
    <frame tileid="388" duration="150"/>
    <frame tileid="392" duration="150"/>
    <frame tileid="396" duration="150"/>
    <frame tileid="400" duration="150"/>
    <frame tileid="404" duration="150"/>
    <frame tileid="408" duration="150"/>
    <frame tileid="412" duration="150"/>
   </animation>
  </tile>
  <tile id="385">
   <animation>
    <frame tileid="385" duration="150"/>
    <frame tileid="389" duration="150"/>
    <frame tileid="393" duration="150"/>
    <frame tileid="397" duration="150"/>
    <frame tileid="401" duration="150"/>
    <frame tileid="405" duration="150"/>
    <frame tileid="409" duration="150"/>
    <frame tileid="413" duration="150"/>
   </animation>
  </tile>
  <tile id="386">
   <animation>
    <frame tileid="386" duration="150"/>
    <frame tileid="390" duration="150"/>
    <frame tileid="394" duration="150"/>
    <frame tileid="398" duration="150"/>
    <frame tileid="402" duration="150"/>
    <frame tileid="406" duration="150"/>
    <frame tileid="410" duration="150"/>
    <frame tileid="414" duration="150"/>
   </animation>
  </tile>
  <tile id="387">
   <animation>
    <frame tileid="387" duration="150"/>
    <frame tileid="391" duration="150"/>
    <frame tileid="395" duration="150"/>
    <frame tileid="399" duration="150"/>
    <frame tileid="403" duration="150"/>
    <frame tileid="407" duration="150"/>
    <frame tileid="411" duration="150"/>
    <frame tileid="415" duration="150"/>
   </animation>
  </tile>
  <tile id="416">
   <animation>
    <frame tileid="416" duration="150"/>
    <frame tileid="420" duration="150"/>
    <frame tileid="424" duration="150"/>
    <frame tileid="428" duration="150"/>
    <frame tileid="432" duration="150"/>
    <frame tileid="436" duration="150"/>
    <frame tileid="440" duration="150"/>
    <frame tileid="444" duration="150"/>
   </animation>
  </tile>
  <tile id="417">
   <animation>
    <frame tileid="417" duration="150"/>
    <frame tileid="421" duration="150"/>
    <frame tileid="425" duration="150"/>
    <frame tileid="429" duration="150"/>
    <frame tileid="433" duration="150"/>
    <frame tileid="437" duration="150"/>
    <frame tileid="441" duration="150"/>
    <frame tileid="445" duration="150"/>
   </animation>
  </tile>
  <tile id="418">
   <animation>
    <frame tileid="418" duration="150"/>
    <frame tileid="422" duration="150"/>
    <frame tileid="426" duration="150"/>
    <frame tileid="430" duration="150"/>
    <frame tileid="434" duration="150"/>
    <frame tileid="438" duration="150"/>
    <frame tileid="442" duration="150"/>
    <frame tileid="446" duration="150"/>
   </animation>
  </tile>
  <tile id="419">
   <animation>
    <frame tileid="419" duration="150"/>
    <frame tileid="423" duration="150"/>
    <frame tileid="427" duration="150"/>
    <frame tileid="431" duration="150"/>
    <frame tileid="435" duration="150"/>
    <frame tileid="439" duration="150"/>
    <frame tileid="443" duration="150"/>
    <frame tileid="447" duration="150"/>
   </animation>
  </tile>
  <tile id="448">
   <animation>
    <frame tileid="448" duration="150"/>
    <frame tileid="452" duration="150"/>
    <frame tileid="456" duration="150"/>
    <frame tileid="460" duration="150"/>
    <frame tileid="464" duration="150"/>
    <frame tileid="468" duration="150"/>
    <frame tileid="472" duration="150"/>
    <frame tileid="476" duration="150"/>
   </animation>
  </tile>
  <tile id="449">
   <animation>
    <frame tileid="449" duration="150"/>
    <frame tileid="453" duration="150"/>
    <frame tileid="457" duration="150"/>
    <frame tileid="461" duration="150"/>
    <frame tileid="465" duration="150"/>
    <frame tileid="469" duration="150"/>
    <frame tileid="473" duration="150"/>
    <frame tileid="477" duration="150"/>
   </animation>
  </tile>
  <tile id="450">
   <animation>
    <frame tileid="450" duration="150"/>
    <frame tileid="454" duration="150"/>
    <frame tileid="458" duration="150"/>
    <frame tileid="462" duration="150"/>
    <frame tileid="466" duration="150"/>
    <frame tileid="470" duration="150"/>
    <frame tileid="474" duration="150"/>
    <frame tileid="478" duration="150"/>
   </animation>
  </tile>
  <tile id="451">
   <animation>
    <frame tileid="451" duration="150"/>
    <frame tileid="455" duration="150"/>
    <frame tileid="459" duration="150"/>
    <frame tileid="463" duration="150"/>
    <frame tileid="467" duration="150"/>
    <frame tileid="471" duration="150"/>
    <frame tileid="475" duration="150"/>
    <frame tileid="479" duration="150"/>
   </animation>
  </tile>
  <tile id="480">
   <animation>
    <frame tileid="480" duration="150"/>
    <frame tileid="484" duration="150"/>
    <frame tileid="488" duration="150"/>
    <frame tileid="492" duration="150"/>
    <frame tileid="496" duration="150"/>
    <frame tileid="500" duration="150"/>
    <frame tileid="504" duration="150"/>
    <frame tileid="508" duration="150"/>
   </animation>
  </tile>
  <tile id="481">
   <animation>
    <frame tileid="481" duration="150"/>
    <frame tileid="485" duration="150"/>
    <frame tileid="489" duration="150"/>
    <frame tileid="493" duration="150"/>
    <frame tileid="497" duration="150"/>
    <frame tileid="501" duration="150"/>
    <frame tileid="505" duration="150"/>
    <frame tileid="509" duration="150"/>
   </animation>
  </tile>
  <tile id="482">
   <animation>
    <frame tileid="482" duration="150"/>
    <frame tileid="486" duration="150"/>
    <frame tileid="490" duration="150"/>
    <frame tileid="494" duration="150"/>
    <frame tileid="498" duration="150"/>
    <frame tileid="502" duration="150"/>
    <frame tileid="506" duration="150"/>
    <frame tileid="510" duration="150"/>
   </animation>
  </tile>
  <tile id="483">
   <animation>
    <frame tileid="483" duration="150"/>
    <frame tileid="487" duration="150"/>
    <frame tileid="491" duration="150"/>
    <frame tileid="495" duration="150"/>
    <frame tileid="499" duration="150"/>
    <frame tileid="503" duration="150"/>
    <frame tileid="507" duration="150"/>
    <frame tileid="511" duration="150"/>
   </animation>
  </tile>
 </tileset>
 <tileset firstgid="9447" name="Slime1_Death_full" tilewidth="16" tileheight="16" tilecount="640" columns="40">
  <image source="Slime1_Death.png" width="640" height="256"/>
  <tile id="0">
   <animation>
    <frame tileid="0" duration="150"/>
    <frame tileid="4" duration="150"/>
    <frame tileid="8" duration="150"/>
    <frame tileid="12" duration="150"/>
    <frame tileid="16" duration="150"/>
    <frame tileid="20" duration="150"/>
    <frame tileid="24" duration="150"/>
    <frame tileid="28" duration="150"/>
    <frame tileid="32" duration="150"/>
    <frame tileid="36" duration="150"/>
   </animation>
  </tile>
  <tile id="1">
   <animation>
    <frame tileid="1" duration="150"/>
    <frame tileid="5" duration="150"/>
    <frame tileid="9" duration="150"/>
    <frame tileid="13" duration="150"/>
    <frame tileid="17" duration="150"/>
    <frame tileid="21" duration="150"/>
    <frame tileid="25" duration="150"/>
    <frame tileid="29" duration="150"/>
    <frame tileid="33" duration="150"/>
    <frame tileid="37" duration="150"/>
   </animation>
  </tile>
  <tile id="2">
   <animation>
    <frame tileid="2" duration="150"/>
    <frame tileid="6" duration="150"/>
    <frame tileid="10" duration="150"/>
    <frame tileid="14" duration="150"/>
    <frame tileid="18" duration="150"/>
    <frame tileid="22" duration="150"/>
    <frame tileid="26" duration="150"/>
    <frame tileid="30" duration="150"/>
    <frame tileid="34" duration="150"/>
    <frame tileid="38" duration="150"/>
   </animation>
  </tile>
  <tile id="3">
   <animation>
    <frame tileid="3" duration="150"/>
    <frame tileid="7" duration="150"/>
    <frame tileid="11" duration="150"/>
    <frame tileid="15" duration="150"/>
    <frame tileid="19" duration="150"/>
    <frame tileid="23" duration="150"/>
    <frame tileid="27" duration="150"/>
    <frame tileid="31" duration="150"/>
    <frame tileid="35" duration="150"/>
    <frame tileid="39" duration="150"/>
   </animation>
  </tile>
  <tile id="40">
   <animation>
    <frame tileid="40" duration="150"/>
    <frame tileid="44" duration="150"/>
    <frame tileid="48" duration="150"/>
    <frame tileid="52" duration="150"/>
    <frame tileid="56" duration="150"/>
    <frame tileid="60" duration="150"/>
    <frame tileid="64" duration="150"/>
    <frame tileid="68" duration="150"/>
    <frame tileid="72" duration="150"/>
    <frame tileid="76" duration="150"/>
   </animation>
  </tile>
  <tile id="41">
   <animation>
    <frame tileid="41" duration="150"/>
    <frame tileid="45" duration="150"/>
    <frame tileid="49" duration="150"/>
    <frame tileid="53" duration="150"/>
    <frame tileid="57" duration="150"/>
    <frame tileid="61" duration="150"/>
    <frame tileid="65" duration="150"/>
    <frame tileid="69" duration="150"/>
    <frame tileid="73" duration="150"/>
    <frame tileid="77" duration="150"/>
   </animation>
  </tile>
  <tile id="42">
   <animation>
    <frame tileid="42" duration="150"/>
    <frame tileid="46" duration="150"/>
    <frame tileid="50" duration="150"/>
    <frame tileid="54" duration="150"/>
    <frame tileid="58" duration="150"/>
    <frame tileid="62" duration="150"/>
    <frame tileid="66" duration="150"/>
    <frame tileid="70" duration="150"/>
    <frame tileid="74" duration="150"/>
    <frame tileid="78" duration="150"/>
   </animation>
  </tile>
  <tile id="43">
   <animation>
    <frame tileid="43" duration="150"/>
    <frame tileid="47" duration="150"/>
    <frame tileid="51" duration="150"/>
    <frame tileid="55" duration="150"/>
    <frame tileid="59" duration="150"/>
    <frame tileid="63" duration="150"/>
    <frame tileid="67" duration="150"/>
    <frame tileid="71" duration="150"/>
    <frame tileid="75" duration="150"/>
    <frame tileid="79" duration="150"/>
   </animation>
  </tile>
  <tile id="80">
   <animation>
    <frame tileid="80" duration="150"/>
    <frame tileid="84" duration="150"/>
    <frame tileid="88" duration="150"/>
    <frame tileid="92" duration="150"/>
    <frame tileid="96" duration="150"/>
    <frame tileid="100" duration="150"/>
    <frame tileid="104" duration="150"/>
    <frame tileid="108" duration="150"/>
    <frame tileid="112" duration="150"/>
    <frame tileid="116" duration="150"/>
   </animation>
  </tile>
  <tile id="81">
   <animation>
    <frame tileid="81" duration="150"/>
    <frame tileid="85" duration="150"/>
    <frame tileid="89" duration="150"/>
    <frame tileid="93" duration="150"/>
    <frame tileid="97" duration="150"/>
    <frame tileid="101" duration="150"/>
    <frame tileid="105" duration="150"/>
    <frame tileid="109" duration="150"/>
    <frame tileid="113" duration="150"/>
    <frame tileid="117" duration="150"/>
   </animation>
  </tile>
  <tile id="82">
   <animation>
    <frame tileid="82" duration="150"/>
    <frame tileid="86" duration="150"/>
    <frame tileid="90" duration="150"/>
    <frame tileid="94" duration="150"/>
    <frame tileid="98" duration="150"/>
    <frame tileid="102" duration="150"/>
    <frame tileid="106" duration="150"/>
    <frame tileid="110" duration="150"/>
    <frame tileid="114" duration="150"/>
    <frame tileid="118" duration="150"/>
   </animation>
  </tile>
  <tile id="83">
   <animation>
    <frame tileid="83" duration="150"/>
    <frame tileid="87" duration="150"/>
    <frame tileid="91" duration="150"/>
    <frame tileid="95" duration="150"/>
    <frame tileid="99" duration="150"/>
    <frame tileid="103" duration="150"/>
    <frame tileid="107" duration="150"/>
    <frame tileid="111" duration="150"/>
    <frame tileid="115" duration="150"/>
    <frame tileid="119" duration="150"/>
   </animation>
  </tile>
  <tile id="120">
   <animation>
    <frame tileid="120" duration="150"/>
    <frame tileid="124" duration="150"/>
    <frame tileid="128" duration="150"/>
    <frame tileid="132" duration="150"/>
    <frame tileid="136" duration="150"/>
    <frame tileid="140" duration="150"/>
    <frame tileid="144" duration="150"/>
    <frame tileid="148" duration="150"/>
    <frame tileid="152" duration="150"/>
    <frame tileid="156" duration="150"/>
   </animation>
  </tile>
  <tile id="121">
   <animation>
    <frame tileid="121" duration="150"/>
    <frame tileid="125" duration="150"/>
    <frame tileid="129" duration="150"/>
    <frame tileid="133" duration="150"/>
    <frame tileid="137" duration="150"/>
    <frame tileid="141" duration="150"/>
    <frame tileid="145" duration="150"/>
    <frame tileid="149" duration="150"/>
    <frame tileid="153" duration="150"/>
    <frame tileid="157" duration="150"/>
   </animation>
  </tile>
  <tile id="122">
   <animation>
    <frame tileid="122" duration="150"/>
    <frame tileid="126" duration="150"/>
    <frame tileid="130" duration="150"/>
    <frame tileid="134" duration="150"/>
    <frame tileid="138" duration="150"/>
    <frame tileid="142" duration="150"/>
    <frame tileid="146" duration="150"/>
    <frame tileid="150" duration="150"/>
    <frame tileid="154" duration="150"/>
    <frame tileid="158" duration="150"/>
   </animation>
  </tile>
  <tile id="123">
   <animation>
    <frame tileid="123" duration="150"/>
    <frame tileid="127" duration="150"/>
    <frame tileid="131" duration="150"/>
    <frame tileid="135" duration="150"/>
    <frame tileid="139" duration="150"/>
    <frame tileid="143" duration="150"/>
    <frame tileid="147" duration="150"/>
    <frame tileid="151" duration="150"/>
    <frame tileid="155" duration="150"/>
    <frame tileid="159" duration="150"/>
   </animation>
  </tile>
  <tile id="160">
   <animation>
    <frame tileid="160" duration="150"/>
    <frame tileid="164" duration="150"/>
    <frame tileid="168" duration="150"/>
    <frame tileid="172" duration="150"/>
    <frame tileid="176" duration="150"/>
    <frame tileid="180" duration="150"/>
    <frame tileid="184" duration="150"/>
    <frame tileid="188" duration="150"/>
    <frame tileid="192" duration="150"/>
    <frame tileid="196" duration="150"/>
   </animation>
  </tile>
  <tile id="161">
   <animation>
    <frame tileid="161" duration="150"/>
    <frame tileid="165" duration="150"/>
    <frame tileid="169" duration="150"/>
    <frame tileid="173" duration="150"/>
    <frame tileid="177" duration="150"/>
    <frame tileid="181" duration="150"/>
    <frame tileid="185" duration="150"/>
    <frame tileid="189" duration="150"/>
    <frame tileid="193" duration="150"/>
    <frame tileid="197" duration="150"/>
   </animation>
  </tile>
  <tile id="162">
   <animation>
    <frame tileid="162" duration="150"/>
    <frame tileid="166" duration="150"/>
    <frame tileid="170" duration="150"/>
    <frame tileid="174" duration="150"/>
    <frame tileid="178" duration="150"/>
    <frame tileid="182" duration="150"/>
    <frame tileid="186" duration="150"/>
    <frame tileid="190" duration="150"/>
    <frame tileid="194" duration="150"/>
    <frame tileid="198" duration="150"/>
   </animation>
  </tile>
  <tile id="163">
   <animation>
    <frame tileid="163" duration="150"/>
    <frame tileid="167" duration="150"/>
    <frame tileid="171" duration="150"/>
    <frame tileid="175" duration="150"/>
    <frame tileid="179" duration="150"/>
    <frame tileid="183" duration="150"/>
    <frame tileid="187" duration="150"/>
    <frame tileid="191" duration="150"/>
    <frame tileid="195" duration="150"/>
    <frame tileid="199" duration="150"/>
   </animation>
  </tile>
  <tile id="200">
   <animation>
    <frame tileid="200" duration="150"/>
    <frame tileid="204" duration="150"/>
    <frame tileid="208" duration="150"/>
    <frame tileid="212" duration="150"/>
    <frame tileid="216" duration="150"/>
    <frame tileid="220" duration="150"/>
    <frame tileid="224" duration="150"/>
    <frame tileid="228" duration="150"/>
    <frame tileid="232" duration="150"/>
    <frame tileid="236" duration="150"/>
   </animation>
  </tile>
  <tile id="201">
   <animation>
    <frame tileid="201" duration="150"/>
    <frame tileid="205" duration="150"/>
    <frame tileid="209" duration="150"/>
    <frame tileid="213" duration="150"/>
    <frame tileid="217" duration="150"/>
    <frame tileid="221" duration="150"/>
    <frame tileid="225" duration="150"/>
    <frame tileid="229" duration="150"/>
    <frame tileid="233" duration="150"/>
    <frame tileid="237" duration="150"/>
   </animation>
  </tile>
  <tile id="202">
   <animation>
    <frame tileid="202" duration="150"/>
    <frame tileid="206" duration="150"/>
    <frame tileid="210" duration="150"/>
    <frame tileid="214" duration="150"/>
    <frame tileid="218" duration="150"/>
    <frame tileid="222" duration="150"/>
    <frame tileid="226" duration="150"/>
    <frame tileid="230" duration="150"/>
    <frame tileid="234" duration="150"/>
    <frame tileid="238" duration="150"/>
   </animation>
  </tile>
  <tile id="203">
   <animation>
    <frame tileid="203" duration="150"/>
    <frame tileid="207" duration="150"/>
    <frame tileid="211" duration="150"/>
    <frame tileid="215" duration="150"/>
    <frame tileid="219" duration="150"/>
    <frame tileid="223" duration="150"/>
    <frame tileid="227" duration="150"/>
    <frame tileid="231" duration="150"/>
    <frame tileid="235" duration="150"/>
    <frame tileid="239" duration="150"/>
   </animation>
  </tile>
  <tile id="240">
   <animation>
    <frame tileid="240" duration="150"/>
    <frame tileid="244" duration="150"/>
    <frame tileid="248" duration="150"/>
    <frame tileid="252" duration="150"/>
    <frame tileid="256" duration="150"/>
    <frame tileid="260" duration="150"/>
    <frame tileid="264" duration="150"/>
    <frame tileid="268" duration="150"/>
    <frame tileid="272" duration="150"/>
    <frame tileid="276" duration="150"/>
   </animation>
  </tile>
  <tile id="241">
   <animation>
    <frame tileid="241" duration="150"/>
    <frame tileid="245" duration="150"/>
    <frame tileid="249" duration="150"/>
    <frame tileid="253" duration="150"/>
    <frame tileid="257" duration="150"/>
    <frame tileid="261" duration="150"/>
    <frame tileid="265" duration="150"/>
    <frame tileid="269" duration="150"/>
    <frame tileid="273" duration="150"/>
    <frame tileid="277" duration="150"/>
   </animation>
  </tile>
  <tile id="242">
   <animation>
    <frame tileid="242" duration="150"/>
    <frame tileid="246" duration="150"/>
    <frame tileid="250" duration="150"/>
    <frame tileid="254" duration="150"/>
    <frame tileid="258" duration="150"/>
    <frame tileid="262" duration="150"/>
    <frame tileid="266" duration="150"/>
    <frame tileid="270" duration="150"/>
    <frame tileid="274" duration="150"/>
    <frame tileid="278" duration="150"/>
   </animation>
  </tile>
  <tile id="243">
   <animation>
    <frame tileid="243" duration="150"/>
    <frame tileid="247" duration="150"/>
    <frame tileid="251" duration="150"/>
    <frame tileid="255" duration="150"/>
    <frame tileid="259" duration="150"/>
    <frame tileid="263" duration="150"/>
    <frame tileid="267" duration="150"/>
    <frame tileid="271" duration="150"/>
    <frame tileid="275" duration="150"/>
    <frame tileid="279" duration="150"/>
   </animation>
  </tile>
  <tile id="280">
   <animation>
    <frame tileid="280" duration="150"/>
    <frame tileid="284" duration="150"/>
    <frame tileid="288" duration="150"/>
    <frame tileid="292" duration="150"/>
    <frame tileid="296" duration="150"/>
    <frame tileid="300" duration="150"/>
    <frame tileid="304" duration="150"/>
    <frame tileid="308" duration="150"/>
    <frame tileid="312" duration="150"/>
    <frame tileid="316" duration="150"/>
   </animation>
  </tile>
  <tile id="281">
   <animation>
    <frame tileid="281" duration="150"/>
    <frame tileid="285" duration="150"/>
    <frame tileid="289" duration="150"/>
    <frame tileid="293" duration="150"/>
    <frame tileid="297" duration="150"/>
    <frame tileid="301" duration="150"/>
    <frame tileid="305" duration="150"/>
    <frame tileid="309" duration="150"/>
    <frame tileid="313" duration="150"/>
    <frame tileid="317" duration="150"/>
   </animation>
  </tile>
  <tile id="282">
   <animation>
    <frame tileid="282" duration="150"/>
    <frame tileid="286" duration="150"/>
    <frame tileid="290" duration="150"/>
    <frame tileid="294" duration="150"/>
    <frame tileid="298" duration="150"/>
    <frame tileid="302" duration="150"/>
    <frame tileid="306" duration="150"/>
    <frame tileid="310" duration="150"/>
    <frame tileid="314" duration="150"/>
    <frame tileid="318" duration="150"/>
   </animation>
  </tile>
  <tile id="283">
   <animation>
    <frame tileid="283" duration="150"/>
    <frame tileid="287" duration="150"/>
    <frame tileid="291" duration="150"/>
    <frame tileid="295" duration="150"/>
    <frame tileid="299" duration="150"/>
    <frame tileid="303" duration="150"/>
    <frame tileid="307" duration="150"/>
    <frame tileid="311" duration="150"/>
    <frame tileid="315" duration="150"/>
    <frame tileid="319" duration="150"/>
   </animation>
  </tile>
  <tile id="320">
   <animation>
    <frame tileid="320" duration="150"/>
    <frame tileid="324" duration="150"/>
    <frame tileid="328" duration="150"/>
    <frame tileid="332" duration="150"/>
    <frame tileid="336" duration="150"/>
    <frame tileid="340" duration="150"/>
    <frame tileid="344" duration="150"/>
    <frame tileid="348" duration="150"/>
    <frame tileid="352" duration="150"/>
    <frame tileid="356" duration="150"/>
   </animation>
  </tile>
  <tile id="321">
   <animation>
    <frame tileid="321" duration="150"/>
    <frame tileid="325" duration="150"/>
    <frame tileid="329" duration="150"/>
    <frame tileid="333" duration="150"/>
    <frame tileid="337" duration="150"/>
    <frame tileid="341" duration="150"/>
    <frame tileid="345" duration="150"/>
    <frame tileid="349" duration="150"/>
    <frame tileid="353" duration="150"/>
    <frame tileid="357" duration="150"/>
   </animation>
  </tile>
  <tile id="322">
   <animation>
    <frame tileid="322" duration="150"/>
    <frame tileid="326" duration="150"/>
    <frame tileid="330" duration="150"/>
    <frame tileid="334" duration="150"/>
    <frame tileid="338" duration="150"/>
    <frame tileid="342" duration="150"/>
    <frame tileid="346" duration="150"/>
    <frame tileid="350" duration="150"/>
    <frame tileid="354" duration="150"/>
    <frame tileid="358" duration="150"/>
   </animation>
  </tile>
  <tile id="323">
   <animation>
    <frame tileid="323" duration="150"/>
    <frame tileid="327" duration="150"/>
    <frame tileid="331" duration="150"/>
    <frame tileid="335" duration="150"/>
    <frame tileid="339" duration="150"/>
    <frame tileid="343" duration="150"/>
    <frame tileid="347" duration="150"/>
    <frame tileid="351" duration="150"/>
    <frame tileid="355" duration="150"/>
    <frame tileid="359" duration="150"/>
   </animation>
  </tile>
  <tile id="360">
   <animation>
    <frame tileid="360" duration="150"/>
    <frame tileid="364" duration="150"/>
    <frame tileid="368" duration="150"/>
    <frame tileid="372" duration="150"/>
    <frame tileid="376" duration="150"/>
    <frame tileid="380" duration="150"/>
    <frame tileid="384" duration="150"/>
    <frame tileid="388" duration="150"/>
    <frame tileid="392" duration="150"/>
    <frame tileid="396" duration="150"/>
   </animation>
  </tile>
  <tile id="361">
   <animation>
    <frame tileid="361" duration="150"/>
    <frame tileid="365" duration="150"/>
    <frame tileid="369" duration="150"/>
    <frame tileid="373" duration="150"/>
    <frame tileid="377" duration="150"/>
    <frame tileid="381" duration="150"/>
    <frame tileid="385" duration="150"/>
    <frame tileid="389" duration="150"/>
    <frame tileid="393" duration="150"/>
    <frame tileid="397" duration="150"/>
   </animation>
  </tile>
  <tile id="362">
   <animation>
    <frame tileid="362" duration="150"/>
    <frame tileid="366" duration="150"/>
    <frame tileid="370" duration="150"/>
    <frame tileid="374" duration="150"/>
    <frame tileid="378" duration="150"/>
    <frame tileid="382" duration="150"/>
    <frame tileid="386" duration="150"/>
    <frame tileid="390" duration="150"/>
    <frame tileid="394" duration="150"/>
    <frame tileid="398" duration="150"/>
   </animation>
  </tile>
  <tile id="363">
   <animation>
    <frame tileid="363" duration="150"/>
    <frame tileid="367" duration="150"/>
    <frame tileid="371" duration="150"/>
    <frame tileid="375" duration="150"/>
    <frame tileid="379" duration="150"/>
    <frame tileid="383" duration="150"/>
    <frame tileid="387" duration="150"/>
    <frame tileid="391" duration="150"/>
    <frame tileid="395" duration="150"/>
    <frame tileid="399" duration="150"/>
   </animation>
  </tile>
  <tile id="400">
   <animation>
    <frame tileid="400" duration="150"/>
    <frame tileid="404" duration="150"/>
    <frame tileid="408" duration="150"/>
    <frame tileid="412" duration="150"/>
    <frame tileid="416" duration="150"/>
    <frame tileid="420" duration="150"/>
    <frame tileid="424" duration="150"/>
    <frame tileid="428" duration="150"/>
    <frame tileid="432" duration="150"/>
    <frame tileid="436" duration="150"/>
   </animation>
  </tile>
  <tile id="401">
   <animation>
    <frame tileid="401" duration="150"/>
    <frame tileid="405" duration="150"/>
    <frame tileid="409" duration="150"/>
    <frame tileid="413" duration="150"/>
    <frame tileid="417" duration="150"/>
    <frame tileid="421" duration="150"/>
    <frame tileid="425" duration="150"/>
    <frame tileid="429" duration="150"/>
    <frame tileid="433" duration="150"/>
    <frame tileid="437" duration="150"/>
   </animation>
  </tile>
  <tile id="402">
   <animation>
    <frame tileid="402" duration="150"/>
    <frame tileid="406" duration="150"/>
    <frame tileid="410" duration="150"/>
    <frame tileid="414" duration="150"/>
    <frame tileid="418" duration="150"/>
    <frame tileid="422" duration="150"/>
    <frame tileid="426" duration="150"/>
    <frame tileid="430" duration="150"/>
    <frame tileid="434" duration="150"/>
    <frame tileid="438" duration="150"/>
   </animation>
  </tile>
  <tile id="403">
   <animation>
    <frame tileid="403" duration="150"/>
    <frame tileid="407" duration="150"/>
    <frame tileid="411" duration="150"/>
    <frame tileid="415" duration="150"/>
    <frame tileid="419" duration="150"/>
    <frame tileid="423" duration="150"/>
    <frame tileid="427" duration="150"/>
    <frame tileid="431" duration="150"/>
    <frame tileid="435" duration="150"/>
    <frame tileid="439" duration="150"/>
   </animation>
  </tile>
  <tile id="440">
   <animation>
    <frame tileid="440" duration="150"/>
    <frame tileid="444" duration="150"/>
    <frame tileid="448" duration="150"/>
    <frame tileid="452" duration="150"/>
    <frame tileid="456" duration="150"/>
    <frame tileid="460" duration="150"/>
    <frame tileid="464" duration="150"/>
    <frame tileid="468" duration="150"/>
    <frame tileid="472" duration="150"/>
    <frame tileid="476" duration="150"/>
   </animation>
  </tile>
  <tile id="441">
   <animation>
    <frame tileid="441" duration="150"/>
    <frame tileid="445" duration="150"/>
    <frame tileid="449" duration="150"/>
    <frame tileid="453" duration="150"/>
    <frame tileid="457" duration="150"/>
    <frame tileid="461" duration="150"/>
    <frame tileid="465" duration="150"/>
    <frame tileid="469" duration="150"/>
    <frame tileid="473" duration="150"/>
    <frame tileid="477" duration="150"/>
   </animation>
  </tile>
  <tile id="442">
   <animation>
    <frame tileid="442" duration="150"/>
    <frame tileid="446" duration="150"/>
    <frame tileid="450" duration="150"/>
    <frame tileid="454" duration="150"/>
    <frame tileid="458" duration="150"/>
    <frame tileid="462" duration="150"/>
    <frame tileid="466" duration="150"/>
    <frame tileid="470" duration="150"/>
    <frame tileid="474" duration="150"/>
    <frame tileid="478" duration="150"/>
   </animation>
  </tile>
  <tile id="443">
   <animation>
    <frame tileid="443" duration="150"/>
    <frame tileid="447" duration="150"/>
    <frame tileid="451" duration="150"/>
    <frame tileid="455" duration="150"/>
    <frame tileid="459" duration="150"/>
    <frame tileid="463" duration="150"/>
    <frame tileid="467" duration="150"/>
    <frame tileid="471" duration="150"/>
    <frame tileid="475" duration="150"/>
    <frame tileid="479" duration="150"/>
   </animation>
  </tile>
  <tile id="480">
   <animation>
    <frame tileid="480" duration="150"/>
    <frame tileid="484" duration="150"/>
    <frame tileid="488" duration="150"/>
    <frame tileid="492" duration="150"/>
    <frame tileid="496" duration="150"/>
    <frame tileid="500" duration="150"/>
    <frame tileid="504" duration="150"/>
    <frame tileid="508" duration="150"/>
    <frame tileid="512" duration="150"/>
    <frame tileid="516" duration="150"/>
   </animation>
  </tile>
  <tile id="481">
   <animation>
    <frame tileid="481" duration="150"/>
    <frame tileid="485" duration="150"/>
    <frame tileid="489" duration="150"/>
    <frame tileid="493" duration="150"/>
    <frame tileid="497" duration="150"/>
    <frame tileid="501" duration="150"/>
    <frame tileid="505" duration="150"/>
    <frame tileid="509" duration="150"/>
    <frame tileid="513" duration="150"/>
    <frame tileid="517" duration="150"/>
   </animation>
  </tile>
  <tile id="482">
   <animation>
    <frame tileid="482" duration="150"/>
    <frame tileid="486" duration="150"/>
    <frame tileid="490" duration="150"/>
    <frame tileid="494" duration="150"/>
    <frame tileid="498" duration="150"/>
    <frame tileid="502" duration="150"/>
    <frame tileid="506" duration="150"/>
    <frame tileid="510" duration="150"/>
    <frame tileid="514" duration="150"/>
    <frame tileid="518" duration="150"/>
   </animation>
  </tile>
  <tile id="483">
   <animation>
    <frame tileid="483" duration="150"/>
    <frame tileid="487" duration="150"/>
    <frame tileid="491" duration="150"/>
    <frame tileid="495" duration="150"/>
    <frame tileid="499" duration="150"/>
    <frame tileid="503" duration="150"/>
    <frame tileid="507" duration="150"/>
    <frame tileid="511" duration="150"/>
    <frame tileid="515" duration="150"/>
    <frame tileid="519" duration="150"/>
   </animation>
  </tile>
  <tile id="520">
   <animation>
    <frame tileid="520" duration="150"/>
    <frame tileid="524" duration="150"/>
    <frame tileid="528" duration="150"/>
    <frame tileid="532" duration="150"/>
    <frame tileid="536" duration="150"/>
    <frame tileid="540" duration="150"/>
    <frame tileid="544" duration="150"/>
    <frame tileid="548" duration="150"/>
    <frame tileid="552" duration="150"/>
    <frame tileid="556" duration="150"/>
   </animation>
  </tile>
  <tile id="521">
   <animation>
    <frame tileid="521" duration="150"/>
    <frame tileid="525" duration="150"/>
    <frame tileid="529" duration="150"/>
    <frame tileid="533" duration="150"/>
    <frame tileid="537" duration="150"/>
    <frame tileid="541" duration="150"/>
    <frame tileid="545" duration="150"/>
    <frame tileid="549" duration="150"/>
    <frame tileid="553" duration="150"/>
    <frame tileid="557" duration="150"/>
   </animation>
  </tile>
  <tile id="522">
   <animation>
    <frame tileid="522" duration="150"/>
    <frame tileid="526" duration="150"/>
    <frame tileid="530" duration="150"/>
    <frame tileid="534" duration="150"/>
    <frame tileid="538" duration="150"/>
    <frame tileid="542" duration="150"/>
    <frame tileid="546" duration="150"/>
    <frame tileid="550" duration="150"/>
    <frame tileid="554" duration="150"/>
    <frame tileid="558" duration="150"/>
   </animation>
  </tile>
  <tile id="523">
   <animation>
    <frame tileid="523" duration="150"/>
    <frame tileid="527" duration="150"/>
    <frame tileid="531" duration="150"/>
    <frame tileid="535" duration="150"/>
    <frame tileid="539" duration="150"/>
    <frame tileid="543" duration="150"/>
    <frame tileid="547" duration="150"/>
    <frame tileid="551" duration="150"/>
    <frame tileid="555" duration="150"/>
    <frame tileid="559" duration="150"/>
   </animation>
  </tile>
  <tile id="560">
   <animation>
    <frame tileid="560" duration="150"/>
    <frame tileid="564" duration="150"/>
    <frame tileid="568" duration="150"/>
    <frame tileid="572" duration="150"/>
    <frame tileid="576" duration="150"/>
    <frame tileid="580" duration="150"/>
    <frame tileid="584" duration="150"/>
    <frame tileid="588" duration="150"/>
    <frame tileid="592" duration="150"/>
    <frame tileid="596" duration="150"/>
   </animation>
  </tile>
  <tile id="561">
   <animation>
    <frame tileid="561" duration="150"/>
    <frame tileid="565" duration="150"/>
    <frame tileid="569" duration="150"/>
    <frame tileid="573" duration="150"/>
    <frame tileid="577" duration="150"/>
    <frame tileid="581" duration="150"/>
    <frame tileid="585" duration="150"/>
    <frame tileid="589" duration="150"/>
    <frame tileid="593" duration="150"/>
    <frame tileid="597" duration="150"/>
   </animation>
  </tile>
  <tile id="562">
   <animation>
    <frame tileid="562" duration="150"/>
    <frame tileid="566" duration="150"/>
    <frame tileid="570" duration="150"/>
    <frame tileid="574" duration="150"/>
    <frame tileid="578" duration="150"/>
    <frame tileid="582" duration="150"/>
    <frame tileid="586" duration="150"/>
    <frame tileid="590" duration="150"/>
    <frame tileid="594" duration="150"/>
    <frame tileid="598" duration="150"/>
   </animation>
  </tile>
  <tile id="563">
   <animation>
    <frame tileid="563" duration="150"/>
    <frame tileid="567" duration="150"/>
    <frame tileid="571" duration="150"/>
    <frame tileid="575" duration="150"/>
    <frame tileid="579" duration="150"/>
    <frame tileid="583" duration="150"/>
    <frame tileid="587" duration="150"/>
    <frame tileid="591" duration="150"/>
    <frame tileid="595" duration="150"/>
    <frame tileid="599" duration="150"/>
   </animation>
  </tile>
  <tile id="600">
   <animation>
    <frame tileid="600" duration="150"/>
    <frame tileid="604" duration="150"/>
    <frame tileid="608" duration="150"/>
    <frame tileid="612" duration="150"/>
    <frame tileid="616" duration="150"/>
    <frame tileid="620" duration="150"/>
    <frame tileid="624" duration="150"/>
    <frame tileid="628" duration="150"/>
    <frame tileid="632" duration="150"/>
    <frame tileid="636" duration="150"/>
   </animation>
  </tile>
  <tile id="601">
   <animation>
    <frame tileid="601" duration="150"/>
    <frame tileid="605" duration="150"/>
    <frame tileid="609" duration="150"/>
    <frame tileid="613" duration="150"/>
    <frame tileid="617" duration="150"/>
    <frame tileid="621" duration="150"/>
    <frame tileid="625" duration="150"/>
    <frame tileid="629" duration="150"/>
    <frame tileid="633" duration="150"/>
    <frame tileid="637" duration="150"/>
   </animation>
  </tile>
  <tile id="602">
   <animation>
    <frame tileid="602" duration="150"/>
    <frame tileid="606" duration="150"/>
    <frame tileid="610" duration="150"/>
    <frame tileid="614" duration="150"/>
    <frame tileid="618" duration="150"/>
    <frame tileid="622" duration="150"/>
    <frame tileid="626" duration="150"/>
    <frame tileid="630" duration="150"/>
    <frame tileid="634" duration="150"/>
    <frame tileid="638" duration="150"/>
   </animation>
  </tile>
  <tile id="603">
   <animation>
    <frame tileid="603" duration="150"/>
    <frame tileid="607" duration="150"/>
    <frame tileid="611" duration="150"/>
    <frame tileid="615" duration="150"/>
    <frame tileid="619" duration="150"/>
    <frame tileid="623" duration="150"/>
    <frame tileid="627" duration="150"/>
    <frame tileid="631" duration="150"/>
    <frame tileid="635" duration="150"/>
    <frame tileid="639" duration="150"/>
   </animation>
  </tile>
 </tileset>
 <tileset firstgid="10087" name="Slime1_Hurt_full" tilewidth="16" tileheight="16" tilecount="320" columns="20">
  <image source="Slime1_Hurt.png" width="320" height="256"/>
  <tile id="0">
   <animation>
    <frame tileid="0" duration="150"/>
    <frame tileid="4" duration="150"/>
    <frame tileid="8" duration="150"/>
    <frame tileid="12" duration="150"/>
    <frame tileid="16" duration="150"/>
   </animation>
  </tile>
  <tile id="1">
   <animation>
    <frame tileid="1" duration="150"/>
    <frame tileid="5" duration="150"/>
    <frame tileid="9" duration="150"/>
    <frame tileid="13" duration="150"/>
    <frame tileid="17" duration="150"/>
   </animation>
  </tile>
  <tile id="2">
   <animation>
    <frame tileid="2" duration="150"/>
    <frame tileid="6" duration="150"/>
    <frame tileid="10" duration="150"/>
    <frame tileid="14" duration="150"/>
    <frame tileid="18" duration="150"/>
   </animation>
  </tile>
  <tile id="3">
   <animation>
    <frame tileid="3" duration="150"/>
    <frame tileid="7" duration="150"/>
    <frame tileid="11" duration="150"/>
    <frame tileid="15" duration="150"/>
    <frame tileid="19" duration="150"/>
   </animation>
  </tile>
  <tile id="20">
   <animation>
    <frame tileid="20" duration="150"/>
    <frame tileid="24" duration="150"/>
    <frame tileid="28" duration="150"/>
    <frame tileid="32" duration="150"/>
    <frame tileid="36" duration="150"/>
   </animation>
  </tile>
  <tile id="21">
   <animation>
    <frame tileid="21" duration="150"/>
    <frame tileid="25" duration="150"/>
    <frame tileid="29" duration="150"/>
    <frame tileid="33" duration="150"/>
    <frame tileid="37" duration="150"/>
   </animation>
  </tile>
  <tile id="22">
   <animation>
    <frame tileid="22" duration="150"/>
    <frame tileid="26" duration="150"/>
    <frame tileid="30" duration="150"/>
    <frame tileid="34" duration="150"/>
    <frame tileid="38" duration="150"/>
   </animation>
  </tile>
  <tile id="23">
   <animation>
    <frame tileid="23" duration="150"/>
    <frame tileid="27" duration="150"/>
    <frame tileid="31" duration="150"/>
    <frame tileid="35" duration="150"/>
    <frame tileid="39" duration="150"/>
   </animation>
  </tile>
  <tile id="40">
   <animation>
    <frame tileid="40" duration="150"/>
    <frame tileid="44" duration="150"/>
    <frame tileid="48" duration="150"/>
    <frame tileid="52" duration="150"/>
    <frame tileid="56" duration="150"/>
   </animation>
  </tile>
  <tile id="41">
   <animation>
    <frame tileid="41" duration="150"/>
    <frame tileid="45" duration="150"/>
    <frame tileid="49" duration="150"/>
    <frame tileid="53" duration="150"/>
    <frame tileid="57" duration="150"/>
   </animation>
  </tile>
  <tile id="42">
   <animation>
    <frame tileid="42" duration="150"/>
    <frame tileid="46" duration="150"/>
    <frame tileid="50" duration="150"/>
    <frame tileid="54" duration="150"/>
    <frame tileid="58" duration="150"/>
   </animation>
  </tile>
  <tile id="43">
   <animation>
    <frame tileid="43" duration="150"/>
    <frame tileid="47" duration="150"/>
    <frame tileid="51" duration="150"/>
    <frame tileid="55" duration="150"/>
    <frame tileid="59" duration="150"/>
   </animation>
  </tile>
  <tile id="60">
   <animation>
    <frame tileid="60" duration="150"/>
    <frame tileid="64" duration="150"/>
    <frame tileid="68" duration="150"/>
    <frame tileid="72" duration="150"/>
    <frame tileid="76" duration="150"/>
   </animation>
  </tile>
  <tile id="61">
   <animation>
    <frame tileid="61" duration="150"/>
    <frame tileid="65" duration="150"/>
    <frame tileid="69" duration="150"/>
    <frame tileid="73" duration="150"/>
    <frame tileid="77" duration="150"/>
   </animation>
  </tile>
  <tile id="62">
   <animation>
    <frame tileid="62" duration="150"/>
    <frame tileid="66" duration="150"/>
    <frame tileid="70" duration="150"/>
    <frame tileid="74" duration="150"/>
    <frame tileid="78" duration="150"/>
   </animation>
  </tile>
  <tile id="63">
   <animation>
    <frame tileid="63" duration="150"/>
    <frame tileid="67" duration="150"/>
    <frame tileid="71" duration="150"/>
    <frame tileid="75" duration="150"/>
    <frame tileid="79" duration="150"/>
   </animation>
  </tile>
  <tile id="80">
   <animation>
    <frame tileid="80" duration="150"/>
    <frame tileid="84" duration="150"/>
    <frame tileid="88" duration="150"/>
    <frame tileid="92" duration="150"/>
    <frame tileid="96" duration="150"/>
   </animation>
  </tile>
  <tile id="81">
   <animation>
    <frame tileid="81" duration="150"/>
    <frame tileid="85" duration="150"/>
    <frame tileid="89" duration="150"/>
    <frame tileid="93" duration="150"/>
    <frame tileid="97" duration="150"/>
   </animation>
  </tile>
  <tile id="82">
   <animation>
    <frame tileid="82" duration="150"/>
    <frame tileid="86" duration="150"/>
    <frame tileid="90" duration="150"/>
    <frame tileid="94" duration="150"/>
    <frame tileid="98" duration="150"/>
   </animation>
  </tile>
  <tile id="83">
   <animation>
    <frame tileid="83" duration="150"/>
    <frame tileid="87" duration="150"/>
    <frame tileid="91" duration="150"/>
    <frame tileid="95" duration="150"/>
    <frame tileid="99" duration="150"/>
   </animation>
  </tile>
  <tile id="100">
   <animation>
    <frame tileid="100" duration="150"/>
    <frame tileid="104" duration="150"/>
    <frame tileid="108" duration="150"/>
    <frame tileid="112" duration="150"/>
    <frame tileid="116" duration="150"/>
   </animation>
  </tile>
  <tile id="101">
   <animation>
    <frame tileid="101" duration="150"/>
    <frame tileid="105" duration="150"/>
    <frame tileid="109" duration="150"/>
    <frame tileid="113" duration="150"/>
    <frame tileid="117" duration="150"/>
   </animation>
  </tile>
  <tile id="102">
   <animation>
    <frame tileid="102" duration="150"/>
    <frame tileid="106" duration="150"/>
    <frame tileid="110" duration="150"/>
    <frame tileid="114" duration="150"/>
    <frame tileid="118" duration="150"/>
   </animation>
  </tile>
  <tile id="103">
   <animation>
    <frame tileid="103" duration="150"/>
    <frame tileid="107" duration="150"/>
    <frame tileid="111" duration="150"/>
    <frame tileid="115" duration="150"/>
    <frame tileid="119" duration="150"/>
   </animation>
  </tile>
  <tile id="120">
   <animation>
    <frame tileid="120" duration="150"/>
    <frame tileid="124" duration="150"/>
    <frame tileid="128" duration="150"/>
    <frame tileid="132" duration="150"/>
    <frame tileid="136" duration="150"/>
   </animation>
  </tile>
  <tile id="121">
   <animation>
    <frame tileid="121" duration="150"/>
    <frame tileid="125" duration="150"/>
    <frame tileid="129" duration="150"/>
    <frame tileid="133" duration="150"/>
    <frame tileid="137" duration="150"/>
   </animation>
  </tile>
  <tile id="122">
   <animation>
    <frame tileid="122" duration="150"/>
    <frame tileid="126" duration="150"/>
    <frame tileid="130" duration="150"/>
    <frame tileid="134" duration="150"/>
    <frame tileid="138" duration="150"/>
   </animation>
  </tile>
  <tile id="123">
   <animation>
    <frame tileid="123" duration="150"/>
    <frame tileid="127" duration="150"/>
    <frame tileid="131" duration="150"/>
    <frame tileid="135" duration="150"/>
    <frame tileid="139" duration="150"/>
   </animation>
  </tile>
  <tile id="140">
   <animation>
    <frame tileid="140" duration="150"/>
    <frame tileid="144" duration="150"/>
    <frame tileid="148" duration="150"/>
    <frame tileid="152" duration="150"/>
    <frame tileid="156" duration="150"/>
   </animation>
  </tile>
  <tile id="141">
   <animation>
    <frame tileid="141" duration="150"/>
    <frame tileid="145" duration="150"/>
    <frame tileid="149" duration="150"/>
    <frame tileid="153" duration="150"/>
    <frame tileid="157" duration="150"/>
   </animation>
  </tile>
  <tile id="142">
   <animation>
    <frame tileid="142" duration="150"/>
    <frame tileid="146" duration="150"/>
    <frame tileid="150" duration="150"/>
    <frame tileid="154" duration="150"/>
    <frame tileid="158" duration="150"/>
   </animation>
  </tile>
  <tile id="143">
   <animation>
    <frame tileid="143" duration="150"/>
    <frame tileid="147" duration="150"/>
    <frame tileid="151" duration="150"/>
    <frame tileid="155" duration="150"/>
    <frame tileid="159" duration="150"/>
   </animation>
  </tile>
  <tile id="160">
   <animation>
    <frame tileid="160" duration="150"/>
    <frame tileid="164" duration="150"/>
    <frame tileid="168" duration="150"/>
    <frame tileid="172" duration="150"/>
    <frame tileid="176" duration="150"/>
   </animation>
  </tile>
  <tile id="161">
   <animation>
    <frame tileid="161" duration="150"/>
    <frame tileid="165" duration="150"/>
    <frame tileid="169" duration="150"/>
    <frame tileid="173" duration="150"/>
    <frame tileid="177" duration="150"/>
   </animation>
  </tile>
  <tile id="162">
   <animation>
    <frame tileid="162" duration="150"/>
    <frame tileid="166" duration="150"/>
    <frame tileid="170" duration="150"/>
    <frame tileid="174" duration="150"/>
    <frame tileid="178" duration="150"/>
   </animation>
  </tile>
  <tile id="163">
   <animation>
    <frame tileid="163" duration="150"/>
    <frame tileid="167" duration="150"/>
    <frame tileid="171" duration="150"/>
    <frame tileid="175" duration="150"/>
    <frame tileid="179" duration="150"/>
   </animation>
  </tile>
  <tile id="180">
   <animation>
    <frame tileid="180" duration="150"/>
    <frame tileid="184" duration="150"/>
    <frame tileid="188" duration="150"/>
    <frame tileid="192" duration="150"/>
    <frame tileid="196" duration="150"/>
   </animation>
  </tile>
  <tile id="181">
   <animation>
    <frame tileid="181" duration="150"/>
    <frame tileid="185" duration="150"/>
    <frame tileid="189" duration="150"/>
    <frame tileid="193" duration="150"/>
    <frame tileid="197" duration="150"/>
   </animation>
  </tile>
  <tile id="182">
   <animation>
    <frame tileid="182" duration="150"/>
    <frame tileid="186" duration="150"/>
    <frame tileid="190" duration="150"/>
    <frame tileid="194" duration="150"/>
    <frame tileid="198" duration="150"/>
   </animation>
  </tile>
  <tile id="183">
   <animation>
    <frame tileid="183" duration="150"/>
    <frame tileid="187" duration="150"/>
    <frame tileid="191" duration="150"/>
    <frame tileid="195" duration="150"/>
    <frame tileid="199" duration="150"/>
   </animation>
  </tile>
  <tile id="200">
   <animation>
    <frame tileid="200" duration="150"/>
    <frame tileid="204" duration="150"/>
    <frame tileid="208" duration="150"/>
    <frame tileid="212" duration="150"/>
    <frame tileid="216" duration="150"/>
   </animation>
  </tile>
  <tile id="201">
   <animation>
    <frame tileid="201" duration="150"/>
    <frame tileid="205" duration="150"/>
    <frame tileid="209" duration="150"/>
    <frame tileid="213" duration="150"/>
    <frame tileid="217" duration="150"/>
   </animation>
  </tile>
  <tile id="202">
   <animation>
    <frame tileid="202" duration="150"/>
    <frame tileid="206" duration="150"/>
    <frame tileid="210" duration="150"/>
    <frame tileid="214" duration="150"/>
    <frame tileid="218" duration="150"/>
   </animation>
  </tile>
  <tile id="203">
   <animation>
    <frame tileid="203" duration="150"/>
    <frame tileid="207" duration="150"/>
    <frame tileid="211" duration="150"/>
    <frame tileid="215" duration="150"/>
    <frame tileid="219" duration="150"/>
   </animation>
  </tile>
  <tile id="220">
   <animation>
    <frame tileid="220" duration="150"/>
    <frame tileid="224" duration="150"/>
    <frame tileid="228" duration="150"/>
    <frame tileid="232" duration="150"/>
    <frame tileid="236" duration="150"/>
   </animation>
  </tile>
  <tile id="221">
   <animation>
    <frame tileid="221" duration="150"/>
    <frame tileid="225" duration="150"/>
    <frame tileid="229" duration="150"/>
    <frame tileid="233" duration="150"/>
    <frame tileid="237" duration="150"/>
   </animation>
  </tile>
  <tile id="222">
   <animation>
    <frame tileid="222" duration="150"/>
    <frame tileid="226" duration="150"/>
    <frame tileid="230" duration="150"/>
    <frame tileid="234" duration="150"/>
    <frame tileid="238" duration="150"/>
   </animation>
  </tile>
  <tile id="223">
   <animation>
    <frame tileid="223" duration="150"/>
    <frame tileid="227" duration="150"/>
    <frame tileid="231" duration="150"/>
    <frame tileid="235" duration="150"/>
    <frame tileid="239" duration="150"/>
   </animation>
  </tile>
  <tile id="240">
   <animation>
    <frame tileid="240" duration="150"/>
    <frame tileid="244" duration="150"/>
    <frame tileid="248" duration="150"/>
    <frame tileid="252" duration="150"/>
    <frame tileid="256" duration="150"/>
   </animation>
  </tile>
  <tile id="241">
   <animation>
    <frame tileid="241" duration="150"/>
    <frame tileid="245" duration="150"/>
    <frame tileid="249" duration="150"/>
    <frame tileid="253" duration="150"/>
    <frame tileid="257" duration="150"/>
   </animation>
  </tile>
  <tile id="242">
   <animation>
    <frame tileid="242" duration="150"/>
    <frame tileid="246" duration="150"/>
    <frame tileid="250" duration="150"/>
    <frame tileid="254" duration="150"/>
    <frame tileid="258" duration="150"/>
   </animation>
  </tile>
  <tile id="243">
   <animation>
    <frame tileid="243" duration="150"/>
    <frame tileid="247" duration="150"/>
    <frame tileid="251" duration="150"/>
    <frame tileid="255" duration="150"/>
    <frame tileid="259" duration="150"/>
   </animation>
  </tile>
  <tile id="260">
   <animation>
    <frame tileid="260" duration="150"/>
    <frame tileid="264" duration="150"/>
    <frame tileid="268" duration="150"/>
    <frame tileid="272" duration="150"/>
    <frame tileid="276" duration="150"/>
   </animation>
  </tile>
  <tile id="261">
   <animation>
    <frame tileid="261" duration="150"/>
    <frame tileid="265" duration="150"/>
    <frame tileid="269" duration="150"/>
    <frame tileid="273" duration="150"/>
    <frame tileid="277" duration="150"/>
   </animation>
  </tile>
  <tile id="262">
   <animation>
    <frame tileid="262" duration="150"/>
    <frame tileid="266" duration="150"/>
    <frame tileid="270" duration="150"/>
    <frame tileid="274" duration="150"/>
    <frame tileid="278" duration="150"/>
   </animation>
  </tile>
  <tile id="263">
   <animation>
    <frame tileid="263" duration="150"/>
    <frame tileid="267" duration="150"/>
    <frame tileid="271" duration="150"/>
    <frame tileid="275" duration="150"/>
    <frame tileid="279" duration="150"/>
   </animation>
  </tile>
  <tile id="280">
   <animation>
    <frame tileid="280" duration="150"/>
    <frame tileid="284" duration="150"/>
    <frame tileid="288" duration="150"/>
    <frame tileid="292" duration="150"/>
    <frame tileid="296" duration="150"/>
   </animation>
  </tile>
  <tile id="281">
   <animation>
    <frame tileid="281" duration="150"/>
    <frame tileid="285" duration="150"/>
    <frame tileid="289" duration="150"/>
    <frame tileid="293" duration="150"/>
    <frame tileid="297" duration="150"/>
   </animation>
  </tile>
  <tile id="282">
   <animation>
    <frame tileid="282" duration="150"/>
    <frame tileid="286" duration="150"/>
    <frame tileid="290" duration="150"/>
    <frame tileid="294" duration="150"/>
    <frame tileid="298" duration="150"/>
   </animation>
  </tile>
  <tile id="283">
   <animation>
    <frame tileid="283" duration="150"/>
    <frame tileid="287" duration="150"/>
    <frame tileid="291" duration="150"/>
    <frame tileid="295" duration="150"/>
    <frame tileid="299" duration="150"/>
   </animation>
  </tile>
  <tile id="300">
   <animation>
    <frame tileid="300" duration="150"/>
    <frame tileid="304" duration="150"/>
    <frame tileid="308" duration="150"/>
    <frame tileid="312" duration="150"/>
    <frame tileid="316" duration="150"/>
   </animation>
  </tile>
  <tile id="301">
   <animation>
    <frame tileid="301" duration="150"/>
    <frame tileid="305" duration="150"/>
    <frame tileid="309" duration="150"/>
    <frame tileid="313" duration="150"/>
    <frame tileid="317" duration="150"/>
   </animation>
  </tile>
  <tile id="302">
   <animation>
    <frame tileid="302" duration="150"/>
    <frame tileid="306" duration="150"/>
    <frame tileid="310" duration="150"/>
    <frame tileid="314" duration="150"/>
    <frame tileid="318" duration="150"/>
   </animation>
  </tile>
  <tile id="303">
   <animation>
    <frame tileid="303" duration="150"/>
    <frame tileid="307" duration="150"/>
    <frame tileid="311" duration="150"/>
    <frame tileid="315" duration="150"/>
    <frame tileid="319" duration="150"/>
   </animation>
  </tile>
 </tileset>
 <layer id="1" name="Full" width="16" height="24">
  <data encoding="csv">
1,2,3,4,161,162,163,164,321,322,323,324,481,482,483,484,
41,42,43,44,201,202,203,204,361,362,363,364,521,522,523,524,
81,82,83,84,241,242,243,244,401,402,403,404,561,562,563,564,
121,122,123,124,281,282,283,284,441,442,443,444,601,602,603,604,
641,642,643,644,801,802,803,804,961,962,963,964,1121,1122,1123,1124,
681,682,683,684,841,842,843,844,1001,1002,1003,1004,1161,1162,1163,1164,
721,722,723,724,881,882,883,884,1041,1042,1043,1044,1201,1202,1203,1204,
761,762,763,764,921,922,923,924,1081,1082,1083,1084,1241,1242,1243,1244,
1281,1282,1283,1284,1361,1362,1363,1364,1441,1442,1443,1444,1521,1522,1523,1524,
1301,1302,1303,1304,1381,1382,1383,1384,1461,1462,1463,1464,1541,1542,1543,1544,
1321,1322,1323,1324,1401,1402,1403,1404,1481,1482,1483,1484,1561,1562,1563,1564,
1341,1342,1343,1344,1421,1422,1423,1424,1501,1502,1503,1504,1581,1582,1583,1584,
1601,1602,1603,1604,1697,1698,1699,1700,1793,1794,1795,1796,1889,1890,1891,1892,
1625,1626,1627,1628,1721,1722,1723,1724,1817,1818,1819,1820,1913,1914,1915,1916,
1649,1650,1651,1652,1745,1746,1747,1748,1841,1842,1843,1844,1937,1938,1939,1940,
1673,1674,1675,1676,1769,1770,1771,1772,1865,1866,1867,1868,1961,1962,1963,1964,
1985,1986,1987,1988,2113,2114,2115,2116,2241,2242,2243,2244,2369,2370,2371,2372,
2017,2018,2019,2020,2145,2146,2147,2148,2273,2274,2275,2276,2401,2402,2403,2404,
2049,2050,2051,2052,2177,2178,2179,2180,2305,2306,2307,2308,2433,2434,2435,2436,
2081,2082,2083,2084,2209,2210,2211,2212,2337,2338,2339,2340,2465,2466,2467,2468,
2497,2498,2499,2500,2625,2626,2627,2628,2753,2754,2755,2756,2881,2882,2883,2884,
2529,2530,2531,2532,2657,2658,2659,2660,2785,2786,2787,2788,2913,2914,2915,2916,
2561,2562,2563,2564,2689,2690,2691,2692,2817,2818,2819,2820,2945,2946,2947,2948,
2593,2594,2595,2596,2721,2722,2723,2724,2849,2850,2851,2852,2977,2978,2979,2980
</data>
 </layer>
 <layer id="4" name="Shadow" width="16" height="24" visible="0">
  <data encoding="csv">
0,0,0,0,0,0,0,0,0,0,0,0,0,0,0,0,
0,0,0,0,0,6359,6360,0,0,0,0,0,0,0,0,0,
0,6339,6340,0,0,6379,6380,0,0,6399,6400,0,0,6419,6420,0,
0,0,0,0,0,0,0,0,0,0,0,0,0,0,0,0,
0,0,0,0,0,0,0,0,0,0,0,0,0,0,0,0,
0,0,0,0,0,0,0,0,0,0,0,0,0,0,0,0,
6179,6180,6181,6182,6219,6220,6221,6222,6259,6260,6261,6262,6299,6300,6301,6302,
0,0,0,0,0,0,0,0,0,0,0,0,0,0,0,0,
0,0,0,0,0,0,0,0,0,0,0,0,0,0,0,0,
0,0,0,0,0,0,0,0,0,0,0,0,0,0,0,0,
0,6177,6178,0,0,6177,6178,0,0,6177,6178,0,0,6177,6178,0,
0,0,0,0,0,0,0,0,0,0,0,0,0,0,0,0,
0,0,0,0,0,0,0,0,0,0,0,0,0,0,0,0,
0,0,0,0,0,0,0,0,0,0,0,0,0,0,0,0,
0,6177,6178,0,0,6177,6178,0,0,6177,6178,0,0,6177,6178,0,
0,0,0,0,0,0,0,0,0,0,0,0,0,0,0,0,
0,0,0,0,0,0,0,0,0,0,0,0,0,0,0,0,
0,0,0,0,0,0,0,0,0,0,0,0,0,0,0,0,
0,6113,6114,0,0,6129,6130,0,0,6145,6146,0,0,6161,6162,0,
0,0,0,0,0,0,0,0,0,0,0,0,0,0,0,0,
0,0,0,0,0,0,0,0,0,0,0,0,0,0,0,0,
0,0,0,0,0,0,0,0,0,0,0,0,0,0,0,0,
0,6017,6018,0,0,6041,6042,0,6065,6066,6067,0,0,6089,6090,6091,
0,0,0,0,0,0,0,0,0,0,0,0,0,0,0,0
</data>
 </layer>
 <layer id="6" name="Full_without_shadow" width="16" height="24">
  <data encoding="csv">
8295,8296,8297,8298,8455,8456,8457,8458,8615,8616,8617,8618,8775,8776,8777,8778,
8335,8336,8337,8338,8495,8496,8497,8498,8655,8656,8657,8658,8815,8816,8817,8818,
8375,8376,8377,8378,8535,8536,8537,8538,8695,8696,8697,8698,8855,8856,8857,8858,
8415,8416,8417,8418,8575,8576,8577,8578,8735,8736,8737,8738,8895,8896,8897,8898,
7655,7656,7657,7658,7815,7816,7817,7818,7975,7976,7977,7978,8135,8136,8137,8138,
7695,7696,7697,7698,7855,7856,7857,7858,8015,8016,8017,8018,8175,8176,8177,8178,
7735,7736,7737,7738,7895,7896,7897,7898,8055,8056,8057,8058,8215,8216,8217,8218,
7775,7776,7777,7778,7935,7936,7937,7938,8095,8096,8097,8098,8255,8256,8257,8258,
6951,6952,6953,6954,7031,7032,7033,7034,7111,7112,7113,7114,7191,7192,7193,7194,
6971,6972,6973,6974,7051,7052,7053,7054,7131,7132,7133,7134,7211,7212,7213,7214,
6991,6992,6993,6994,7071,7072,7073,7074,7151,7152,7153,7154,7231,7232,7233,7234,
7011,7012,7013,7014,7091,7092,7093,7094,7171,7172,7173,7174,7251,7252,7253,7254,
7271,7272,7273,7274,7367,7368,7369,7370,7463,7464,7465,7466,7559,7560,7561,7562,
7295,7296,7297,7298,7391,7392,7393,7394,7487,7488,7489,7490,7583,7584,7585,7586,
7319,7320,7321,7322,7415,7416,7417,7418,7511,7512,7513,7514,7607,7608,7609,7610,
7343,7344,7345,7346,7439,7440,7441,7442,7535,7536,7537,7538,7631,7632,7633,7634,
8935,8936,8937,8938,9063,9064,9065,9066,9191,9192,9193,9194,9319,9320,9321,9322,
8967,8968,8969,8970,9095,9096,9097,9098,9223,9224,9225,9226,9351,9352,9353,9354,
8999,9000,9001,9002,9127,9128,9129,9130,9255,9256,9257,9258,9383,9384,9385,9386,
9031,9032,9033,9034,9159,9160,9161,9162,9287,9288,9289,9290,9415,9416,9417,9418,
6439,6440,6441,6442,6567,6568,6569,6570,6695,6696,6697,6698,6823,6824,6825,6826,
6471,6472,6473,6474,6599,6600,6601,6602,6727,6728,6729,6730,6855,6856,6857,6858,
6503,6504,6505,6506,6631,6632,6633,6634,6759,6760,6761,6762,6887,6888,6889,6890,
6535,6536,6537,6538,6663,6664,6665,6666,6791,6792,6793,6794,6919,6920,6921,6922
</data>
 </layer>
 <group id="8" name="parts">
  <layer id="5" name="Body" width="16" height="24">
   <data encoding="csv">
3841,3842,3843,3844,4001,4002,4003,4004,4161,4162,4163,4164,4321,4322,4323,4324,
3881,3882,3883,3884,4041,4042,4043,4044,4201,4202,4203,4204,4361,4362,4363,4364,
3921,3922,3923,3924,4081,4082,4083,4084,4241,4242,4243,4244,4401,4402,4403,4404,
3961,3962,3963,3964,4121,4122,4123,4124,4281,4282,4283,4284,4441,4442,4443,4444,
4865,4866,4867,4868,5025,5026,5027,5028,5185,5186,5187,5188,5345,5346,5347,5348,
4905,4906,4907,4908,5065,5066,5067,5068,5225,5226,5227,5228,5385,5386,5387,5388,
4945,4946,4947,4948,5105,5106,5107,5108,5265,5266,5267,5268,5425,5426,5427,5428,
4985,4986,4987,4988,5145,5146,5147,5148,5305,5306,5307,5308,5465,5466,5467,5468,
3521,3522,3523,3524,3601,3602,3603,3604,3681,3682,3683,3684,3761,3762,3763,3764,
3541,3542,3543,3544,3621,3622,3623,3624,3701,3702,3703,3704,3781,3782,3783,3784,
3561,3562,3563,3564,3641,3642,3643,3644,3721,3722,3723,3724,3801,3802,3803,3804,
3581,3582,3583,3584,3661,3662,3663,3664,3741,3742,3743,3744,3821,3822,3823,3824,
4481,4482,4483,4484,4577,4578,4579,4580,4673,4674,4675,4676,4769,4770,4771,4772,
4505,4506,4507,4508,4601,4602,4603,4604,4697,4698,4699,4700,4793,4794,4795,4796,
4529,4530,4531,4532,4625,4626,4627,4628,4721,4722,4723,4724,4817,4818,4819,4820,
4553,4554,4555,4556,4649,4650,4651,4652,4745,4746,4747,4748,4841,4842,4843,4844,
5505,5506,5507,5508,5633,5634,5635,5636,5761,5762,5763,5764,5889,5890,5891,5892,
5537,5538,5539,5540,5665,5666,5667,5668,5793,5794,5795,5796,5921,5922,5923,5924,
5569,5570,5571,5572,5697,5698,5699,5700,5825,5826,5827,5828,5953,5954,5955,5956,
5601,5602,5603,5604,5729,5730,5731,5732,5857,5858,5859,5860,5985,5986,5987,5988,
3009,3010,3011,3012,3137,3138,3139,3140,3265,3266,3267,3268,3393,3394,3395,3396,
3041,3042,3043,3044,3169,3170,3171,3172,3297,3298,3299,3300,3425,3426,3427,3428,
3073,3074,3075,3076,3201,3202,3203,3204,3329,3330,3331,3332,3457,3458,3459,3460,
3105,3106,3107,3108,3233,3234,3235,3236,3361,3362,3363,3364,3489,3490,3491,3492
</data>
  </layer>
  <layer id="7" name="red" width="16" height="24">
   <data encoding="csv">
0,0,0,0,0,0,0,0,0,0,0,0,0,0,0,0,
0,0,0,0,0,0,0,0,0,0,0,0,0,0,0,0,
0,0,0,0,0,0,0,0,0,0,0,0,0,0,0,0,
0,0,0,0,0,0,0,0,0,0,0,0,0,0,0,0,
9447,9448,9449,9450,9607,9608,9609,9610,9767,9768,9769,9770,9927,9928,9929,9930,
9487,9488,9489,9490,9647,9648,9649,9650,9807,9808,9809,9810,9967,9968,9969,9970,
9527,9528,9529,9530,9687,9688,9689,9690,9847,9848,9849,9850,10007,10008,10009,10010,
9567,9568,9569,9570,9727,9728,9729,9730,9887,9888,9889,9890,10047,10048,10049,10050,
10087,10088,10089,10090,10167,10168,10169,10170,10247,10248,10249,10250,10327,10328,10329,10330,
10107,10108,10109,10110,10187,10188,10189,10190,10267,10268,10269,10270,10347,10348,10349,10350,
10127,10128,10129,10130,10207,10208,10209,10210,10287,10288,10289,10290,10367,10368,10369,10370,
10147,10148,10149,10150,10227,10228,10229,10230,10307,10308,10309,10310,10387,10388,10389,10390,
0,0,0,0,0,0,0,0,0,0,0,0,0,0,0,0,
0,0,0,0,0,0,0,0,0,0,0,0,0,0,0,0,
0,0,0,0,0,0,0,0,0,0,0,0,0,0,0,0,
0,0,0,0,0,0,0,0,0,0,0,0,0,0,0,0,
0,0,0,0,0,0,0,0,0,0,0,0,0,0,0,0,
0,0,0,0,0,0,0,0,0,0,0,0,0,0,0,0,
0,0,0,0,0,0,0,0,0,0,0,0,0,0,0,0,
0,0,0,0,0,0,0,0,0,0,0,0,0,0,0,0,
0,0,0,0,0,0,0,0,0,0,0,0,0,0,0,0,
0,0,0,0,0,0,0,0,0,0,0,0,0,0,0,0,
0,0,0,0,0,0,0,0,0,0,0,0,0,0,0,0,
0,0,0,0,0,0,0,0,0,0,0,0,0,0,0,0
</data>
  </layer>
 </group>
</map>
